%
(Climbing Keyholder V11)
(T1  D=0.25 CR=0 - ZMIN=0 - flat end mill)
G90
G17
G20
G28 G91 Z0
G90

(2D Pocket1)
T1 M6
S21000 M3
G54
G0 X-0.1005 Y2.6859
Z1.39
Z0.99
G1 Z0.8294 F15
Z0.545 F75
X-0.1003 Y2.6857 Z0.5411
X-0.0996 Y2.6851 Z0.5373
X-0.0984 Y2.6841 Z0.5337
X-0.0969 Y2.6828 Z0.5303
X-0.0949 Y2.6811 Z0.5273
X-0.0927 Y2.6792 Z0.5248
X-0.0901 Y2.677 Z0.5227
X-0.0874 Y2.6747 Z0.5212
X-0.0845 Y2.6722 Z0.5203
X-0.0815 Y2.6697 Z0.52
X1.0901 Y1.6688
G3 X1.302 Y1.5758 I0.2598 J0.3041
G2 X1.3288 Y1.4277 I-0.0774 J-0.0905
G3 X1.4112 Y1.3016 I0.0746 J-0.0412
X1.4722 Y1.31 I-0.0613 J0.6713
X1.521 Y1.3209 I-0.1223 J0.6629 F18.75
G2 X1.5292 Y1.3122 I0.0017 J-0.0066
G3 X1.4993 Y1.1645 I0.6784 J-0.2141 F75
X1.503 Y1.0138 I0.6394 J-0.0599
X1.5142 Y0.9419 I2.974 J0.4246
G2 X1.5179 Y0.9194 I-2.9629 J-0.4966
X1.5254 Y0.8699 I-2.9666 J-0.4741 F18.75
X1.5164 Y0.8625 I-0.0068 J-0.0009
G3 X1.3685 Y0.8934 I-0.211 J-0.6403 F75
X1.3186 Y0.8962 I-0.0631 J-0.6712 F18.75
G2 X1.3098 Y0.9071 I0.0002 J0.0092
G3 X1.2853 Y1.2469 I-0.6629 J0.1229 F75
X1.2675 Y1.2936 I-0.6384 J-0.2169 F18.75
G2 X1.2744 Y1.3029 I0.0062 J0.0026
G3 X1.4112 Y1.3015 I0.0755 J0.67 F75
X1.5181 Y1.3948 I-0.011 J0.1205
G2 X1.6037 Y1.5076 I0.1683 J-0.0388
G3 X1.8538 Y1.8087 I-0.2538 J0.4653
X1.8843 Y1.9053 I-5.4247 J1.7677
G2 X1.8996 Y1.9543 I5.4531 J-1.6703
X1.9149 Y2.0019 I5.4378 J-1.7193 F18.75
G1 X1.9155 Y2.0033
X1.9166 Y2.0042
X1.918 Y2.0047
X1.9194
X1.9208 Y2.0041
X1.9219 Y2.0031
X1.9225 Y2.0018
X1.9227 Y2.0003
X1.894 Y1.7134 F75
G2 X1.8906 Y1.7022 I-0.03 J0.003
G1 X1.705 Y1.3595
G3 X1.6475 Y1.0344 I0.4671 J-0.2502
G1 X1.7101 Y0.608
X1.7173 Y0.5586 F18.75
X1.7174 Y0.5568
X1.7172 Y0.5551
X1.7145 Y0.5436
X1.7138 Y0.542
X1.7127 Y0.5407
X1.7111 Y0.5398
X1.7094 Y0.5396
X1.7076 Y0.5399
X1.7061 Y0.5408
X1.705 Y0.5421
G3 X1.6608 Y0.6067 I-0.517 J-0.3059 F75
X1.6037 Y0.6601 I-0.2006 J-0.1572
X1.3372 Y0.7502 I-0.2947 J-0.4327
X1.1075 Y0.7118 I-0.0288 J-0.5337
X1.0621 Y0.6909 I0.2009 J-0.4953 F18.75
G1 X1.0607 Y0.6905
X1.0593 Y0.6906
X1.058 Y0.6913
X1.057 Y0.6924
X1.0565 Y0.6938
X1.0566 Y0.6953
X1.0572 Y0.6966
X1.0653 Y0.7069 F75
X1.0734 Y0.7173
G3 X1.0522 Y1.3714 I-0.4275 J0.3135
G1 X0.6221 Y1.8793
X0.5898 Y1.9175 F18.75
X0.5891 Y1.9188
X0.5889 Y1.9202
X0.5892 Y1.9216
X0.59 Y1.9228
X0.5912 Y1.9236
X0.5927 Y1.924
X0.5941 Y1.9237
X0.5954 Y1.923
X1.0058 Y1.5701 F75
G3 X1.6036 Y1.5078 I0.3441 J0.4028
G1 X1.6057 Y1.5087
X1.6079 Y1.5092
X1.6101 Y1.5093
X1.6123 Y1.509
X1.6918 Y1.4912
G3 X1.7041 Y1.4953 I0.0028 J0.0122
G1 X1.7053 Y1.4969
X1.7062 Y1.4987
X1.7068 Y1.5005
X2.1617 Y3.1568
X2.1643 Y3.1617
X2.1649 Y3.1623
X2.1657 Y3.1625
X2.1665 Y3.1623
X2.167 Y3.1617
X2.1672 Y3.1608
X2.0203 Y1.6892
G2 X2.009 Y1.6519 I-0.0995 J0.0099
G1 X1.8195 Y1.2982
G3 X1.7761 Y1.0528 I0.3526 J-0.1889
G1 X1.8477 Y0.5513
X1.7213 Y0.004
X1.7101 Y-0.0447 F18.75
X1.6915 Y0.065 F75
X1.6449 Y0.3399
G3 X1.5635 Y0.5222 I-0.3944 J-0.0667
X1.5306 Y0.5528 I-0.1173 J-0.0934
X1.0392 Y0.5208 I-0.2252 J-0.3306
G1 X0.6256 Y0.152
X0.5827 Y0.1137
X0.5454 Y0.0805 F18.75
Y0.1652 F75
Y0.2152 F18.75
X0.9695 Y0.7935 F75
G3 X0.9528 Y1.2877 I-0.3226 J0.2365
G1 X-0.0808 Y2.5149
X-0.0822 Y2.5169
X-0.0831 Y2.519
X-0.0837 Y2.5214
X-0.1013 Y2.6579
G2 X-0.0808 Y2.669 I0.0124 J0.0016
G1 X1.0901 Y1.6688
G3 X1.7302 Y1.849 I0.2598 J0.3041
G1 X2.1032 Y2.9935
X2.1577 Y3.1608
G2 X2.1642 Y3.1683 I0.0119 J-0.0038
G1 X2.1745 Y3.1731
G2 X2.1922 Y3.1606 I0.0053 J-0.0113
G1 X2.0452 Y1.6867
G2 X2.031 Y1.6401 I-0.1244 J0.0124
G1 X1.8415 Y1.2864
G3 X1.8008 Y1.0563 I0.3306 J-0.1771
G1 X1.8731 Y0.5502
X1.7274 Y-0.0809
G2 X1.7159 Y-0.0906 I-0.0122 J0.0028
G1 X1.7039 Y-0.0913
G2 X1.6907 Y-0.0809 I-0.0008 J0.0125
G1 X1.6668 Y0.0609
X1.6203 Y0.3358
G3 X1.544 Y0.5067 I-0.3698 J-0.0626
X1.5165 Y0.5322 I-0.0978 J-0.0779
X1.0558 Y0.5021 I-0.2111 J-0.31
G1 X0.6422 Y0.1333
X0.5577 Y0.058
X0.5204 Y0.0247 F18.75
Y0.1733 F75
Y0.2233 F18.75
X0.9493 Y0.8082 F75
G3 X0.9337 Y1.2716 I-0.3024 J0.2218
G1 X-0.0807 Y2.4759
X-0.0821 Y2.4781
X-0.0831 Y2.4804
X-0.0836 Y2.4829
X-0.1012 Y2.6913
G2 X-0.0807 Y2.7018 I0.0124 J0.001
G1 X1.1063 Y1.6878
G3 X1.7065 Y1.8567 I0.2436 J0.2851
G1 X2.0794 Y3.0013
X2.1313 Y3.1607
X2.1328 Y3.1643
X2.1377 Y3.1738
X2.1395 Y3.1773 Z0.5203
X2.1412 Y3.1807 Z0.5212
X2.1429 Y3.184 Z0.5227
X2.1444 Y3.1869 Z0.5248
X2.1458 Y3.1896 Z0.5273
X2.1469 Y3.1919 Z0.5303
X2.1479 Y3.1937 Z0.5337
X2.1485 Y3.195 Z0.5373
X2.149 Y3.1958 Z0.5411
X2.1491 Y3.1961 Z0.545
G0 Z0.99
X-0.1005 Y2.6859
G1 Z0.5594 F15
Z0.275 F75
X-0.1003 Y2.6857 Z0.2711
X-0.0996 Y2.6851 Z0.2673
X-0.0984 Y2.6841 Z0.2637
X-0.0969 Y2.6828 Z0.2603
X-0.0949 Y2.6811 Z0.2573
X-0.0927 Y2.6792 Z0.2548
X-0.0901 Y2.677 Z0.2527
X-0.0874 Y2.6747 Z0.2512
X-0.0845 Y2.6722 Z0.2503
X-0.0815 Y2.6697 Z0.25
X1.0901 Y1.6688
G3 X1.302 Y1.5758 I0.2598 J0.3041
G2 X1.3288 Y1.4277 I-0.0774 J-0.0905
G3 X1.4112 Y1.3016 I0.0746 J-0.0412
X1.4722 Y1.31 I-0.0613 J0.6713
X1.521 Y1.3209 I-0.1223 J0.6629 F18.75
G2 X1.5292 Y1.3122 I0.0017 J-0.0066
G3 X1.4993 Y1.1645 I0.6784 J-0.2141 F75
X1.503 Y1.0138 I0.6394 J-0.0599
X1.5142 Y0.9419 I2.974 J0.4246
G2 X1.5179 Y0.9194 I-2.9629 J-0.4966
X1.5254 Y0.8699 I-2.9666 J-0.4741 F18.75
X1.5164 Y0.8625 I-0.0068 J-0.0009
G3 X1.3685 Y0.8934 I-0.211 J-0.6403 F75
X1.3186 Y0.8962 I-0.0631 J-0.6712 F18.75
G2 X1.3098 Y0.9071 I0.0002 J0.0092
G3 X1.2853 Y1.2469 I-0.6629 J0.1229 F75
X1.2675 Y1.2936 I-0.6384 J-0.2169 F18.75
G2 X1.2744 Y1.3029 I0.0062 J0.0026
G3 X1.4112 Y1.3015 I0.0755 J0.67 F75
X1.5181 Y1.3948 I-0.011 J0.1205
G2 X1.6037 Y1.5076 I0.1683 J-0.0388
G3 X1.8538 Y1.8087 I-0.2538 J0.4653
X1.8843 Y1.9053 I-5.4247 J1.7677
G2 X1.8996 Y1.9543 I5.4531 J-1.6703
X1.9149 Y2.0019 I5.4378 J-1.7193 F18.75
G1 X1.9155 Y2.0033
X1.9166 Y2.0042
X1.918 Y2.0047
X1.9194
X1.9208 Y2.0041
X1.9219 Y2.0031
X1.9225 Y2.0018
X1.9227 Y2.0003
X1.894 Y1.7134 F75
G2 X1.8906 Y1.7022 I-0.03 J0.003
G1 X1.705 Y1.3595
G3 X1.6475 Y1.0344 I0.4671 J-0.2502
G1 X1.7101 Y0.608
X1.7173 Y0.5586 F18.75
X1.7174 Y0.5568
X1.7172 Y0.5551
X1.7145 Y0.5436
X1.7138 Y0.542
X1.7127 Y0.5407
X1.7111 Y0.5398
X1.7094 Y0.5396
X1.7076 Y0.5399
X1.7061 Y0.5408
X1.705 Y0.5421
G3 X1.6608 Y0.6067 I-0.517 J-0.3059 F75
X1.6037 Y0.6601 I-0.2006 J-0.1572
X1.3372 Y0.7502 I-0.2947 J-0.4327
X1.1075 Y0.7118 I-0.0288 J-0.5337
X1.0621 Y0.6909 I0.2009 J-0.4953 F18.75
G1 X1.0607 Y0.6905
X1.0593 Y0.6906
X1.058 Y0.6913
X1.057 Y0.6924
X1.0565 Y0.6938
X1.0566 Y0.6953
X1.0572 Y0.6966
X1.0653 Y0.7069 F75
X1.0734 Y0.7173
G3 X1.0522 Y1.3714 I-0.4275 J0.3135
G1 X0.6221 Y1.8793
X0.5898 Y1.9175 F18.75
X0.5891 Y1.9188
X0.5889 Y1.9202
X0.5892 Y1.9216
X0.59 Y1.9228
X0.5912 Y1.9236
X0.5927 Y1.924
X0.5941 Y1.9237
X0.5954 Y1.923
X1.0058 Y1.5701 F75
G3 X1.6036 Y1.5078 I0.3441 J0.4028
G1 X1.6057 Y1.5087
X1.6079 Y1.5092
X1.6101 Y1.5093
X1.6123 Y1.509
X1.6918 Y1.4912
G3 X1.7041 Y1.4953 I0.0028 J0.0122
G1 X1.7053 Y1.4969
X1.7062 Y1.4987
X1.7068 Y1.5005
X2.1617 Y3.1568
X2.1643 Y3.1617
X2.1649 Y3.1623
X2.1657 Y3.1625
X2.1665 Y3.1623
X2.167 Y3.1617
X2.1672 Y3.1608
X2.0203 Y1.6892
G2 X2.009 Y1.6519 I-0.0995 J0.0099
G1 X1.8195 Y1.2982
G3 X1.7761 Y1.0528 I0.3526 J-0.1889
G1 X1.8477 Y0.5513
X1.7213 Y0.004
X1.7101 Y-0.0447 F18.75
X1.6915 Y0.065 F75
X1.6449 Y0.3399
G3 X1.5635 Y0.5222 I-0.3944 J-0.0667
X1.5306 Y0.5528 I-0.1173 J-0.0934
X1.0392 Y0.5208 I-0.2252 J-0.3306
G1 X0.6256 Y0.152
X0.5827 Y0.1137
X0.5454 Y0.0805 F18.75
Y0.1652 F75
Y0.2152 F18.75
X0.9695 Y0.7935 F75
G3 X0.9528 Y1.2877 I-0.3226 J0.2365
G1 X-0.0808 Y2.5149
X-0.0822 Y2.5169
X-0.0831 Y2.519
X-0.0837 Y2.5214
X-0.1013 Y2.6579
G2 X-0.0808 Y2.669 I0.0124 J0.0016
G1 X1.0901 Y1.6688
G3 X1.7302 Y1.849 I0.2598 J0.3041
G1 X2.1032 Y2.9935
X2.1577 Y3.1608
G2 X2.1642 Y3.1683 I0.0119 J-0.0038
G1 X2.1745 Y3.1731
G2 X2.1922 Y3.1606 I0.0053 J-0.0113
G1 X2.0452 Y1.6867
G2 X2.031 Y1.6401 I-0.1244 J0.0124
G1 X1.8415 Y1.2864
G3 X1.8008 Y1.0563 I0.3306 J-0.1771
G1 X1.8731 Y0.5502
X1.7274 Y-0.0809
G2 X1.7159 Y-0.0906 I-0.0122 J0.0028
G1 X1.7039 Y-0.0913
G2 X1.6907 Y-0.0809 I-0.0008 J0.0125
G1 X1.6668 Y0.0609
X1.6203 Y0.3358
G3 X1.544 Y0.5067 I-0.3698 J-0.0626
X1.5165 Y0.5322 I-0.0978 J-0.0779
X1.0558 Y0.5021 I-0.2111 J-0.31
G1 X0.6422 Y0.1333
X0.5577 Y0.058
X0.5204 Y0.0247 F18.75
Y0.1733 F75
Y0.2233 F18.75
X0.9493 Y0.8082 F75
G3 X0.9337 Y1.2716 I-0.3024 J0.2218
G1 X-0.0807 Y2.4759
X-0.0821 Y2.4781
X-0.0831 Y2.4804
X-0.0836 Y2.4829
X-0.1012 Y2.6913
G2 X-0.0807 Y2.7018 I0.0124 J0.001
G1 X1.1063 Y1.6878
G3 X1.7065 Y1.8567 I0.2436 J0.2851
G1 X2.0794 Y3.0013
X2.1313 Y3.1607
X2.1328 Y3.1643
X2.1377 Y3.1738
X2.1395 Y3.1773 Z0.2503
X2.1412 Y3.1807 Z0.2512
X2.1429 Y3.184 Z0.2527
X2.1444 Y3.1869 Z0.2548
X2.1458 Y3.1896 Z0.2573
X2.1469 Y3.1919 Z0.2603
X2.1479 Y3.1937 Z0.2637
X2.1485 Y3.195 Z0.2673
X2.149 Y3.1958 Z0.2711
X2.1491 Y3.1961 Z0.275
G0 Z1.39
X5.1318 Y3.181
Z0.99
G1 Z0.8294 F15
Z0.545 F75
X5.1316 Y3.1808 Z0.5411
X5.131 Y3.1801 Z0.5373
X5.1301 Y3.1789 Z0.5337
X5.1288 Y3.1773 Z0.5303
X5.1272 Y3.1754 Z0.5273
X5.1253 Y3.173 Z0.5248
X5.1232 Y3.1705 Z0.5227
X5.1209 Y3.1676 Z0.5212
X5.1185 Y3.1647 Z0.5203
X5.116 Y3.1617 Z0.52
X4.1679 Y1.9999
G3 X4.2452 Y1.2392 I0.419 J-0.3417
X4.3648 Y1.1428 I8.5047 J10.4268
G2 X4.4844 Y1.0464 I-8.3376 J-10.4643
X4.4955 Y1.0194 I-0.0193 J-0.0237
X4.4815 Y0.9102 I-2.8462 J0.3101
G3 X4.4711 Y0.8006 I1.041 J-0.1542
X4.4667 Y0.6765 I8.7381 J-0.3705
G2 X4.4623 Y0.5524 I-8.7427 J0.2464
G1 X4.4619 Y0.5509
X4.4611 Y0.5496
X4.4599 Y0.5486
X4.4585 Y0.5481
X4.4569
X4.4555 Y0.5486
X4.4543 Y0.5495
X4.4535 Y0.5508
G2 X4.3493 Y0.8141 I12.8602 J5.2427
G3 X4.1833 Y1.0435 I-0.5143 J-0.1975
X4.1064 Y1.0959 I-0.3419 J-0.4191
G1 X3.9349 Y1.1922
G3 X3.2223 Y1.024 I-0.2649 J-0.4714
G1 X3.0587 Y0.7825
G3 X3.0431 Y0.7567 I0.2407 J-0.163
X2.9639 Y0.607 I14.3336 J-7.6761
G2 X2.8848 Y0.4573 I-14.4127 J7.5264
X2.8752 Y0.4591 I-0.0045 J0.0024
G1 X2.8659 Y0.5286
G2 X2.8683 Y0.5419 I0.022 J0.0029
G1 X3.2903 Y1.3345
G3 X3.3492 Y1.6532 I-0.4778 J0.2531
G1 X3.1879 Y2.9591
X3.188 Y2.9607
X3.1886 Y2.9621
X3.1896 Y2.9633
X3.1909 Y2.9641
X3.1925 Y2.9645
X3.194 Y2.9643
X3.1954 Y2.9636
X3.1965 Y2.9625
X3.7232 Y2.2364
G3 X3.8959 Y2.1029 I0.3159 J0.2301
G2 X3.8765 Y1.9557 I-0.087 J-0.0634
G3 X3.7984 Y1.8293 I0.1398 J-0.1737
X3.7838 Y1.5806 I0.7885 J-0.1711
X3.7902 Y1.531 I0.8031 J0.0776 F18.75
G2 X3.7796 Y1.5201 I-0.0094 J-0.0015
G3 X3.6776 Y1.5275 I-0.1096 J-0.7993 F75
X3.6276 Y1.5264 I-0.0076 J-0.8067 F18.75
G2 X3.6176 Y1.5365 I-0.0005 J0.0095
G3 X3.6198 Y1.6112 I-1.089 J0.0692 F75
X3.6151 Y1.6857 I-0.6412 J-0.0033
X3.5958 Y1.8364 I-12.7365 J-1.5555
G2 X3.5826 Y1.9375 I12.7149 J1.7059
X3.5764 Y1.9871 I12.7281 J1.6048 F18.75
G1 X3.5766 Y1.9887
X3.5771 Y1.9902
X3.5781 Y1.9915
X3.5794 Y1.9924
X3.5809 Y1.9929
X3.5825
X3.584 Y1.9924
X3.5853 Y1.9915
G3 X3.7938 Y1.8571 I0.4538 J0.475 F75
G2 X3.8014 Y1.8425 I-0.0047 J-0.0117
G1 X3.7984 Y1.8293
G3 X3.8542 Y1.6994 I0.119 J-0.0258
G2 X3.9305 Y1.5806 I-0.0837 J-0.1377
G3 X4.0216 Y1.3157 I0.6564 J0.0776
X4.0491 Y1.274 I0.5653 J0.3425 F18.75
G1 X4.0498 Y1.2727
Y1.2712
X4.0494 Y1.2699
X4.0484 Y1.2688
X4.0471 Y1.2682
X4.0456 Y1.2681
X4.0443 Y1.2685
G2 X4.0194 Y1.2835 I0.2333 J0.4152 F75
G3 X3.9946 Y1.2984 I-0.2582 J-0.4004
X3.7185 Y1.3807 I-0.3201 J-0.5696
X3.4809 Y1.354 I-0.0451 J-0.6687
X3.4336 Y1.3379 I0.1925 J-0.642 F18.75
G1 X3.4319 Y1.3376
X3.4303 Y1.3378
X3.4288 Y1.3385
X3.4276 Y1.3397
X3.4268 Y1.3413
X3.4266 Y1.3429
X3.427 Y1.3446
G3 X3.4688 Y1.5036 I-0.6422 J0.254 F75
X3.4702 Y1.668 I-0.6291 J0.0874
G1 X3.372 Y2.4582
X3.3659 Y2.5078 F18.75
Y2.5094
X3.3665 Y2.5108
X3.3675 Y2.512
X3.3689 Y2.5128
X3.3704 Y2.5132
X3.3719 Y2.513
X3.3733 Y2.5123
X3.3745 Y2.5112
X3.4985 Y2.3404 F75
X3.6221 Y2.1693
G3 X3.9383 Y1.9656 I0.4173 J0.3006
X3.9877 Y1.9582 I0.1011 J0.5043 F18.75
G2 X3.9931 Y1.9484 I-0.0007 J-0.0068
G3 X3.9306 Y1.5806 I0.5938 J-0.2902 F75
G1 X3.9308 Y1.5767 Z0.5206
X3.9303 Y1.5729 Z0.5212
X3.9294 Y1.5695 Z0.523
X3.9281 Y1.5663 Z0.5248
X3.9267 Y1.564 Z0.5275
X3.9251 Y1.5617 Z0.5303
X3.9226 Y1.5592 Z0.5373
X3.9217 Y1.5584 Z0.545
G0 Z0.99
X5.1478 Y3.2006
G1 Z0.545 F15
X5.1476 Y3.2003 Z0.5411 F75
X5.147 Y3.1996 Z0.5373
X5.146 Y3.1984 Z0.5337
X5.1447 Y3.1969 Z0.5303
X5.1431 Y3.1949 Z0.5273
X5.1412 Y3.1926 Z0.5248
X5.1391 Y3.19 Z0.5227
X5.1368 Y3.1872 Z0.5212
X5.1344 Y3.1842 Z0.5203
X5.132 Y3.1812 Z0.52
X5.1154 Y3.1609
X4.1679 Y1.9999
G3 X4.2452 Y1.2392 I0.419 J-0.3417
X4.3648 Y1.1428 I8.5047 J10.4268
G2 X4.4844 Y1.0464 I-8.3376 J-10.4643
X4.4955 Y1.0194 I-0.0193 J-0.0237
X4.4815 Y0.9102 I-2.8462 J0.3101
G3 X4.4711 Y0.8006 I1.041 J-0.1542
X4.4667 Y0.6765 I8.7381 J-0.3705
G2 X4.4643 Y0.6023 I-8.7427 J0.2464
X4.4623 Y0.5524 I-8.7403 J0.3206 F18.75
G1 X4.4619 Y0.5509
X4.4611 Y0.5496
X4.4599 Y0.5486
X4.4585 Y0.5481
X4.4569
X4.4555 Y0.5486
X4.4543 Y0.5495
X4.4535 Y0.5508
G2 X4.3493 Y0.8141 I12.8602 J5.2427 F75
G3 X4.1833 Y1.0435 I-0.5143 J-0.1975
X4.1064 Y1.0959 I-0.3419 J-0.4191
G1 X3.9349 Y1.1922
G3 X3.2223 Y1.024 I-0.2649 J-0.4714
G1 X3.0587 Y0.7825
G3 X3.0431 Y0.7567 I0.2407 J-0.163
X2.9639 Y0.607 I14.3336 J-7.6761
G2 X2.9083 Y0.5014 I-14.4127 J7.5264
X2.8848 Y0.4573 I-14.3571 J7.632 F18.75
X2.8752 Y0.4591 I-0.0045 J0.0024
G1 X2.8659 Y0.5286 F75
G2 X2.8683 Y0.5419 I0.022 J0.0029
G1 X3.2903 Y1.3345
G3 X3.3492 Y1.6532 I-0.4778 J0.2531
G1 X3.1941 Y2.9095
X3.1879 Y2.9591 F18.75
X3.188 Y2.9607
X3.1886 Y2.9621
X3.1896 Y2.9633
X3.1909 Y2.9641
X3.1925 Y2.9645
X3.194 Y2.9643
X3.1954 Y2.9636
X3.1965 Y2.9625
X3.7232 Y2.2364 F75
G3 X4.3575 Y2.2398 I0.3159 J0.2301
G1 X5.0127 Y3.1608
G2 X5.0221 Y3.1659 I0.0101 J-0.0073
G1 X5.2858 Y3.181
G2 X5.2962 Y3.1606 I0.0007 J-0.0125
G1 X4.277 Y1.911
G3 X4.3341 Y1.3483 I0.3099 J-0.2528
G1 X4.6014 Y1.1301
G2 X4.6375 Y1.0418 I-0.0632 J-0.0774
G1 X4.6136 Y0.8211
G3 X4.6116 Y0.7947 I0.3976 J-0.0435
G1 X4.5798 Y0.0464
X4.5744 Y-0.081
X4.5729 Y-0.0818
G2 X4.561 Y-0.0808 I-0.0057 J0.0035
G1 X4.4886 Y0.0966
X4.2119 Y0.7755
G3 X4.0375 Y0.9732 I-0.3705 J-0.1511
G1 X3.866 Y1.0695
G3 X3.3388 Y0.9451 I-0.196 J-0.3487
G1 X3.1752 Y0.7036
G3 X3.1672 Y0.6903 I0.1242 J-0.0841
G1 X2.8569 Y0.1108
X2.8197 Y0.0413
X2.7961 Y-0.0027 F18.75
X2.7256 Y0.5298 F75
G2 X2.7364 Y0.5897 I0.0991 J0.0131
G1 X3.1659 Y1.4004
G3 X3.2095 Y1.6361 I-0.3534 J0.1872
G1 X3.0233 Y3.1608
G2 X3.0363 Y3.1749 I0.0124 J0.0016
G1 X3.2144 Y3.1661
G2 X3.2239 Y3.161 I-0.0006 J-0.0125
G1 X3.3763 Y2.9517
X3.837 Y2.3193
G3 X4.2428 Y2.3215 I0.2021 J0.1472
G1 X4.6924 Y2.953
X4.8402 Y3.1606
G2 X4.85 Y3.1659 I0.0102 J-0.0072
G1 X5.3185 Y3.1811
G2 X5.3286 Y3.1607 I0.0004 J-0.0125
G1 X4.2963 Y1.8952
G3 X4.3499 Y1.3676 I0.2906 J-0.237
G1 X4.6172 Y1.1495
G2 X4.6624 Y1.0391 I-0.079 J-0.0968
G1 X4.6384 Y0.8184
G3 X4.6365 Y0.7937 I0.3728 J-0.0408
G1 X4.6048 Y0.0453
X4.5995 Y-0.0806
G2 X4.5858 Y-0.0925 I-0.0125 J0.0006
G1 X4.5443 Y-0.0884
G2 X4.534 Y-0.0807 I0.0012 J0.0124
G1 X4.4654 Y0.0872
X4.1887 Y0.766
G3 X4.0252 Y0.9513 I-0.3473 J-0.1416
G1 X3.8537 Y1.0477
G3 X3.3595 Y0.9311 I-0.1837 J-0.3269
G1 X3.1959 Y0.6896
G3 X3.1892 Y0.6785 I0.1035 J-0.0701
G1 X2.8789 Y0.099
X2.8051 Y-0.0389
X2.7815 Y-0.083 F18.75
X2.7008 Y0.5265 F75
G2 X2.7143 Y0.6014 I0.1239 J0.0164
G1 X3.1438 Y1.4121
G3 X3.1846 Y1.6331 I-0.3313 J0.1755
G1 X2.9981 Y3.1607
G2 X3.011 Y3.1748 I0.0125 J0.0015
G1 X3.2453 Y3.1659
G2 X3.2549 Y3.1608 I-0.0005 J-0.0125
G1 X3.3965 Y2.9664
X3.8572 Y2.334
G3 X4.2224 Y2.336 I0.1819 J0.1325
G1 X4.672 Y2.9675
X4.8096 Y3.1607
X4.8112 Y3.1626
X4.8131 Y3.1641
X4.8153 Y3.1652
X4.8177 Y3.1658
X5.1358 Y3.2206
G2 X5.1476 Y3.2004 I0.0021 J-0.0123
G1 X5.1452 Y3.1974 Z0.5197
X5.1427 Y3.1944 Z0.5188
X5.1405 Y3.1916 Z0.5173
X5.1383 Y3.189 Z0.5152
X5.1365 Y3.1867 Z0.5127
X5.1348 Y3.1847 Z0.5097
X5.1335 Y3.1831 Z0.5063
X5.1326 Y3.182 Z0.5027
X5.132 Y3.1813 Z0.4989
X5.1318 Y3.181 Z0.495
Z0.275
X5.1316 Y3.1808 Z0.2711
X5.131 Y3.1801 Z0.2673
X5.1301 Y3.1789 Z0.2637
X5.1288 Y3.1773 Z0.2603
X5.1272 Y3.1754 Z0.2573
X5.1253 Y3.173 Z0.2548
X5.1232 Y3.1705 Z0.2527
X5.1209 Y3.1676 Z0.2512
X5.1185 Y3.1647 Z0.2503
X5.116 Y3.1617 Z0.25
X4.1679 Y1.9999
G3 X4.2452 Y1.2392 I0.419 J-0.3417
X4.3648 Y1.1428 I8.5047 J10.4268
G2 X4.4844 Y1.0464 I-8.3376 J-10.4643
X4.4955 Y1.0194 I-0.0193 J-0.0237
X4.4815 Y0.9102 I-2.8462 J0.3101
G3 X4.4711 Y0.8006 I1.041 J-0.1542
X4.4667 Y0.6765 I8.7381 J-0.3705
G2 X4.4623 Y0.5524 I-8.7427 J0.2464
G1 X4.4619 Y0.5509
X4.4611 Y0.5496
X4.4599 Y0.5486
X4.4585 Y0.5481
X4.4569
X4.4555 Y0.5486
X4.4543 Y0.5495
X4.4535 Y0.5508
G2 X4.3493 Y0.8141 I12.8602 J5.2427
G3 X4.1833 Y1.0435 I-0.5143 J-0.1975
X4.1064 Y1.0959 I-0.3419 J-0.4191
G1 X3.9349 Y1.1922
G3 X3.2223 Y1.024 I-0.2649 J-0.4714
G1 X3.0587 Y0.7825
G3 X3.0431 Y0.7567 I0.2407 J-0.163
X2.9639 Y0.607 I14.3336 J-7.6761
G2 X2.8848 Y0.4573 I-14.4127 J7.5264
X2.8752 Y0.4591 I-0.0045 J0.0024
G1 X2.8659 Y0.5286
G2 X2.8683 Y0.5419 I0.022 J0.0029
G1 X3.2903 Y1.3345
G3 X3.3492 Y1.6532 I-0.4778 J0.2531
G1 X3.1879 Y2.9591
X3.188 Y2.9607
X3.1886 Y2.9621
X3.1896 Y2.9633
X3.1909 Y2.9641
X3.1925 Y2.9645
X3.194 Y2.9643
X3.1954 Y2.9636
X3.1965 Y2.9625
X3.7232 Y2.2364
G3 X3.8959 Y2.1029 I0.3159 J0.2301
G2 X3.8765 Y1.9557 I-0.087 J-0.0634
G3 X3.7984 Y1.8293 I0.1398 J-0.1737
X3.7838 Y1.5806 I0.7885 J-0.1711
X3.7902 Y1.531 I0.8031 J0.0776 F18.75
G2 X3.7796 Y1.5201 I-0.0094 J-0.0015
G3 X3.6776 Y1.5275 I-0.1096 J-0.7993 F75
X3.6276 Y1.5264 I-0.0076 J-0.8067 F18.75
G2 X3.6176 Y1.5365 I-0.0005 J0.0095
G3 X3.6198 Y1.6112 I-1.089 J0.0692 F75
X3.6151 Y1.6857 I-0.6412 J-0.0033
X3.5958 Y1.8364 I-12.7365 J-1.5555
G2 X3.5826 Y1.9375 I12.7149 J1.7059
X3.5764 Y1.9871 I12.7281 J1.6048 F18.75
G1 X3.5766 Y1.9887
X3.5771 Y1.9902
X3.5781 Y1.9915
X3.5794 Y1.9924
X3.5809 Y1.9929
X3.5825
X3.584 Y1.9924
X3.5853 Y1.9915
G3 X3.7938 Y1.8571 I0.4538 J0.475 F75
G2 X3.8014 Y1.8425 I-0.0047 J-0.0117
G1 X3.7984 Y1.8293
G3 X3.8542 Y1.6994 I0.119 J-0.0258
G2 X3.9305 Y1.5806 I-0.0837 J-0.1377
G3 X4.0216 Y1.3157 I0.6564 J0.0776
X4.0491 Y1.274 I0.5653 J0.3425 F18.75
G1 X4.0498 Y1.2727
Y1.2712
X4.0494 Y1.2699
X4.0484 Y1.2688
X4.0471 Y1.2682
X4.0456 Y1.2681
X4.0443 Y1.2685
G2 X4.0194 Y1.2835 I0.2333 J0.4152 F75
G3 X3.9946 Y1.2984 I-0.2582 J-0.4004
X3.7185 Y1.3807 I-0.3201 J-0.5696
X3.4809 Y1.354 I-0.0451 J-0.6687
X3.4336 Y1.3379 I0.1925 J-0.642 F18.75
G1 X3.4319 Y1.3376
X3.4303 Y1.3378
X3.4288 Y1.3385
X3.4276 Y1.3397
X3.4268 Y1.3413
X3.4266 Y1.3429
X3.427 Y1.3446
G3 X3.4688 Y1.5036 I-0.6422 J0.254 F75
X3.4702 Y1.668 I-0.6291 J0.0874
G1 X3.372 Y2.4582
X3.3659 Y2.5078 F18.75
Y2.5094
X3.3665 Y2.5108
X3.3675 Y2.512
X3.3689 Y2.5128
X3.3704 Y2.5132
X3.3719 Y2.513
X3.3733 Y2.5123
X3.3745 Y2.5112
X3.4985 Y2.3404 F75
X3.6221 Y2.1693
G3 X3.9383 Y1.9656 I0.4173 J0.3006
X3.9877 Y1.9582 I0.1011 J0.5043 F18.75
G2 X3.9931 Y1.9484 I-0.0007 J-0.0068
G3 X3.9306 Y1.5806 I0.5938 J-0.2902 F75
G1 X3.9308 Y1.5767 Z0.2506
X3.9303 Y1.5729 Z0.2512
X3.9294 Y1.5695 Z0.253
X3.9281 Y1.5663 Z0.2548
X3.9267 Y1.564 Z0.2575
X3.9251 Y1.5617 Z0.2603
X3.9226 Y1.5592 Z0.2673
X3.9217 Y1.5584 Z0.275
G0 Z0.99
X5.1478 Y3.2006
G1 Z0.275 F15
X5.1476 Y3.2003 Z0.2711 F75
X5.147 Y3.1996 Z0.2673
X5.146 Y3.1984 Z0.2637
X5.1447 Y3.1969 Z0.2603
X5.1431 Y3.1949 Z0.2573
X5.1412 Y3.1926 Z0.2548
X5.1391 Y3.19 Z0.2527
X5.1368 Y3.1872 Z0.2512
X5.1344 Y3.1842 Z0.2503
X5.132 Y3.1812 Z0.25
X5.1154 Y3.1609
X4.1679 Y1.9999
G3 X4.2452 Y1.2392 I0.419 J-0.3417
X4.3648 Y1.1428 I8.5047 J10.4268
G2 X4.4844 Y1.0464 I-8.3376 J-10.4643
X4.4955 Y1.0194 I-0.0193 J-0.0237
X4.4815 Y0.9102 I-2.8462 J0.3101
G3 X4.4711 Y0.8006 I1.041 J-0.1542
X4.4667 Y0.6765 I8.7381 J-0.3705
G2 X4.4643 Y0.6023 I-8.7427 J0.2464
X4.4623 Y0.5524 I-8.7403 J0.3206 F18.75
G1 X4.4619 Y0.5509
X4.4611 Y0.5496
X4.4599 Y0.5486
X4.4585 Y0.5481
X4.4569
X4.4555 Y0.5486
X4.4543 Y0.5495
X4.4535 Y0.5508
G2 X4.3493 Y0.8141 I12.8602 J5.2427 F75
G3 X4.1833 Y1.0435 I-0.5143 J-0.1975
X4.1064 Y1.0959 I-0.3419 J-0.4191
G1 X3.9349 Y1.1922
G3 X3.2223 Y1.024 I-0.2649 J-0.4714
G1 X3.0587 Y0.7825
G3 X3.0431 Y0.7567 I0.2407 J-0.163
X2.9639 Y0.607 I14.3336 J-7.6761
G2 X2.9083 Y0.5014 I-14.4127 J7.5264
X2.8848 Y0.4573 I-14.3571 J7.632 F18.75
X2.8752 Y0.4591 I-0.0045 J0.0024
G1 X2.8659 Y0.5286 F75
G2 X2.8683 Y0.5419 I0.022 J0.0029
G1 X3.2903 Y1.3345
G3 X3.3492 Y1.6532 I-0.4778 J0.2531
G1 X3.1941 Y2.9095
X3.1879 Y2.9591 F18.75
X3.188 Y2.9607
X3.1886 Y2.9621
X3.1896 Y2.9633
X3.1909 Y2.9641
X3.1925 Y2.9645
X3.194 Y2.9643
X3.1954 Y2.9636
X3.1965 Y2.9625
X3.7232 Y2.2364 F75
G3 X4.3575 Y2.2398 I0.3159 J0.2301
G1 X5.0127 Y3.1608
G2 X5.0221 Y3.1659 I0.0101 J-0.0073
G1 X5.2858 Y3.181
G2 X5.2962 Y3.1606 I0.0007 J-0.0125
G1 X4.277 Y1.911
G3 X4.3341 Y1.3483 I0.3099 J-0.2528
G1 X4.6014 Y1.1301
G2 X4.6375 Y1.0418 I-0.0632 J-0.0774
G1 X4.6136 Y0.8211
G3 X4.6116 Y0.7947 I0.3976 J-0.0435
G1 X4.5798 Y0.0464
X4.5744 Y-0.081
X4.5729 Y-0.0818
G2 X4.561 Y-0.0808 I-0.0057 J0.0035
G1 X4.4886 Y0.0966
X4.2119 Y0.7755
G3 X4.0375 Y0.9732 I-0.3705 J-0.1511
G1 X3.866 Y1.0695
G3 X3.3388 Y0.9451 I-0.196 J-0.3487
G1 X3.1752 Y0.7036
G3 X3.1672 Y0.6903 I0.1242 J-0.0841
G1 X2.8569 Y0.1108
X2.8197 Y0.0413
X2.7961 Y-0.0027 F18.75
X2.7256 Y0.5298 F75
G2 X2.7364 Y0.5897 I0.0991 J0.0131
G1 X3.1659 Y1.4004
G3 X3.2095 Y1.6361 I-0.3534 J0.1872
G1 X3.0233 Y3.1608
G2 X3.0363 Y3.1749 I0.0124 J0.0016
G1 X3.2144 Y3.1661
G2 X3.2239 Y3.161 I-0.0006 J-0.0125
G1 X3.3763 Y2.9517
X3.837 Y2.3193
G3 X4.2428 Y2.3215 I0.2021 J0.1472
G1 X4.6924 Y2.953
X4.8402 Y3.1606
G2 X4.85 Y3.1659 I0.0102 J-0.0072
G1 X5.3185 Y3.1811
G2 X5.3286 Y3.1607 I0.0004 J-0.0125
G1 X4.2963 Y1.8952
G3 X4.3499 Y1.3676 I0.2906 J-0.237
G1 X4.6172 Y1.1495
G2 X4.6624 Y1.0391 I-0.079 J-0.0968
G1 X4.6384 Y0.8184
G3 X4.6365 Y0.7937 I0.3728 J-0.0408
G1 X4.6048 Y0.0453
X4.5995 Y-0.0806
G2 X4.5858 Y-0.0925 I-0.0125 J0.0006
G1 X4.5443 Y-0.0884
G2 X4.534 Y-0.0807 I0.0012 J0.0124
G1 X4.4654 Y0.0872
X4.1887 Y0.766
G3 X4.0252 Y0.9513 I-0.3473 J-0.1416
G1 X3.8537 Y1.0477
G3 X3.3595 Y0.9311 I-0.1837 J-0.3269
G1 X3.1959 Y0.6896
G3 X3.1892 Y0.6785 I0.1035 J-0.0701
G1 X2.8789 Y0.099
X2.8051 Y-0.0389
X2.7815 Y-0.083 F18.75
X2.7008 Y0.5265 F75
G2 X2.7143 Y0.6014 I0.1239 J0.0164
G1 X3.1438 Y1.4121
G3 X3.1846 Y1.6331 I-0.3313 J0.1755
G1 X2.9981 Y3.1607
G2 X3.011 Y3.1748 I0.0125 J0.0015
G1 X3.2453 Y3.1659
G2 X3.2549 Y3.1608 I-0.0005 J-0.0125
G1 X3.3965 Y2.9664
X3.8572 Y2.334
G3 X4.2224 Y2.336 I0.1819 J0.1325
G1 X4.672 Y2.9675
X4.8096 Y3.1607
X4.8121 Y3.1638
X4.8197 Y3.1714
X4.8224 Y3.1742 Z0.2503
X4.8251 Y3.1769 Z0.2512
X4.8276 Y3.1795 Z0.2527
X4.8299 Y3.1819 Z0.2548
X4.832 Y3.184 Z0.2573
X4.8338 Y3.1859 Z0.2603
X4.8353 Y3.1873 Z0.2637
X4.8363 Y3.1884 Z0.2673
X4.837 Y3.189 Z0.2711
X4.8372 Y3.1893 Z0.275
G0 Z1.39
X6.1211 Y3.2006
Z0.99
G1 Z0.545 F15
G19 G2 Y3.1756 Z0.52 J-0.025 K0 F75
G1 Y3.1608
Y2.9512
Y2.9012 F18.75
X6.1208 Y2.8998
X6.12 Y2.8985
X6.1189 Y2.8977
X6.1175 Y2.8973
X6.1161 Y2.8974
X6.1148 Y2.898
X6.1138 Y2.8991
X6.1133 Y2.9004
X6.0625 Y3.1607 F75
X6.0623 Y3.1616
X6.0615 Y3.1655 Z0.5203
X6.0608 Y3.1692 Z0.5212
X6.0601 Y3.1728 Z0.5227
X6.0595 Y3.176 Z0.5248
X6.0589 Y3.179 Z0.5273
X6.0584 Y3.1815 Z0.5303
X6.058 Y3.1835 Z0.5337
X6.0577 Y3.185 Z0.5373
X6.0576 Y3.1859 Z0.5411
X6.0575 Y3.1862 Z0.545
G0 Z0.99
X5.9838 Y0.8311
G1 Z0.915 F15
X5.9848 Y0.8305 Z0.9074 F13.333
X5.9876 Y0.8286 Z0.9006
X5.9919 Y0.8255 Z0.8951
X5.9972 Y0.8213 Z0.8914
X6.0028 Y0.8163 Z0.89
G17 G2 X5.8391 Y0.6444 Z0.877 I-0.0819 J-0.0859
X6.0028 Y0.8163 Z0.8639 I0.0818 J0.086
X5.8391 Y0.6444 Z0.8509 I-0.0819 J-0.0859
X6.0028 Y0.8163 Z0.8379 I0.0818 J0.086
X5.8391 Y0.6444 Z0.8249 I-0.0819 J-0.0859
X6.0028 Y0.8163 Z0.8118 I0.0818 J0.086
X5.8391 Y0.6444 Z0.7988 I-0.0819 J-0.0859
X6.0028 Y0.8163 Z0.7858 I0.0818 J0.086
X5.8391 Y0.6444 Z0.7728 I-0.0819 J-0.0859
X6.0028 Y0.8163 Z0.7597 I0.0818 J0.086
X5.8391 Y0.6444 Z0.7467 I-0.0819 J-0.0859
X6.0028 Y0.8163 Z0.7337 I0.0818 J0.086
X5.8391 Y0.6444 Z0.7206 I-0.0819 J-0.0859
X6.0028 Y0.8163 Z0.7076 I0.0818 J0.086
X5.8391 Y0.6444 Z0.6946 I-0.0819 J-0.0859
X6.0028 Y0.8163 Z0.6816 I0.0818 J0.086
X5.8391 Y0.6444 Z0.6685 I-0.0819 J-0.0859
X6.0028 Y0.8163 Z0.6555 I0.0818 J0.086
X5.8391 Y0.6444 Z0.6425 I-0.0819 J-0.0859
X6.0028 Y0.8163 Z0.6294 I0.0818 J0.086
X5.8391 Y0.6444 Z0.6164 I-0.0819 J-0.0859
X6.0028 Y0.8163 Z0.6034 I0.0818 J0.086
X5.8391 Y0.6444 Z0.5904 I-0.0819 J-0.0859
X6.0028 Y0.8163 Z0.5773 I0.0818 J0.086
X5.8391 Y0.6444 Z0.5643 I-0.0819 J-0.0859
X6.0028 Y0.8163 Z0.5513 I0.0818 J0.086
X5.8391 Y0.6444 Z0.5383 I-0.0819 J-0.0859
X6.0028 Y0.8163 Z0.5252 I0.0818 J0.086
X6.0277 Y0.6787 Z0.52 I-0.0819 J-0.0859
G1 X5.9186 Y0.4527 F75
X5.8969 Y0.4077 F18.75
X5.8959 Y0.4064
X5.8947 Y0.4054
X5.8931 Y0.4049
X5.8915
X5.89 Y0.4054
X5.8887 Y0.4063
X5.8877 Y0.4076
X5.8872 Y0.4092
X5.8574 Y0.6066 F75
G2 X5.8587 Y0.6284 I0.0522 J0.0079
G1 X6.0458 Y1.3109
X6.059 Y1.3591 F18.75
X6.0596 Y1.3604
X6.0607 Y1.3614
X6.062 Y1.3619
X6.0634 Y1.362
X6.0648 Y1.3615
X6.0659 Y1.3606
X6.0666 Y1.3593
X6.0668 Y1.3579
X6.0352 Y0.7068 F75
G2 X6.0283 Y0.6796 I-0.0703 J0.0034
G1 X6.0278 Y0.6787
X6.0259 Y0.6753 Z0.5206
X6.0235 Y0.6723 Z0.5212
X6.0209 Y0.67 Z0.523
X6.018 Y0.668 Z0.5248
X6.0156 Y0.6668 Z0.5275
X6.013 Y0.6658 Z0.5303
X6.0095 Y0.6649 Z0.5373
X6.0083 Y0.6647 Z0.545
G0 Z0.99
X6.2509 Y3.2004
G1 Z0.545 F15
G19 G2 Y3.1754 Z0.52 J-0.025 K0 F75
G1 Y3.1606
Y2.4757
Y2.4741
X6.2508 Y2.4725
Y2.4709
X6.1639 Y0.6802
G17 G2 X6.1541 Y0.6415 I-0.0999 J0.0048
G1 X5.8949 Y0.1053
X5.8457 Y0.0035
X5.824 Y-0.0415 F18.75
X5.8083 Y0.0624 F75
X5.7264 Y0.6045
G2 X5.7289 Y0.6459 I0.0989 J0.0149
G1 X6.1084 Y2.0306
G3 X6.1153 Y2.2129 I-0.3858 J0.1058
G1 X5.9302 Y3.1606
G2 X5.9426 Y3.1755 I0.0123 J0.0024
G1 X6.2635 Y3.1731
G2 X6.2759 Y3.1606 I-0.0001 J-0.0125
G1 Y2.4756
Y2.4736
X6.2758 Y2.4716
X6.2757 Y2.4697
X6.1889 Y0.679
G2 X6.1766 Y0.6306 I-0.1249 J0.006
G1 X5.9174 Y0.0944
X5.8327 Y-0.0809
X5.8316 Y-0.0827
X5.8303 Y-0.0843
X5.8287 Y-0.0857
X5.8242 Y-0.0889
G2 X5.8045 Y-0.0806 I-0.0073 J0.0102
G1 X5.7836 Y0.0587
X5.7017 Y0.6008
G2 X5.7048 Y0.6525 I0.1236 J0.0186
G1 X6.0843 Y2.0372
G3 X6.0907 Y2.2082 I-0.3617 J0.0992
G1 X5.9047 Y3.1606
G2 X5.9139 Y3.1751 I0.0123 J0.0024
G1 X6.1055 Y3.2239
G2 X6.1211 Y3.2118 I0.0031 J-0.0121
G19 G3 Y3.1868 Z0.495 J0 K-0.025
G1 Z0.275
G2 Y3.1618 Z0.25 J-0.025 K0
G1 Y3.1608
Y2.9512
Y2.9012 F18.75
X6.1208 Y2.8998
X6.12 Y2.8985
X6.1189 Y2.8977
X6.1175 Y2.8973
X6.1161 Y2.8974
X6.1148 Y2.898
X6.1138 Y2.8991
X6.1133 Y2.9004
X6.0625 Y3.1607 F75
X6.0623 Y3.1616
X6.0615 Y3.1655 Z0.2503
X6.0608 Y3.1692 Z0.2512
X6.0601 Y3.1728 Z0.2527
X6.0595 Y3.176 Z0.2548
X6.0589 Y3.179 Z0.2573
X6.0584 Y3.1815 Z0.2603
X6.058 Y3.1835 Z0.2637
X6.0577 Y3.185 Z0.2673
X6.0576 Y3.1859 Z0.2711
X6.0575 Y3.1862 Z0.275
G0 Z0.99
X5.9838 Y0.8311
G1 Z0.645 F15
X5.9848 Y0.8305 Z0.6374 F13.333
X5.9876 Y0.8286 Z0.6306
X5.9919 Y0.8255 Z0.6251
X5.9972 Y0.8213 Z0.6214
X6.0028 Y0.8163 Z0.62
G17 G2 X5.8391 Y0.6444 Z0.607 I-0.0819 J-0.0859
X6.0028 Y0.8163 Z0.5939 I0.0818 J0.086
X5.8391 Y0.6444 Z0.5809 I-0.0819 J-0.0859
X6.0028 Y0.8163 Z0.5679 I0.0818 J0.086
X5.8391 Y0.6444 Z0.5549 I-0.0819 J-0.0859
X6.0028 Y0.8163 Z0.5418 I0.0818 J0.086
X5.8391 Y0.6444 Z0.5288 I-0.0819 J-0.0859
X6.0028 Y0.8163 Z0.5158 I0.0818 J0.086
X5.8391 Y0.6444 Z0.5028 I-0.0819 J-0.0859
X6.0028 Y0.8163 Z0.4897 I0.0818 J0.086
X5.8391 Y0.6444 Z0.4767 I-0.0819 J-0.0859
X6.0028 Y0.8163 Z0.4637 I0.0818 J0.086
X5.8391 Y0.6444 Z0.4506 I-0.0819 J-0.0859
X6.0028 Y0.8163 Z0.4376 I0.0818 J0.086
X5.8391 Y0.6444 Z0.4246 I-0.0819 J-0.0859
X6.0028 Y0.8163 Z0.4116 I0.0818 J0.086
X5.8391 Y0.6444 Z0.3985 I-0.0819 J-0.0859
X6.0028 Y0.8163 Z0.3855 I0.0818 J0.086
X5.8391 Y0.6444 Z0.3725 I-0.0819 J-0.0859
X6.0028 Y0.8163 Z0.3594 I0.0818 J0.086
X5.8391 Y0.6444 Z0.3464 I-0.0819 J-0.0859
X6.0028 Y0.8163 Z0.3334 I0.0818 J0.086
X5.8391 Y0.6444 Z0.3204 I-0.0819 J-0.0859
X6.0028 Y0.8163 Z0.3073 I0.0818 J0.086
X5.8391 Y0.6444 Z0.2943 I-0.0819 J-0.0859
X6.0028 Y0.8163 Z0.2813 I0.0818 J0.086
X5.8391 Y0.6444 Z0.2683 I-0.0819 J-0.0859
X6.0028 Y0.8163 Z0.2552 I0.0818 J0.086
X6.0277 Y0.6787 Z0.25 I-0.0819 J-0.0859
G1 X5.9186 Y0.4527 F75
X5.8969 Y0.4077 F18.75
X5.8959 Y0.4064
X5.8947 Y0.4054
X5.8931 Y0.4049
X5.8915
X5.89 Y0.4054
X5.8887 Y0.4063
X5.8877 Y0.4076
X5.8872 Y0.4092
X5.8574 Y0.6066 F75
G2 X5.8587 Y0.6284 I0.0522 J0.0079
G1 X6.0458 Y1.3109
X6.059 Y1.3591 F18.75
X6.0596 Y1.3604
X6.0607 Y1.3614
X6.062 Y1.3619
X6.0634 Y1.362
X6.0648 Y1.3615
X6.0659 Y1.3606
X6.0666 Y1.3593
X6.0668 Y1.3579
X6.0352 Y0.7068 F75
G2 X6.0283 Y0.6796 I-0.0703 J0.0034
G1 X6.0278 Y0.6787
X6.0259 Y0.6753 Z0.2506
X6.0235 Y0.6723 Z0.2512
X6.0209 Y0.67 Z0.253
X6.018 Y0.668 Z0.2548
X6.0156 Y0.6668 Z0.2575
X6.013 Y0.6658 Z0.2603
X6.0095 Y0.6649 Z0.2673
X6.0083 Y0.6647 Z0.275
G0 Z0.99
X6.2509 Y3.2004
G1 Z0.275 F15
G19 G2 Y3.1754 Z0.25 J-0.025 K0 F75
G1 Y3.1606
Y2.4757
Y2.4741
X6.2508 Y2.4725
Y2.4709
X6.1639 Y0.6802
G17 G2 X6.1541 Y0.6415 I-0.0999 J0.0048
G1 X5.8949 Y0.1053
X5.8457 Y0.0035
X5.824 Y-0.0415 F18.75
X5.8083 Y0.0624 F75
X5.7264 Y0.6045
G2 X5.7289 Y0.6459 I0.0989 J0.0149
G1 X6.1084 Y2.0306
G3 X6.1153 Y2.2129 I-0.3858 J0.1058
G1 X5.9302 Y3.1606
G2 X5.9426 Y3.1755 I0.0123 J0.0024
G1 X6.2635 Y3.1731
G2 X6.2759 Y3.1606 I-0.0001 J-0.0125
G1 Y2.4756
Y2.4736
X6.2758 Y2.4716
X6.2757 Y2.4697
X6.1889 Y0.679
G2 X6.1766 Y0.6306 I-0.1249 J0.006
G1 X5.9174 Y0.0944
X5.8327 Y-0.0809
X5.8316 Y-0.0827
X5.8303 Y-0.0843
X5.8287 Y-0.0857
X5.8242 Y-0.0889
G2 X5.8045 Y-0.0806 I-0.0073 J0.0102
G1 X5.7836 Y0.0587
X5.7017 Y0.6008
G2 X5.7048 Y0.6525 I0.1236 J0.0186
G1 X6.0843 Y2.0372
G3 X6.0907 Y2.2082 I-0.3617 J0.0992
G1 X5.9047 Y3.1606
X5.9043 Y3.1645
X5.9039 Y3.1753
X5.9037 Y3.1792 Z0.2503
X5.9036 Y3.183 Z0.2512
X5.9035 Y3.1866 Z0.2527
X5.9034 Y3.19 Z0.2548
X5.9032 Y3.1929 Z0.2573
Y3.1955 Z0.2603
X5.9031 Y3.1975 Z0.2637
X5.903 Y3.199 Z0.2673
Y3.2 Z0.2711
Y3.2003 Z0.275
G0 Z1.39
X7.4607 Y3.1859
Z0.99
G1 Z0.8294 F15
Z0.545 F75
X7.4608 Y3.1856 Z0.5411
X7.461 Y3.1847 Z0.5373
X7.4613 Y3.1832 Z0.5337
X7.4618 Y3.1813 Z0.5303
X7.4624 Y3.1788 Z0.5273
X7.4631 Y3.1759 Z0.5248
X7.4639 Y3.1726 Z0.5227
X7.4647 Y3.1691 Z0.5212
X7.4656 Y3.1654 Z0.5203
X7.4665 Y3.1616 Z0.52
X7.5042 Y3.0049
X7.5794 Y2.6925
Y2.3532
G2 X7.5789 Y2.3426 I-0.1 J-0.0001
G1 X7.5001 Y1.5978
G2 X7.4349 Y1.5716 I-0.0395 J0.0041
G3 X7.3697 Y1.5455 I-0.0257 J-0.0303
G1 X7.287 Y0.7631
X7.2817 Y0.7133 F18.75
X7.2813 Y0.7119
X7.2804 Y0.7108
X7.2792 Y0.71
X7.2777 Y0.7097
X7.2763 Y0.71
X7.2751 Y0.7107
X7.2742 Y0.7119
X7.2737 Y0.7132
X7.239 Y0.9758 F75
G2 X7.2394 Y0.9857 I0.0293 J0.0039
G1 X7.3587 Y1.5593
X7.3689 Y1.6083 F18.75
X7.3694 Y1.6096
X7.3704 Y1.6106
X7.3717 Y1.6111
X7.3731 Y1.6112
X7.3744 Y1.6107
X7.3755 Y1.6098
X7.3761 Y1.6085
X7.3762 Y1.6071
X7.3697 Y1.5455 F75
X7.3693 Y1.5416 Z0.5203
X7.3689 Y1.5378 Z0.5212
X7.3685 Y1.5342 Z0.5227
X7.3681 Y1.5308 Z0.5248
X7.3678 Y1.5279 Z0.5273
X7.3676 Y1.5253 Z0.5303
X7.3673 Y1.5233 Z0.5337
X7.3672 Y1.5218 Z0.5373
X7.3671 Y1.5209 Z0.5411
Y1.5206 Z0.545
G0 Z0.99
X7.3294 Y3.2004
G1 Z0.545 F15
X7.3295 Y3.2001 Z0.5411 F75
X7.3297 Y3.1992 Z0.5373
X7.3301 Y3.1978 Z0.5337
X7.3305 Y3.1958 Z0.5303
X7.3311 Y3.1933 Z0.5273
X7.3318 Y3.1904 Z0.5248
X7.3326 Y3.1872 Z0.5227
X7.3335 Y3.1836 Z0.5212
X7.3344 Y3.1799 Z0.5203
X7.3353 Y3.1761 Z0.52
X7.339 Y3.1605
X7.4546 Y2.6803
X7.4551 Y2.6777
X7.4552 Y2.6751
Y2.5947
Y2.5447 F18.75
X7.455 Y2.5433
X7.4542 Y2.542
X7.4531 Y2.5411
X7.4517 Y2.5406
X7.4502 Y2.5407
X7.4488 Y2.5412
X7.4478 Y2.5422
X7.4471 Y2.5436
X7.2664 Y3.1607 F75
G2 X7.2789 Y3.1767 I0.012 J0.0035
G1 X7.4551 Y3.1702
G2 X7.4668 Y3.1606 I-0.0005 J-0.0125
G1 X7.5042 Y3.0049
X7.5794 Y2.6925
Y2.3532
G2 X7.5789 Y2.3426 I-0.1 J-0.0001
G1 X7.3371 Y0.0558
X7.3226 Y-0.0807
G2 X7.3102 Y-0.0919 I-0.0124 J0.0013
G1 X7.2659 Y-0.0918
G2 X7.2535 Y-0.0809 I0 J0.0125
G1 X7.2349 Y0.0597
X7.1146 Y0.9685
G2 X7.1158 Y1.002 I0.0992 J0.0132
G1 X7.3796 Y2.2694
G3 X7.3767 Y2.3422 I-0.1469 J0.0306
G1 X7.16 Y3.0822
X7.137 Y3.1607
G2 X7.1492 Y3.1767 I0.012 J0.0035
G1 X7.4805 Y3.1704
G2 X7.4924 Y3.1609 I-0.0002 J-0.0125
G1 X7.5285 Y3.0108
X7.6044 Y2.6955
Y2.3532
G2 X7.6037 Y2.34 I-0.125 J-0.0001
G1 X7.3619 Y0.0531
X7.3477 Y-0.0809
G2 X7.3352 Y-0.0921 I-0.0124 J0.0013
G1 X7.2406 Y-0.0914
G2 X7.2283 Y-0.0805 I0.0001 J0.0125
G1 X7.2101 Y0.0564
X7.0899 Y0.9652
G2 X7.0914 Y1.0071 I0.1239 J0.0165
G1 X7.3551 Y2.2745
G3 X7.3527 Y2.3351 I-0.1224 J0.0255
G1 X7.136 Y3.0751
X7.1109 Y3.1607
G2 X7.1202 Y3.1764 I0.012 J0.0035
G1 X7.3122 Y3.2194
G2 X7.3272 Y3.2101 I0.0028 J-0.0122
G1 X7.328 Y3.2063 Z0.5197
X7.3289 Y3.2026 Z0.5188
X7.3298 Y3.1991 Z0.5173
X7.3305 Y3.1958 Z0.5152
X7.3312 Y3.1929 Z0.5127
X7.3318 Y3.1904 Z0.5097
X7.3323 Y3.1884 Z0.5063
X7.3327 Y3.187 Z0.5027
X7.3329 Y3.1861 Z0.4989
X7.333 Y3.1858 Z0.495
Z0.275
Y3.1855 Z0.2711
X7.3332 Y3.1846 Z0.2673
X7.3336 Y3.1831 Z0.2637
X7.3341 Y3.1812 Z0.2603
X7.3347 Y3.1787 Z0.2573
X7.3354 Y3.1758 Z0.2548
X7.3361 Y3.1725 Z0.2527
X7.337 Y3.169 Z0.2512
X7.3379 Y3.1653 Z0.2503
X7.3388 Y3.1615 Z0.25
X7.339 Y3.1605
X7.4546 Y2.6803
X7.4551 Y2.6777
X7.4552 Y2.6751
Y2.5947
Y2.5447 F18.75
X7.455 Y2.5433
X7.4542 Y2.542
X7.4531 Y2.5411
X7.4517 Y2.5406
X7.4502 Y2.5407
X7.4488 Y2.5412
X7.4478 Y2.5422
X7.4471 Y2.5436
X7.2664 Y3.1607 F75
X7.2661 Y3.1616
X7.265 Y3.1654 Z0.2503
X7.264 Y3.1691 Z0.2512
X7.2629 Y3.1725 Z0.2527
X7.262 Y3.1757 Z0.2548
X7.2612 Y3.1786 Z0.2573
X7.2604 Y3.1811 Z0.2603
X7.2599 Y3.183 Z0.2637
X7.2594 Y3.1845 Z0.2673
X7.2592 Y3.1853 Z0.2711
X7.2591 Y3.1856 Z0.275
Z0.5594
X7.4607 Y3.1859
Z0.275
X7.4608 Y3.1856 Z0.2711
X7.461 Y3.1847 Z0.2673
X7.4613 Y3.1832 Z0.2637
X7.4618 Y3.1813 Z0.2603
X7.4624 Y3.1788 Z0.2573
X7.4631 Y3.1759 Z0.2548
X7.4639 Y3.1726 Z0.2527
X7.4647 Y3.1691 Z0.2512
X7.4656 Y3.1654 Z0.2503
X7.4665 Y3.1616 Z0.25
X7.5042 Y3.0049
X7.5794 Y2.6925
Y2.3532
G2 X7.5789 Y2.3426 I-0.1 J-0.0001
G1 X7.5001 Y1.5978
G2 X7.4349 Y1.5716 I-0.0395 J0.0041
G3 X7.3697 Y1.5455 I-0.0257 J-0.0303
G1 X7.287 Y0.7631
X7.2817 Y0.7133 F18.75
X7.2813 Y0.7119
X7.2804 Y0.7108
X7.2792 Y0.71
X7.2777 Y0.7097
X7.2763 Y0.71
X7.2751 Y0.7107
X7.2742 Y0.7119
X7.2737 Y0.7132
X7.239 Y0.9758 F75
G2 X7.2394 Y0.9857 I0.0293 J0.0039
G1 X7.3587 Y1.5593
X7.3689 Y1.6083 F18.75
X7.3694 Y1.6096
X7.3704 Y1.6106
X7.3717 Y1.6111
X7.3731 Y1.6112
X7.3744 Y1.6107
X7.3755 Y1.6098
X7.3761 Y1.6085
X7.3762 Y1.6071
X7.3697 Y1.5455 F75
G2 X7.3449 Y1.5475 I-0.0124 J0.0013
G1 X7.4421 Y3.1585
G2 X7.4668 Y3.1606 I0.0125 J-0.0008
G1 X7.5042 Y3.0049
X7.5794 Y2.6925
Y2.3532
G2 X7.5789 Y2.3426 I-0.1 J-0.0001
G1 X7.3371 Y0.0558
X7.3226 Y-0.0807
G2 X7.3102 Y-0.0919 I-0.0124 J0.0013
G1 X7.2659 Y-0.0918
G2 X7.2535 Y-0.0809 I0 J0.0125
G1 X7.2349 Y0.0597
X7.1146 Y0.9685
G2 X7.1158 Y1.002 I0.0992 J0.0132
G1 X7.3796 Y2.2694
G3 X7.3767 Y2.3422 I-0.1469 J0.0306
G1 X7.16 Y3.0822
X7.137 Y3.1607
G2 X7.1492 Y3.1767 I0.012 J0.0035
G1 X7.4805 Y3.1704
G2 X7.4924 Y3.1609 I-0.0002 J-0.0125
G1 X7.5285 Y3.0108
X7.6044 Y2.6955
Y2.3532
G2 X7.6037 Y2.34 I-0.125 J-0.0001
G1 X7.3619 Y0.0531
X7.3477 Y-0.0809
G2 X7.3352 Y-0.0921 I-0.0124 J0.0013
G1 X7.2406 Y-0.0914
G2 X7.2283 Y-0.0805 I0.0001 J0.0125
G1 X7.2101 Y0.0564
X7.0899 Y0.9652
G2 X7.0914 Y1.0071 I0.1239 J0.0165
G1 X7.3551 Y2.2745
G3 X7.3527 Y2.3351 I-0.1224 J0.0255
G1 X7.136 Y3.0751
X7.1109 Y3.1607
X7.1101 Y3.1646
X7.1087 Y3.1752
X7.1082 Y3.1791 Z0.2503
X7.1078 Y3.1829 Z0.2512
X7.1073 Y3.1865 Z0.2527
X7.1069 Y3.1898 Z0.2548
X7.1065 Y3.1928 Z0.2573
X7.1062 Y3.1953 Z0.2603
X7.1059 Y3.1973 Z0.2637
X7.1057 Y3.1988 Z0.2673
X7.1056 Y3.1997 Z0.2711
Y3.2 Z0.275
G0 Z1.39

(2D Contour1)
X0.265 Y-0.16
Z1.39
Z0.99
G1 Z0.555 F15
G19 G3 Y-0.135 Z0.53 J0.025 K0 F75
G1 Y-0.11
G17 G2 X0.29 Y-0.085 I0.025 J0
G1 X7.79
G3 X8.165 Y0.29 I0 J0.375
G1 Y2.79
G3 X7.79 Y3.165 I-0.375 J0
G1 X0.29
G3 X-0.085 Y2.79 I0 J-0.375
G1 Y0.29
G3 X0.29 Y-0.085 I0.375 J0
G2 X0.315 Y-0.11 I0 J-0.025
G1 Y-0.135
G19 G2 Y-0.16 Z0.555 J0 K0.025
G0 Z0.99
X0.265
G1 Z0.295 F15
G3 Y-0.135 Z0.27 J0.025 K0 F75
G1 Y-0.11
G17 G2 X0.29 Y-0.085 I0.025 J0
G1 X7.79
G3 X8.165 Y0.29 I0 J0.375
G1 Y2.79
G3 X7.79 Y3.165 I-0.375 J0
G1 X0.29
G3 X-0.085 Y2.79 I0 J-0.375
G1 Y0.29
G3 X0.29 Y-0.085 I0.375 J0
G2 X0.315 Y-0.11 I0 J-0.025
G1 Y-0.135
G19 G2 Y-0.16 Z0.295 J0 K0.025
G0 Z0.99
X0.265
G1 Z0.033 F15
G3 Y-0.135 Z0.008 J0.025 K0 F75
G1 Y-0.11
G17 G2 X0.29 Y-0.085 I0.025 J0
G1 X1.9723
X2.0223 F18.75
Z0.05 F75
X2.7723
Z0.008 F15
X7.79 F75
G3 X8.165 Y0.29 I0 J0.375
G1 Y2.79
G3 X7.79 Y3.165 I-0.375 J0
G1 X6.1077
X6.0577 F18.75
Z0.05 F75
X5.3077
Z0.008 F15
X0.29 F75
G3 X-0.085 Y2.79 I0 J-0.375
G1 Y0.29
G3 X0.29 Y-0.085 I0.375 J0
G2 X0.315 Y-0.11 I0 J-0.025
G1 Y-0.135
G19 G2 Y-0.16 Z0.033 J0 K0.025
G0 Z0.99
X0.265
G1 Z0.025 F15
G3 Y-0.135 Z0 J0.025 K0 F75
G1 Y-0.11
G17 G2 X0.29 Y-0.085 I0.025 J0
G1 X1.9723
X2.0223 F18.75
Z0.05 F75
X2.7723
Z0 F15
X7.79 F75
G3 X8.165 Y0.29 I0 J0.375
G1 Y2.79
G3 X7.79 Y3.165 I-0.375 J0
G1 X6.1077
X6.0577 F18.75
Z0.05 F75
X5.3077
Z0 F15
X0.29 F75
G3 X-0.085 Y2.79 I0 J-0.375
G1 Y0.29
G3 X0.29 Y-0.085 I0.375 J0
G2 X0.315 Y-0.11 I0 J-0.025
G1 Y-0.135
G19 G2 Y-0.16 Z0.025 J0 K0.025
G0 Z1.39
G17
G28 G91 Z0
G90
G28 G91 X0 Y0
G90
M30
%
