%
(Climbing Keyholder V6)
(Machine)
(  vendor: Carbide3D)
(  model: Shapeoko 4 XXL)
(  description: Shapeoko 4 XXL)
(T1  D=0.25 CR=0 - ZMIN=0 - flat end mill)
G90
G17
G20
G28 G91 Z0
G90

(2D Pocket1)
T1 M6
S21000 M3
G54
G0 X-0.1005 Y2.6596
Z1.64
Z1.24
G1 Z1.0794 F15
Z0.8083 F75
X-0.1003 Y2.6594 Z0.8044
X-0.0996 Y2.6588 Z0.8006
X-0.0985 Y2.6579 Z0.797
X-0.0969 Y2.6565 Z0.7936
X-0.095 Y2.6549 Z0.7907
X-0.0927 Y2.6529 Z0.7881
X-0.0902 Y2.6508 Z0.7861
X-0.0874 Y2.6484 Z0.7846
X-0.0845 Y2.6459 Z0.7836
X-0.0815 Y2.6434 Z0.7833
X1.0771 Y1.6536
G3 X1.3265 Y1.5536 I0.2728 J0.3193
G2 X1.3608 Y1.4063 I-0.0828 J-0.0969
G3 X1.4529 Y1.2867 I0.0793 J-0.0342
X1.5022 Y1.2959 I-0.103 J0.6862
X1.5506 Y1.3086 I-0.1523 J0.677 F18.75
G2 X1.5596 Y1.3007 I0.002 J-0.0068
G3 X1.5648 Y1.0453 I0.6846 J-0.1139 F75
X1.5767 Y0.9968 I0.6794 J0.1415 F18.75
G2 X1.5689 Y0.9878 I-0.0068 J-0.002
G3 X1.4227 Y0.9929 I-0.097 J-0.6871 F75
X1.373 Y0.9876 I0.0492 J-0.6922 F18.75
G2 X1.3622 Y0.9971 I-0.0014 J0.0093
G3 X1.327 Y1.2231 I-0.694 J0.0076 F75
X1.3096 Y1.27 I-0.6588 J-0.2184 F18.75
G2 X1.3164 Y1.2796 I0.0064 J0.0027
G3 X1.453 Y1.2865 I0.0335 J0.6933 F75
X1.554 Y1.3853 I-0.018 J0.1194
G2 X1.6337 Y1.502 I0.1675 J-0.0289
G3 X1.8727 Y1.8026 I-0.2838 J0.4709
X1.8998 Y1.8888 I-4.3185 J1.4071
G2 X1.9117 Y1.9274 I4.3443 J-1.3205
X1.9269 Y1.9751 I4.3324 J-1.3591 F18.75
G1 X1.9277 Y1.9763
X1.9288 Y1.9773
X1.9302 Y1.9778
X1.9317
X1.9331 Y1.9773
X1.9342 Y1.9763
X1.9349 Y1.9749
X1.9351 Y1.9735
X1.9335 Y1.9504
X1.9331 Y1.9485
X1.726 Y1.3708 F75
G3 X1.7471 Y0.9517 I0.5182 J-0.184
X1.8123 Y0.816 I11.3713 J5.3777
G2 X1.856 Y0.7255 I-11.3086 J-5.5145
X1.8774 Y0.6804 I-11.3523 J-5.424 F18.75
G1 X1.8778 Y0.6789
X1.8775 Y0.6774
X1.8767 Y0.6761
X1.8754 Y0.6752
X1.8739 Y0.6749
X1.8724 Y0.6752
X1.8711 Y0.6761
G3 X1.2061 Y0.7799 I-0.3992 J-0.3754 F75
X1.1636 Y0.7537 I0.2658 J-0.4792 F18.75
G1 X1.1622 Y0.7532
X1.1608 Y0.7531
X1.1594 Y0.7536
X1.1583 Y0.7546
X1.1577 Y0.7558
X1.1575 Y0.7573
X1.1579 Y0.7587
G3 X1.2085 Y0.9092 I-0.5311 J0.2622 F75
X1.2144 Y1.0678 I-0.5137 J0.0986
X1.0887 Y1.3589 I-0.5462 J-0.0631
G1 X0.7944 Y1.7059
X0.7621 Y1.744 F18.75
X0.7613 Y1.7453
X0.7611 Y1.7467
X0.7615 Y1.7482
X0.7623 Y1.7494
X0.7635 Y1.7502
X0.7649 Y1.7505
X0.7664 Y1.7503
X0.7676 Y1.7496
G2 X0.8802 Y1.6522 I-7.993 J-9.3564 F75
G3 X0.9928 Y1.5549 I8.1056 J9.259
X1.6337 Y1.502 I0.3571 J0.418
G1 X1.6372 Y1.5037 Z0.7839
X1.6409 Y1.5049 Z0.7846
X1.6443 Y1.5055 Z0.7863
X1.6478 Z0.7881
X1.6505 Y1.5053 Z0.7909
X1.6532 Y1.5047 Z0.7936
X1.6566 Y1.5035 Z0.8006
X1.6577 Y1.503 Z0.8083
G0 Z1.24
X-0.1204 Y2.6766
G1 Z0.8083 F15
X-0.1202 Y2.6764 Z0.8044 F75
X-0.1195 Y2.6758 Z0.8006
X-0.1183 Y2.6748 Z0.797
X-0.1168 Y2.6735 Z0.7936
X-0.1148 Y2.6718 Z0.7907
X-0.1126 Y2.6699 Z0.7881
X-0.11 Y2.6677 Z0.7861
X-0.1073 Y2.6654 Z0.7846
X-0.1044 Y2.6629 Z0.7836
X-0.1014 Y2.6604 Z0.7833
X-0.0808 Y2.6428
X1.0771 Y1.6536
G3 X1.7492 Y1.8428 I0.2728 J0.3193
G1 X2.119 Y2.9774
X2.1345 Y3.025 F18.75
X2.0607 Y1.9342 F75
G2 X2.0563 Y1.9128 I-0.0798 J0.0054
G1 X1.8484 Y1.3273
G3 X1.8645 Y1.0072 I0.3958 J-0.1405
G1 X2.0733 Y0.5658
X2.0946 Y0.5206 F18.75
Y0.0519 F75
Y0.0019 F18.75
X2.0362 Y0.117 F75
X1.8464 Y0.4908
G3 X1.1594 Y0.5813 I-0.3745 J-0.1901
G1 X0.7751 Y0.1535
X0.7417 Y0.1163 F18.75
Y0.1549 F75
Y0.2049 F18.75
X1.0448 Y0.8188 F75
G3 X0.9894 Y1.2753 I-0.3766 J0.1859
G1 X-0.0807 Y2.5458
X-0.082 Y2.5476
X-0.0829 Y2.5497
X-0.0835 Y2.5519
X-0.1014 Y2.6643
G2 X-0.081 Y2.6757 I0.0123 J0.002
G1 X1.0933 Y1.6726
G3 X1.7255 Y1.8505 I0.2566 J0.3003
G1 X2.0984 Y2.9951
X2.1525 Y3.161
X2.153 Y3.1621 Z0.7835
X2.1538 Y3.1628 Z0.7841
X2.1545 Y3.1633 Z0.7849
X2.155 Y3.1635 Z0.786
X2.1552 Z0.7872
Z1.0794
X2.1575 Y3.173
Z0.7858
X2.1577 Z0.7849
X2.1582 Y3.1729 Z0.7841
X2.159 Y3.1727 Z0.7835
X2.1599 Y3.1725 Z0.7833
G2 X2.1687 Y3.1607 I-0.0025 J-0.011
G1 X2.0857 Y1.9325
G2 X2.0799 Y1.9045 I-0.1048 J0.0071
G1 X1.872 Y1.319
G3 X1.8871 Y1.0179 I0.3722 J-0.1322
G1 X2.0983 Y0.5714
X2.1196 Y0.5262 F18.75
Y-0.0806 F75
X2.1195 Y-0.0813 Z0.7835
X2.1192 Y-0.082 Z0.7838
X2.1189 Y-0.0824 Z0.7844
X2.1186 Y-0.0826 Z0.7851
X2.1185 Y-0.0827 Z0.7858
Z1.165
X1.6044 Y1.6708
X1.6053 Y1.6716 Z1.1574 F13.333
X1.6079 Y1.6738 Z1.1505
X1.61 Y1.6756 Z1.1477
X1.612 Y1.6774 Z1.1449
X1.6145 Y1.6797 Z1.1431
X1.6171 Y1.682 Z1.1413
X1.6189 Y1.6837 Z1.1409
X1.6208 Y1.6854 Z1.1404
X1.6226 Y1.6872 Z1.14
G3 X1.7254 Y1.8506 Z1.1363 I-0.2727 J0.2857
G1 X2.0984 Y2.9951 Z1.1134
X2.173 Y3.2238 Z1.1089
X2.0857 Y1.9325 Z1.0843
G2 X2.0799 Y1.9045 Z1.0837 I-0.1048 J0.0071
G1 X1.872 Y1.319 Z1.0719
G3 X1.8871 Y1.0179 Z1.0661 I0.3722 J-0.1322
G1 X2.1196 Y0.5262 Z1.0557
Y-0.1025 Z1.0438
X2.0139 Y0.1057 Z1.0394
X1.8241 Y0.4795 Z1.0314
G3 X1.178 Y0.5646 Z1.0168 I-0.3522 J-0.1788
G1 X0.7167 Y0.051 Z1.0037
Y0.2108 Z1.0007
X1.0224 Y0.8299 Z0.9876
G3 X0.9703 Y1.2592 Z0.9789 I-0.3542 J0.1748
G1 X-0.587 Y3.1081 Z0.933
X1.0933 Y1.6726 Z0.891
G3 X1.7255 Y1.8505 Z0.8763 I0.2566 J0.3003
G1 X2.0984 Y2.9951 Z0.8534
X2.173 Y3.2238 Z0.8489
X2.0857 Y1.9325 Z0.8243
G2 X2.0799 Y1.9045 Z0.8237 I-0.1048 J0.0071
G1 X1.872 Y1.319 Z0.8119
G3 X1.8871 Y1.0179 Z0.8061 I0.3722 J-0.1322
G1 X2.1196 Y0.5262 Z0.7957
Y-0.1025 Z0.7838
X2.1085 Y-0.0807 Z0.7833
X2.0139 Y0.1057 F75
X1.8241 Y0.4795
G3 X1.178 Y0.5646 I-0.3522 J-0.1788
G1 X0.7501 Y0.0882
X0.7167 Y0.051 F18.75
Y0.1608 F75
Y0.2108 F18.75
X1.0224 Y0.8299 F75
G3 X0.9703 Y1.2592 I-0.3542 J0.1748
G1 X-0.0809 Y2.5072
X-0.0821 Y2.5089
X-0.083 Y2.5109
X-0.1394 Y2.662
G2 X-0.1195 Y2.6759 I0.0117 J0.0044
G1 X-0.1166 Y2.6733 Z0.783
X-0.1137 Y2.6708 Z0.7821
X-0.1109 Y2.6685 Z0.7806
X-0.1084 Y2.6663 Z0.7786
X-0.1061 Y2.6644 Z0.776
X-0.1042 Y2.6627 Z0.773
X-0.1026 Y2.6614 Z0.7697
X-0.1015 Y2.6604 Z0.7661
X-0.1008 Y2.6598 Z0.7622
X-0.1005 Y2.6596 Z0.7583
Z0.5517
X-0.1003 Y2.6594 Z0.5478
X-0.0996 Y2.6588 Z0.5439
X-0.0985 Y2.6579 Z0.5403
X-0.0969 Y2.6565 Z0.537
X-0.095 Y2.6549 Z0.534
X-0.0927 Y2.6529 Z0.5314
X-0.0902 Y2.6508 Z0.5294
X-0.0874 Y2.6484 Z0.5279
X-0.0845 Y2.6459 Z0.527
X-0.0815 Y2.6434 Z0.5267
X1.0771 Y1.6536
G3 X1.3265 Y1.5536 I0.2728 J0.3193
G2 X1.3608 Y1.4063 I-0.0828 J-0.0969
G3 X1.4529 Y1.2867 I0.0793 J-0.0342
X1.5022 Y1.2959 I-0.103 J0.6862
X1.5506 Y1.3086 I-0.1523 J0.677 F18.75
G2 X1.5596 Y1.3007 I0.002 J-0.0068
G3 X1.5648 Y1.0453 I0.6846 J-0.1139 F75
X1.5767 Y0.9968 I0.6794 J0.1415 F18.75
G2 X1.5689 Y0.9878 I-0.0068 J-0.002
G3 X1.4227 Y0.9929 I-0.097 J-0.6871 F75
X1.373 Y0.9876 I0.0492 J-0.6922 F18.75
G2 X1.3622 Y0.9971 I-0.0014 J0.0093
G3 X1.327 Y1.2231 I-0.694 J0.0076 F75
X1.3096 Y1.27 I-0.6588 J-0.2184 F18.75
G2 X1.3164 Y1.2796 I0.0064 J0.0027
G3 X1.453 Y1.2865 I0.0335 J0.6933 F75
X1.554 Y1.3853 I-0.018 J0.1194
G2 X1.6337 Y1.502 I0.1675 J-0.0289
G3 X1.8727 Y1.8026 I-0.2838 J0.4709
X1.8998 Y1.8888 I-4.3185 J1.4071
G2 X1.9117 Y1.9274 I4.3443 J-1.3205
X1.9269 Y1.9751 I4.3324 J-1.3591 F18.75
G1 X1.9277 Y1.9763
X1.9288 Y1.9773
X1.9302 Y1.9778
X1.9317
X1.9331 Y1.9773
X1.9342 Y1.9763
X1.9349 Y1.9749
X1.9351 Y1.9735
X1.9335 Y1.9504
X1.9331 Y1.9485
X1.726 Y1.3708 F75
G3 X1.7471 Y0.9517 I0.5182 J-0.184
X1.8123 Y0.816 I11.3713 J5.3777
G2 X1.856 Y0.7255 I-11.3086 J-5.5145
X1.8774 Y0.6804 I-11.3523 J-5.424 F18.75
G1 X1.8778 Y0.6789
X1.8775 Y0.6774
X1.8767 Y0.6761
X1.8754 Y0.6752
X1.8739 Y0.6749
X1.8724 Y0.6752
X1.8711 Y0.6761
G3 X1.2061 Y0.7799 I-0.3992 J-0.3754 F75
X1.1636 Y0.7537 I0.2658 J-0.4792 F18.75
G1 X1.1622 Y0.7532
X1.1608 Y0.7531
X1.1594 Y0.7536
X1.1583 Y0.7546
X1.1577 Y0.7558
X1.1575 Y0.7573
X1.1579 Y0.7587
G3 X1.2085 Y0.9092 I-0.5311 J0.2622 F75
X1.2144 Y1.0678 I-0.5137 J0.0986
X1.0887 Y1.3589 I-0.5462 J-0.0631
G1 X0.7944 Y1.7059
X0.7621 Y1.744 F18.75
X0.7613 Y1.7453
X0.7611 Y1.7467
X0.7615 Y1.7482
X0.7623 Y1.7494
X0.7635 Y1.7502
X0.7649 Y1.7505
X0.7664 Y1.7503
X0.7676 Y1.7496
G2 X0.8802 Y1.6522 I-7.993 J-9.3564 F75
G3 X0.9928 Y1.5549 I8.1056 J9.259
X1.6337 Y1.502 I0.3571 J0.418
G1 X1.6372 Y1.5037 Z0.5273
X1.6409 Y1.5049 Z0.5279
X1.6443 Y1.5055 Z0.5297
X1.6478 Z0.5314
X1.6505 Y1.5053 Z0.5342
X1.6532 Y1.5047 Z0.537
X1.6566 Y1.5035 Z0.5439
X1.6577 Y1.503 Z0.5517
G0 Z1.24
X-0.1204 Y2.6766
G1 Z0.5517 F15
X-0.1202 Y2.6764 Z0.5478 F75
X-0.1195 Y2.6758 Z0.5439
X-0.1183 Y2.6748 Z0.5403
X-0.1168 Y2.6735 Z0.537
X-0.1148 Y2.6718 Z0.534
X-0.1126 Y2.6699 Z0.5314
X-0.11 Y2.6677 Z0.5294
X-0.1073 Y2.6654 Z0.5279
X-0.1044 Y2.6629 Z0.527
X-0.1014 Y2.6604 Z0.5267
X-0.0808 Y2.6428
X1.0771 Y1.6536
G3 X1.7492 Y1.8428 I0.2728 J0.3193
G1 X2.119 Y2.9774
X2.1345 Y3.025 F18.75
X2.0607 Y1.9342 F75
G2 X2.0563 Y1.9128 I-0.0798 J0.0054
G1 X1.8484 Y1.3273
G3 X1.8645 Y1.0072 I0.3958 J-0.1405
G1 X2.0733 Y0.5658
X2.0946 Y0.5206 F18.75
Y0.0519 F75
Y0.0019 F18.75
X2.0362 Y0.117 F75
X1.8464 Y0.4908
G3 X1.1594 Y0.5813 I-0.3745 J-0.1901
G1 X0.7751 Y0.1535
X0.7417 Y0.1163 F18.75
Y0.1549 F75
Y0.2049 F18.75
X1.0448 Y0.8188 F75
G3 X0.9894 Y1.2753 I-0.3766 J0.1859
G1 X-0.0807 Y2.5458
X-0.082 Y2.5476
X-0.0829 Y2.5497
X-0.0835 Y2.5519
X-0.1014 Y2.6643
G2 X-0.081 Y2.6757 I0.0123 J0.002
G1 X1.0933 Y1.6726
G3 X1.7255 Y1.8505 I0.2566 J0.3003
G1 X2.0984 Y2.9951
X2.1525 Y3.161
X2.153 Y3.1621 Z0.5269
X2.1538 Y3.1628 Z0.5274
X2.1545 Y3.1633 Z0.5283
X2.155 Y3.1635 Z0.5294
X2.1552 Z0.5306
Z0.8227
X2.1575 Y3.173
Z0.5292
X2.1577 Z0.5282
X2.1582 Y3.1729 Z0.5274
X2.159 Y3.1727 Z0.5269
X2.1599 Y3.1725 Z0.5267
G2 X2.1687 Y3.1607 I-0.0025 J-0.011
G1 X2.0857 Y1.9325
G2 X2.0799 Y1.9045 I-0.1048 J0.0071
G1 X1.872 Y1.319
G3 X1.8871 Y1.0179 I0.3722 J-0.1322
G1 X2.0983 Y0.5714
X2.1196 Y0.5262 F18.75
Y-0.0806 F75
X2.1195 Y-0.0813 Z0.5268
X2.1192 Y-0.082 Z0.5271
X2.1189 Y-0.0824 Z0.5277
X2.1186 Y-0.0826 Z0.5284
X2.1185 Y-0.0827 Z0.5292
Z0.9083
X1.6044 Y1.6708
X1.6053 Y1.6716 Z0.9007 F13.333
X1.6079 Y1.6738 Z0.8938
X1.61 Y1.6756 Z0.891
X1.612 Y1.6774 Z0.8883
X1.6145 Y1.6797 Z0.8865
X1.6171 Y1.682 Z0.8847
X1.6189 Y1.6837 Z0.8842
X1.6208 Y1.6854 Z0.8838
X1.6226 Y1.6872 Z0.8833
G3 X1.7254 Y1.8506 Z0.8796 I-0.2727 J0.2857
G1 X2.0984 Y2.9951 Z0.8568
X2.173 Y3.2238 Z0.8522
X2.0857 Y1.9325 Z0.8276
G2 X2.0799 Y1.9045 Z0.8271 I-0.1048 J0.0071
G1 X1.872 Y1.319 Z0.8153
G3 X1.8871 Y1.0179 Z0.8094 I0.3722 J-0.1322
G1 X2.1196 Y0.5262 Z0.7991
Y-0.1025 Z0.7871
X2.0139 Y0.1057 Z0.7827
X1.8241 Y0.4795 Z0.7747
G3 X1.178 Y0.5646 Z0.7602 I-0.3522 J-0.1788
G1 X0.7167 Y0.051 Z0.7471
Y0.2108 Z0.744
X1.0224 Y0.8299 Z0.7309
G3 X0.9703 Y1.2592 Z0.7222 I-0.3542 J0.1748
G1 X-0.587 Y3.1081 Z0.6763
X1.0933 Y1.6726 Z0.6344
G3 X1.7255 Y1.8505 Z0.6196 I0.2566 J0.3003
G1 X2.0984 Y2.9951 Z0.5968
X2.173 Y3.2238 Z0.5922
X2.0857 Y1.9325 Z0.5676
G2 X2.0799 Y1.9045 Z0.5671 I-0.1048 J0.0071
G1 X1.872 Y1.319 Z0.5553
G3 X1.8871 Y1.0179 Z0.5494 I0.3722 J-0.1322
G1 X2.1196 Y0.5262 Z0.5391
Y-0.1025 Z0.5271
X2.1085 Y-0.0807 Z0.5267
X2.0139 Y0.1057 F75
X1.8241 Y0.4795
G3 X1.178 Y0.5646 I-0.3522 J-0.1788
G1 X0.7501 Y0.0882
X0.7167 Y0.051 F18.75
Y0.1608 F75
Y0.2108 F18.75
X1.0224 Y0.8299 F75
G3 X0.9703 Y1.2592 I-0.3542 J0.1748
G1 X-0.0809 Y2.5072
X-0.0821 Y2.5089
X-0.083 Y2.5109
X-0.1394 Y2.662
G2 X-0.1195 Y2.6759 I0.0117 J0.0044
G1 X-0.1166 Y2.6733 Z0.5264
X-0.1137 Y2.6708 Z0.5254
X-0.1109 Y2.6685 Z0.5239
X-0.1084 Y2.6663 Z0.5219
X-0.1061 Y2.6644 Z0.5193
X-0.1042 Y2.6627 Z0.5164
X-0.1026 Y2.6614 Z0.513
X-0.1015 Y2.6604 Z0.5094
X-0.1008 Y2.6598 Z0.5056
X-0.1005 Y2.6596 Z0.5017
Z0.295
X-0.1003 Y2.6594 Z0.2911
X-0.0996 Y2.6588 Z0.2873
X-0.0985 Y2.6579 Z0.2837
X-0.0969 Y2.6565 Z0.2803
X-0.095 Y2.6549 Z0.2773
X-0.0927 Y2.6529 Z0.2748
X-0.0902 Y2.6508 Z0.2727
X-0.0874 Y2.6484 Z0.2712
X-0.0845 Y2.6459 Z0.2703
X-0.0815 Y2.6434 Z0.27
X1.0771 Y1.6536
G3 X1.3265 Y1.5536 I0.2728 J0.3193
G2 X1.3608 Y1.4063 I-0.0828 J-0.0969
G3 X1.4529 Y1.2867 I0.0793 J-0.0342
X1.5022 Y1.2959 I-0.103 J0.6862
X1.5506 Y1.3086 I-0.1523 J0.677 F18.75
G2 X1.5596 Y1.3007 I0.002 J-0.0068
G3 X1.5648 Y1.0453 I0.6846 J-0.1139 F75
X1.5767 Y0.9968 I0.6794 J0.1415 F18.75
G2 X1.5689 Y0.9878 I-0.0068 J-0.002
G3 X1.4227 Y0.9929 I-0.097 J-0.6871 F75
X1.373 Y0.9876 I0.0492 J-0.6922 F18.75
G2 X1.3622 Y0.9971 I-0.0014 J0.0093
G3 X1.327 Y1.2231 I-0.694 J0.0076 F75
X1.3096 Y1.27 I-0.6588 J-0.2184 F18.75
G2 X1.3164 Y1.2796 I0.0064 J0.0027
G3 X1.453 Y1.2865 I0.0335 J0.6933 F75
X1.554 Y1.3853 I-0.018 J0.1194
G2 X1.6337 Y1.502 I0.1675 J-0.0289
G3 X1.8727 Y1.8026 I-0.2838 J0.4709
X1.8998 Y1.8888 I-4.3185 J1.4071
G2 X1.9117 Y1.9274 I4.3443 J-1.3205
X1.9269 Y1.9751 I4.3324 J-1.3591 F18.75
G1 X1.9277 Y1.9763
X1.9288 Y1.9773
X1.9302 Y1.9778
X1.9317
X1.9331 Y1.9773
X1.9342 Y1.9763
X1.9349 Y1.9749
X1.9351 Y1.9735
X1.9335 Y1.9504
X1.9331 Y1.9485
X1.726 Y1.3708 F75
G3 X1.7471 Y0.9517 I0.5182 J-0.184
X1.8123 Y0.816 I11.3713 J5.3777
G2 X1.856 Y0.7255 I-11.3086 J-5.5145
X1.8774 Y0.6804 I-11.3523 J-5.424 F18.75
G1 X1.8778 Y0.6789
X1.8775 Y0.6774
X1.8767 Y0.6761
X1.8754 Y0.6752
X1.8739 Y0.6749
X1.8724 Y0.6752
X1.8711 Y0.6761
G3 X1.2061 Y0.7799 I-0.3992 J-0.3754 F75
X1.1636 Y0.7537 I0.2658 J-0.4792 F18.75
G1 X1.1622 Y0.7532
X1.1608 Y0.7531
X1.1594 Y0.7536
X1.1583 Y0.7546
X1.1577 Y0.7558
X1.1575 Y0.7573
X1.1579 Y0.7587
G3 X1.2085 Y0.9092 I-0.5311 J0.2622 F75
X1.2144 Y1.0678 I-0.5137 J0.0986
X1.0887 Y1.3589 I-0.5462 J-0.0631
G1 X0.7944 Y1.7059
X0.7621 Y1.744 F18.75
X0.7613 Y1.7453
X0.7611 Y1.7467
X0.7615 Y1.7482
X0.7623 Y1.7494
X0.7635 Y1.7502
X0.7649 Y1.7505
X0.7664 Y1.7503
X0.7676 Y1.7496
G2 X0.8802 Y1.6522 I-7.993 J-9.3564 F75
G3 X0.9928 Y1.5549 I8.1056 J9.259
X1.6337 Y1.502 I0.3571 J0.418
G1 X1.6372 Y1.5037 Z0.2706
X1.6409 Y1.5049 Z0.2712
X1.6443 Y1.5055 Z0.273
X1.6478 Z0.2748
X1.6505 Y1.5053 Z0.2775
X1.6532 Y1.5047 Z0.2803
X1.6566 Y1.5035 Z0.2873
X1.6577 Y1.503 Z0.295
G0 Z1.24
X-0.1204 Y2.6766
G1 Z0.295 F15
X-0.1202 Y2.6764 Z0.2911 F75
X-0.1195 Y2.6758 Z0.2873
X-0.1183 Y2.6748 Z0.2837
X-0.1168 Y2.6735 Z0.2803
X-0.1148 Y2.6718 Z0.2773
X-0.1126 Y2.6699 Z0.2748
X-0.11 Y2.6677 Z0.2727
X-0.1073 Y2.6654 Z0.2712
X-0.1044 Y2.6629 Z0.2703
X-0.1014 Y2.6604 Z0.27
X-0.0808 Y2.6428
X1.0771 Y1.6536
G3 X1.7492 Y1.8428 I0.2728 J0.3193
G1 X2.119 Y2.9774
X2.1345 Y3.025 F18.75
X2.0607 Y1.9342 F75
G2 X2.0563 Y1.9128 I-0.0798 J0.0054
G1 X1.8484 Y1.3273
G3 X1.8645 Y1.0072 I0.3958 J-0.1405
G1 X2.0733 Y0.5658
X2.0946 Y0.5206 F18.75
Y0.0519 F75
Y0.0019 F18.75
X2.0362 Y0.117 F75
X1.8464 Y0.4908
G3 X1.1594 Y0.5813 I-0.3745 J-0.1901
G1 X0.7751 Y0.1535
X0.7417 Y0.1163 F18.75
Y0.1549 F75
Y0.2049 F18.75
X1.0448 Y0.8188 F75
G3 X0.9894 Y1.2753 I-0.3766 J0.1859
G1 X-0.0807 Y2.5458
X-0.082 Y2.5476
X-0.0829 Y2.5497
X-0.0835 Y2.5519
X-0.1014 Y2.6643
G2 X-0.081 Y2.6757 I0.0123 J0.002
G1 X1.0933 Y1.6726
G3 X1.7255 Y1.8505 I0.2566 J0.3003
G1 X2.0984 Y2.9951
X2.1525 Y3.161
X2.153 Y3.1621 Z0.2702
X2.1538 Y3.1628 Z0.2707
X2.1545 Y3.1633 Z0.2716
X2.155 Y3.1635 Z0.2727
X2.1552 Z0.2739
Z0.566
X2.1575 Y3.173
Z0.2725
X2.1577 Z0.2715
X2.1582 Y3.1729 Z0.2707
X2.159 Y3.1727 Z0.2702
X2.1599 Y3.1725 Z0.27
G2 X2.1687 Y3.1607 I-0.0025 J-0.011
G1 X2.0857 Y1.9325
G2 X2.0799 Y1.9045 I-0.1048 J0.0071
G1 X1.872 Y1.319
G3 X1.8871 Y1.0179 I0.3722 J-0.1322
G1 X2.0983 Y0.5714
X2.1196 Y0.5262 F18.75
Y-0.0806 F75
X2.1195 Y-0.0813 Z0.2701
X2.1192 Y-0.082 Z0.2705
X2.1189 Y-0.0824 Z0.271
X2.1186 Y-0.0826 Z0.2717
X2.1185 Y-0.0827 Z0.2725
Z0.6517
X1.6044 Y1.6708
X1.6053 Y1.6716 Z0.644 F13.333
X1.6079 Y1.6738 Z0.6371
X1.61 Y1.6756 Z0.6344
X1.612 Y1.6774 Z0.6316
X1.6145 Y1.6797 Z0.6298
X1.6171 Y1.682 Z0.628
X1.6189 Y1.6837 Z0.6276
X1.6208 Y1.6854 Z0.6271
X1.6226 Y1.6872 Z0.6267
G3 X1.7254 Y1.8506 Z0.623 I-0.2727 J0.2857
G1 X2.0984 Y2.9951 Z0.6001
X2.173 Y3.2238 Z0.5955
X2.0857 Y1.9325 Z0.571
G2 X2.0799 Y1.9045 Z0.5704 I-0.1048 J0.0071
G1 X1.872 Y1.319 Z0.5586
G3 X1.8871 Y1.0179 Z0.5527 I0.3722 J-0.1322
G1 X2.1196 Y0.5262 Z0.5424
Y-0.1025 Z0.5305
X2.0139 Y0.1057 Z0.526
X1.8241 Y0.4795 Z0.5181
G3 X1.178 Y0.5646 Z0.5035 I-0.3522 J-0.1788
G1 X0.7167 Y0.051 Z0.4904
Y0.2108 Z0.4874
X1.0224 Y0.8299 Z0.4743
G3 X0.9703 Y1.2592 Z0.4656 I-0.3542 J0.1748
G1 X-0.587 Y3.1081 Z0.4197
X1.0933 Y1.6726 Z0.3777
G3 X1.7255 Y1.8505 Z0.363 I0.2566 J0.3003
G1 X2.0984 Y2.9951 Z0.3401
X2.173 Y3.2238 Z0.3355
X2.0857 Y1.9325 Z0.311
G2 X2.0799 Y1.9045 Z0.3104 I-0.1048 J0.0071
G1 X1.872 Y1.319 Z0.2986
G3 X1.8871 Y1.0179 Z0.2927 I0.3722 J-0.1322
G1 X2.1196 Y0.5262 Z0.2824
Y-0.1025 Z0.2705
X2.1085 Y-0.0807 Z0.27
X2.0139 Y0.1057 F75
X1.8241 Y0.4795
G3 X1.178 Y0.5646 I-0.3522 J-0.1788
G1 X0.7501 Y0.0882
X0.7167 Y0.051 F18.75
Y0.1608 F75
Y0.2108 F18.75
X1.0224 Y0.8299 F75
G3 X0.9703 Y1.2592 I-0.3542 J0.1748
G1 X-0.0809 Y2.5072
X-0.0831 Y2.5104
X-0.0887 Y2.5196
X-0.0907 Y2.5229 Z0.2703
X-0.0927 Y2.5262 Z0.2712
X-0.0946 Y2.5293 Z0.2727
X-0.0963 Y2.5322 Z0.2748
X-0.0978 Y2.5347 Z0.2773
X-0.0991 Y2.5369 Z0.2803
X-0.1002 Y2.5386 Z0.2837
X-0.101 Y2.5399 Z0.2873
X-0.1015 Y2.5407 Z0.2911
X-0.1016 Y2.541 Z0.295
G0 Z1.64
X5.1296 Y3.2004
Z1.24
G1 Z0.8083 F15
X5.1294 Y3.2002 Z0.8044 F75
X5.1287 Y3.1995 Z0.8006
X5.1277 Y3.1985 Z0.797
X5.1263 Y3.197 Z0.7936
X5.1245 Y3.1952 Z0.7907
X5.1224 Y3.193 Z0.7881
X5.1201 Y3.1906 Z0.7861
X5.1175 Y3.188 Z0.7846
X5.1149 Y3.1853 Z0.7836
X5.1121 Y3.1825 Z0.7833
X5.0911 Y3.1609
G3 X4.9832 Y3.0492 I12.1919 J-11.8861
G2 X4.8976 Y2.9604 I-12.3095 J11.784
X4.8627 Y2.9246 I-12.2239 J11.8728 F18.75
G1 X4.8615 Y2.9238
X4.8601 Y2.9235
X4.8587 Y2.9237
X4.8575 Y2.9244
X4.8566 Y2.9255
X4.8561 Y2.9268
X4.8562 Y2.9282
X4.8568 Y2.9295
X5.0214 Y3.1607 F75
X5.022 Y3.1615
X5.0242 Y3.1647 Z0.7836
X5.0265 Y3.1678 Z0.7846
X5.0286 Y3.1707 Z0.7861
X5.0305 Y3.1735 Z0.7881
X5.0322 Y3.1759 Z0.7907
X5.0337 Y3.178 Z0.7936
X5.0349 Y3.1796 Z0.797
X5.0358 Y3.1809 Z0.8006
X5.0363 Y3.1816 Z0.8044
X5.0365 Y3.1819 Z0.8083
Z1.0794
X5.3223 Y3.173
Z0.8083
X5.322 Y3.1728 Z0.8044
X5.3212 Y3.1724 Z0.8006
X5.3199 Y3.1717 Z0.797
X5.3181 Y3.1707 Z0.7936
X5.3158 Y3.1695 Z0.7907
X5.3132 Y3.1681 Z0.7881
X5.3103 Y3.1666 Z0.7861
X5.3071 Y3.1649 Z0.7846
X5.3037 Y3.1631 Z0.7836
X5.3002 Y3.1612 Z0.7833
X5.2994 Y3.1608
G3 X5.1962 Y3.0835 I0.1973 J-0.3708
G1 X4.3076 Y2.174
G3 X4.1887 Y1.8559 I0.3004 J-0.2935
G2 X3.9695 Y1.8372 I-0.1204 J0.1177
G3 X3.7842 Y1.7187 I-0.0693 J-0.0958
G1 X3.7853 Y1.713
G2 X3.777 Y1.6986 I-0.0123 J-0.0025
G3 X3.7276 Y1.6796 I0.2225 J-0.6528
X3.6824 Y1.6582 I0.2719 J-0.6338 F18.75
G2 X3.6723 Y1.6635 I-0.0032 J0.0062
G1 X3.6474 Y1.8435 F75
X3.6405 Y1.8931 F18.75
X3.6406 Y1.8948
X3.6412 Y1.8964
X3.6422 Y1.8977
X3.6437 Y1.8986
X3.6454 Y1.899
X3.6471 Y1.8988
X3.6486 Y1.8981
G3 X3.7575 Y1.837 I0.3905 J0.5684 F75
G2 X3.7708 Y1.8181 I-0.0092 J-0.0206
G3 X3.7842 Y1.7187 I0.8372 J0.0624
X3.8455 Y1.6561 I0.0784 J0.0154
G2 X3.848 Y1.5683 I-0.0098 J-0.0442
G3 X3.8069 Y1.555 I0.1527 J-0.5422
X3.6627 Y1.4746 I0.1812 J-0.4946
G1 X3.5972 Y1.4233
G3 X3.5591 Y1.3923 I0.9118 J-1.1605
X3.5214 Y1.3595 I0.9499 J-1.1295 F18.75
G1 X3.52 Y1.3586
X3.5185 Y1.3582
X3.5169
X3.5155 Y1.3588
X3.5142 Y1.3598
X3.5133 Y1.3611
X3.5129 Y1.3626
Y1.3642
G2 X3.5189 Y1.3925 I0.4672 J-0.0852 F75
G3 X3.5249 Y1.4208 I-0.4611 J0.1134
X3.5296 Y1.6405 I-0.684 J0.1247
G1 X3.4346 Y2.318
X3.4276 Y2.3675 F18.75
X3.4277 Y2.3691
X3.4282 Y2.3705
X3.4292 Y2.3717
X3.4305 Y2.3726
X3.432 Y2.3729
X3.4336 Y2.3727
X3.435 Y2.3721
X3.4361 Y2.371
G2 X3.5172 Y2.2582 I-8.8404 J-6.4397 F75
G3 X3.5983 Y2.1454 I8.9419 J6.3416
X3.7344 Y2.0153 I0.4292 J0.3126
X3.8588 Y1.9536 I0.3084 J0.4658
X3.9067 Y1.9393 I0.184 J0.5275 F18.75
G2 X3.916 Y1.9264 I-0.0031 J-0.012
G3 X3.9558 Y1.6446 I0.692 J-0.0459 F75
X3.9745 Y1.5982 I0.6522 J0.2359 F18.75
G2 X3.9686 Y1.5885 I-0.0063 J-0.0028
G3 X3.848 Y1.5683 I0.0321 J-0.5624 F75
X3.7627 Y1.4512 I0.0317 J-0.1127
G2 X3.7017 Y1.3195 I-0.1598 J-0.006
G1 X3.6461 Y1.276
G3 X3.5124 Y1.1233 I0.3395 J-0.432
G1 X3.2715 Y0.7119
X3.2462 Y0.6687 F18.75
X3.2453 Y0.6676
X3.244 Y0.6669
X3.2425 Y0.6666
X3.241 Y0.6669
X3.2397 Y0.6676
X3.2388 Y0.6688
X3.2383 Y0.6702
Y0.6717
X3.3814 Y1.447 F75
G3 X3.3851 Y1.6206 I-0.5405 J0.0985
G1 X3.2104 Y2.8738
X3.2034 Y2.9233 F18.75
X3.2035 Y2.9249
X3.204 Y2.9263
X3.205 Y2.9275
X3.2064 Y2.9283
X3.2079 Y2.9287
X3.2094 Y2.9285
X3.2108 Y2.9278
X3.212 Y2.9267
X3.7163 Y2.2314 F75
G3 X3.8787 Y2.1017 I0.3176 J0.2313
X4.0344 Y2.0689 I0.1596 J0.3713
X4.0843 Y2.0715 I0.0039 J0.4041 F18.75
G2 X4.0916 Y2.0624 I0.0008 J-0.0068
G3 X4.074 Y1.7556 I0.5218 J-0.1838 F75
X4.2242 Y1.4875 I0.5302 J0.1209
G1 X4.5962 Y1.1265
G2 X4.6142 Y1.0971 I-0.0491 J-0.0503
G1 X4.7292 Y0.7284
G2 X4.7302 Y0.6901 I-0.0672 J-0.0209
G1 X4.6925 Y0.5426
X4.6802 Y0.4942 F18.75
G2 X4.6701 Y0.4934 I-0.0052 J0.0013
G1 X4.3663 Y1.2037 F75
G3 X3.7528 Y1.3598 I-0.3668 J-0.1579
G1 X3.7016 Y1.3196
G2 X3.6818 Y1.3261 I-0.0077 J0.0099
G1 X3.1772 Y3.15
G2 X3.1992 Y3.1606 I0.012 J0.0033
G1 X3.3602 Y2.9399
X3.8208 Y2.3075
G3 X4.2591 Y2.3098 I0.2183 J0.159
G1 X4.7087 Y2.9414
X4.865 Y3.161
G2 X4.8747 Y3.1662 I0.0102 J-0.0073
G1 X5.293 Y3.1843
G2 X5.2994 Y3.1608 I0.0005 J-0.0125
G3 X5.1962 Y3.0835 I0.1973 J-0.3708
G1 X4.3076 Y2.174
G3 X4.3146 Y1.58 I0.3004 J-0.2935
G1 X4.7067 Y1.1969
G2 X4.7272 Y1.1635 I-0.0559 J-0.0572
G1 X4.8609 Y0.7346
G2 X4.8621 Y0.6909 I-0.0764 J-0.0239
G1 X4.7197 Y0.133
X4.7073 Y0.0845 F18.75
X4.6975 Y0.1072 F75
X4.2476 Y1.1526
G3 X3.8327 Y1.2582 I-0.2481 J-0.1068
G1 X3.726 Y1.1743
G3 X3.6238 Y1.0575 I0.2595 J-0.3302
G1 X3.0056 Y0.01
X2.9802 Y-0.0331 F18.75
X3.2541 Y1.4701 F75
G3 X3.257 Y1.6029 I-0.4132 J0.0754
G1 X3.0419 Y3.1608
G2 X3.055 Y3.1751 I0.0124 J0.0018
G1 X3.2208 Y3.1659
G2 X3.2302 Y3.1608 I-0.0007 J-0.0125
G1 X3.3804 Y2.9546
X3.841 Y2.3222
G3 X4.2387 Y2.3243 I0.1981 J0.1443
G1 X4.6883 Y2.9559
X4.8342 Y3.1607
G2 X4.8439 Y3.1659 I0.0101 J-0.0072
G1 X5.356 Y3.1851
G2 X5.3608 Y3.1609 I0.0005 J-0.0125
G3 X5.2141 Y3.066 I0.1359 J-0.3709
G1 X4.3255 Y2.1565
G3 X4.3321 Y1.5979 I0.2825 J-0.276
G1 X4.7242 Y1.2148
G2 X4.7511 Y1.1709 I-0.0734 J-0.0751
G1 X4.8847 Y0.742
G2 X4.8862 Y0.6848 I-0.1002 J-0.0313
G1 X4.7309 Y0.0758
X4.7257 Y0.0556
X4.7134 Y0.0072 F18.75
X4.6746 Y0.0973 F75
X4.2246 Y1.1427
G3 X3.8481 Y1.2385 I-0.2251 J-0.0969
G1 X3.7415 Y1.1547
G3 X3.6453 Y1.0448 I0.244 J-0.3106
G1 X2.981 Y-0.0809
X2.9794 Y-0.083
X2.9774 Y-0.0847
X2.9656 Y-0.0931
G2 X2.9461 Y-0.0807 I-0.0072 J0.0102
G1 X3.2295 Y1.4746
G3 X3.2322 Y1.5995 I-0.3886 J0.0709
G1 X3.0306 Y3.0598
X3.0167 Y3.1608
X3.0164 Y3.1647
X3.0166 Y3.1755
X3.0167 Y3.1794 Z0.7836
X3.0168 Y3.1832 Z0.7846
X3.0169 Y3.1868 Z0.7861
Y3.1902 Z0.7881
X3.017 Y3.1932 Z0.7907
Y3.1957 Z0.7936
X3.0171 Y3.1977 Z0.797
Y3.1993 Z0.8006
Y3.2002 Z0.8044
Y3.2005 Z0.8083
G0 Z1.24
X5.3223 Y3.173
G1 Z0.8227 F15
Z0.5517 F75
X5.322 Y3.1728 Z0.5478
X5.3212 Y3.1724 Z0.5439
X5.3199 Y3.1717 Z0.5403
X5.3181 Y3.1707 Z0.537
X5.3158 Y3.1695 Z0.534
X5.3132 Y3.1681 Z0.5314
X5.3103 Y3.1666 Z0.5294
X5.3071 Y3.1649 Z0.5279
X5.3037 Y3.1631 Z0.527
X5.3002 Y3.1612 Z0.5267
X5.2994 Y3.1608
G3 X5.1962 Y3.0835 I0.1973 J-0.3708
G1 X4.3076 Y2.174
G3 X4.1887 Y1.8559 I0.3004 J-0.2935
G2 X3.9695 Y1.8372 I-0.1204 J0.1177
G3 X3.7842 Y1.7187 I-0.0693 J-0.0958
G1 X3.7853 Y1.713
G2 X3.777 Y1.6986 I-0.0123 J-0.0025
G3 X3.7276 Y1.6796 I0.2225 J-0.6528
X3.6824 Y1.6582 I0.2719 J-0.6338 F18.75
G2 X3.6723 Y1.6635 I-0.0032 J0.0062
G1 X3.6474 Y1.8435 F75
X3.6405 Y1.8931 F18.75
X3.6406 Y1.8948
X3.6412 Y1.8964
X3.6422 Y1.8977
X3.6437 Y1.8986
X3.6454 Y1.899
X3.6471 Y1.8988
X3.6486 Y1.8981
G3 X3.7575 Y1.837 I0.3905 J0.5684 F75
G2 X3.7708 Y1.8181 I-0.0092 J-0.0206
G3 X3.7842 Y1.7187 I0.8372 J0.0624
X3.8455 Y1.6561 I0.0784 J0.0154
G2 X3.848 Y1.5683 I-0.0098 J-0.0442
G3 X3.8069 Y1.555 I0.1527 J-0.5422
X3.6627 Y1.4746 I0.1812 J-0.4946
G1 X3.5972 Y1.4233
G3 X3.5591 Y1.3923 I0.9118 J-1.1605
X3.5214 Y1.3595 I0.9499 J-1.1295 F18.75
G1 X3.52 Y1.3586
X3.5185 Y1.3582
X3.5169
X3.5155 Y1.3588
X3.5142 Y1.3598
X3.5133 Y1.3611
X3.5129 Y1.3626
Y1.3642
G2 X3.5189 Y1.3925 I0.4672 J-0.0852 F75
G3 X3.5249 Y1.4208 I-0.4611 J0.1134
X3.5296 Y1.6405 I-0.684 J0.1247
G1 X3.4346 Y2.318
X3.4276 Y2.3675 F18.75
X3.4277 Y2.3691
X3.4282 Y2.3705
X3.4292 Y2.3717
X3.4305 Y2.3726
X3.432 Y2.3729
X3.4336 Y2.3727
X3.435 Y2.3721
X3.4361 Y2.371
G2 X3.5172 Y2.2582 I-8.8404 J-6.4397 F75
G3 X3.5983 Y2.1454 I8.9419 J6.3416
X3.7344 Y2.0153 I0.4292 J0.3126
X3.8588 Y1.9536 I0.3084 J0.4658
X3.9067 Y1.9393 I0.184 J0.5275 F18.75
G2 X3.916 Y1.9264 I-0.0031 J-0.012
G3 X3.9558 Y1.6446 I0.692 J-0.0459 F75
X3.9745 Y1.5982 I0.6522 J0.2359 F18.75
G2 X3.9686 Y1.5885 I-0.0063 J-0.0028
G3 X3.848 Y1.5683 I0.0321 J-0.5624 F75
X3.7627 Y1.4512 I0.0317 J-0.1127
G2 X3.7017 Y1.3195 I-0.1598 J-0.006
G1 X3.6461 Y1.276
G3 X3.5124 Y1.1233 I0.3395 J-0.432
G1 X3.2715 Y0.7119
X3.2462 Y0.6687 F18.75
X3.2453 Y0.6676
X3.244 Y0.6669
X3.2425 Y0.6666
X3.241 Y0.6669
X3.2397 Y0.6676
X3.2388 Y0.6688
X3.2383 Y0.6702
Y0.6717
X3.3814 Y1.447 F75
G3 X3.3851 Y1.6206 I-0.5405 J0.0985
G1 X3.2104 Y2.8738
X3.2034 Y2.9233 F18.75
X3.2035 Y2.9249
X3.204 Y2.9263
X3.205 Y2.9275
X3.2064 Y2.9283
X3.2079 Y2.9287
X3.2094 Y2.9285
X3.2108 Y2.9278
X3.212 Y2.9267
X3.7163 Y2.2314 F75
G3 X3.8787 Y2.1017 I0.3176 J0.2313
X4.0344 Y2.0689 I0.1596 J0.3713
X4.0843 Y2.0715 I0.0039 J0.4041 F18.75
G2 X4.0916 Y2.0624 I0.0008 J-0.0068
G3 X4.074 Y1.7556 I0.5218 J-0.1838 F75
X4.2242 Y1.4875 I0.5302 J0.1209
G1 X4.5962 Y1.1265
G2 X4.6142 Y1.0971 I-0.0491 J-0.0503
G1 X4.7292 Y0.7284
G2 X4.7302 Y0.6901 I-0.0672 J-0.0209
G1 X4.6925 Y0.5426
X4.6802 Y0.4942 F18.75
G2 X4.6701 Y0.4934 I-0.0052 J0.0013
G1 X4.3663 Y1.2037 F75
G3 X3.7528 Y1.3598 I-0.3668 J-0.1579
G1 X3.7016 Y1.3196
X3.6984 Y1.3175 Z0.5273
X3.6949 Y1.3159 Z0.5279
X3.6916 Y1.3149 Z0.5297
X3.6882 Y1.3144 Z0.5314
X3.6854 Y1.3143 Z0.5342
X3.6826 Y1.3145 Z0.537
X3.6792 Y1.3153 Z0.5439
X3.678 Y1.3157 Z0.5517
G0 Z1.24
X5.1296 Y3.2004
G1 Z0.5517 F15
X5.1294 Y3.2002 Z0.5478 F75
X5.1287 Y3.1995 Z0.5439
X5.1277 Y3.1985 Z0.5403
X5.1263 Y3.197 Z0.537
X5.1245 Y3.1952 Z0.534
X5.1224 Y3.193 Z0.5314
X5.1201 Y3.1906 Z0.5294
X5.1175 Y3.188 Z0.5279
X5.1149 Y3.1853 Z0.527
X5.1121 Y3.1825 Z0.5267
X5.0911 Y3.1609
G3 X4.9832 Y3.0492 I12.1919 J-11.8861
G2 X4.8976 Y2.9604 I-12.3095 J11.784
X4.8627 Y2.9246 I-12.2239 J11.8728 F18.75
G1 X4.8615 Y2.9238
X4.8601 Y2.9235
X4.8587 Y2.9237
X4.8575 Y2.9244
X4.8566 Y2.9255
X4.8561 Y2.9268
X4.8562 Y2.9282
X4.8568 Y2.9295
X5.0214 Y3.1607 F75
G2 X5.0307 Y3.166 I0.0102 J-0.0072
G1 X5.2926 Y3.1843
G2 X5.2994 Y3.1607 I0.0009 J-0.0125
G3 X5.1963 Y3.0834 I0.1973 J-0.3707
G1 X4.3076 Y2.174
G3 X4.3146 Y1.58 I0.3004 J-0.2935
G1 X4.7067 Y1.1969
G2 X4.7272 Y1.1635 I-0.0559 J-0.0572
G1 X4.8609 Y0.7346
G2 X4.8621 Y0.6909 I-0.0764 J-0.0239
G1 X4.7197 Y0.133
X4.7073 Y0.0845 F18.75
X4.6975 Y0.1072 F75
X4.2476 Y1.1526
G3 X3.8327 Y1.2582 I-0.2481 J-0.1068
G1 X3.726 Y1.1743
G3 X3.6238 Y1.0575 I0.2595 J-0.3302
G1 X3.0056 Y0.01
X2.9802 Y-0.0331 F18.75
X3.2541 Y1.4701 F75
G3 X3.257 Y1.6029 I-0.4132 J0.0754
G1 X3.0419 Y3.1608
G2 X3.0551 Y3.1751 I0.0124 J0.0018
G1 X3.1901 Y3.1658
G2 X3.1993 Y3.1607 I-0.0009 J-0.0125
G1 X3.3602 Y2.9399
X3.8208 Y2.3075
G3 X4.2591 Y2.3098 I0.2183 J0.159
G1 X4.7087 Y2.9414
X4.865 Y3.161
G2 X4.8747 Y3.1662 I0.0102 J-0.0073
G1 X5.356 Y3.1851
G2 X5.3608 Y3.1609 I0.0005 J-0.0125
G3 X5.2141 Y3.066 I0.1359 J-0.3709
G1 X4.3255 Y2.1565
G3 X4.3321 Y1.5979 I0.2825 J-0.276
G1 X4.7242 Y1.2148
G2 X4.7511 Y1.1709 I-0.0734 J-0.0751
G1 X4.8847 Y0.742
G2 X4.8862 Y0.6848 I-0.1002 J-0.0313
G1 X4.7309 Y0.0758
X4.7257 Y0.0556
X4.7134 Y0.0072 F18.75
X4.6746 Y0.0973 F75
X4.2246 Y1.1427
G3 X3.8481 Y1.2385 I-0.2251 J-0.0969
G1 X3.7415 Y1.1547
G3 X3.6453 Y1.0448 I0.244 J-0.3106
G1 X2.981 Y-0.0809
X2.9794 Y-0.083
X2.9774 Y-0.0847
X2.9656 Y-0.0931
G2 X2.9461 Y-0.0807 I-0.0072 J0.0102
G1 X3.2295 Y1.4746
G3 X3.2322 Y1.5995 I-0.3886 J0.0709
G1 X3.0306 Y3.0598
X3.0167 Y3.1608
G2 X3.0296 Y3.1749 I0.0123 J0.0017
G1 X3.2207 Y3.1659
G2 X3.2302 Y3.1608 I-0.0006 J-0.0125
G1 X3.3804 Y2.9546
X3.841 Y2.3222
G3 X4.2387 Y2.3243 I0.1981 J0.1443
G1 X4.6883 Y2.9559
X4.8342 Y3.1607
X4.8357 Y3.1625
X4.8376 Y3.164
X4.8397 Y3.1651
X4.842 Y3.1657
X5.1153 Y3.2184
G2 X5.1267 Y3.1974 I0.0024 J-0.0123
G1 X5.1239 Y3.1946 Z0.5264
X5.1213 Y3.1919 Z0.5254
X5.1187 Y3.1893 Z0.5239
X5.1164 Y3.1869 Z0.5219
X5.1143 Y3.1847 Z0.5193
X5.1125 Y3.1829 Z0.5164
X5.1111 Y3.1815 Z0.513
X5.1101 Y3.1804 Z0.5094
X5.1094 Y3.1797 Z0.5056
X5.1092 Y3.1795 Z0.5017
Z0.295
X5.109 Y3.1793 Z0.2911
X5.1084 Y3.1786 Z0.2873
X5.1073 Y3.1775 Z0.2837
X5.1059 Y3.1761 Z0.2803
X5.1041 Y3.1743 Z0.2773
X5.102 Y3.1721 Z0.2748
X5.0997 Y3.1697 Z0.2727
X5.0971 Y3.1671 Z0.2712
X5.0945 Y3.1644 Z0.2703
X5.0918 Y3.1616 Z0.27
X5.0911 Y3.1609
G3 X4.9832 Y3.0492 I12.1919 J-11.8861
G2 X4.8976 Y2.9604 I-12.3095 J11.784
X4.8627 Y2.9246 I-12.2239 J11.8728 F18.75
G1 X4.8615 Y2.9238
X4.8601 Y2.9235
X4.8587 Y2.9237
X4.8575 Y2.9244
X4.8566 Y2.9255
X4.8561 Y2.9268
X4.8562 Y2.9282
X4.8568 Y2.9295
X5.0214 Y3.1607 F75
X5.022 Y3.1615
X5.0242 Y3.1647 Z0.2703
X5.0265 Y3.1678 Z0.2712
X5.0286 Y3.1707 Z0.2727
X5.0305 Y3.1735 Z0.2748
X5.0322 Y3.1759 Z0.2773
X5.0337 Y3.178 Z0.2803
X5.0349 Y3.1796 Z0.2837
X5.0358 Y3.1809 Z0.2873
X5.0363 Y3.1816 Z0.2911
X5.0365 Y3.1819 Z0.295
Z0.566
X5.3223 Y3.173
Z0.295
X5.322 Y3.1728 Z0.2911
X5.3212 Y3.1724 Z0.2873
X5.3199 Y3.1717 Z0.2837
X5.3181 Y3.1707 Z0.2803
X5.3158 Y3.1695 Z0.2773
X5.3132 Y3.1681 Z0.2748
X5.3103 Y3.1666 Z0.2727
X5.3071 Y3.1649 Z0.2712
X5.3037 Y3.1631 Z0.2703
X5.3002 Y3.1612 Z0.27
X5.2994 Y3.1608
G3 X5.1962 Y3.0835 I0.1973 J-0.3708
G1 X4.3076 Y2.174
G3 X4.1887 Y1.8559 I0.3004 J-0.2935
G2 X3.9695 Y1.8372 I-0.1204 J0.1177
G3 X3.7842 Y1.7187 I-0.0693 J-0.0958
G1 X3.7853 Y1.713
G2 X3.777 Y1.6986 I-0.0123 J-0.0025
G3 X3.7276 Y1.6796 I0.2225 J-0.6528
X3.6824 Y1.6582 I0.2719 J-0.6338 F18.75
G2 X3.6723 Y1.6635 I-0.0032 J0.0062
G1 X3.6474 Y1.8435 F75
X3.6405 Y1.8931 F18.75
X3.6406 Y1.8948
X3.6412 Y1.8964
X3.6422 Y1.8977
X3.6437 Y1.8986
X3.6454 Y1.899
X3.6471 Y1.8988
X3.6486 Y1.8981
G3 X3.7575 Y1.837 I0.3905 J0.5684 F75
G2 X3.7708 Y1.8181 I-0.0092 J-0.0206
G3 X3.7842 Y1.7187 I0.8372 J0.0624
X3.8455 Y1.6561 I0.0784 J0.0154
G2 X3.848 Y1.5683 I-0.0098 J-0.0442
G3 X3.8069 Y1.555 I0.1527 J-0.5422
X3.6627 Y1.4746 I0.1812 J-0.4946
G1 X3.5972 Y1.4233
G3 X3.5591 Y1.3923 I0.9118 J-1.1605
X3.5214 Y1.3595 I0.9499 J-1.1295 F18.75
G1 X3.52 Y1.3586
X3.5185 Y1.3582
X3.5169
X3.5155 Y1.3588
X3.5142 Y1.3598
X3.5133 Y1.3611
X3.5129 Y1.3626
Y1.3642
G2 X3.5189 Y1.3925 I0.4672 J-0.0852 F75
G3 X3.5249 Y1.4208 I-0.4611 J0.1134
X3.5296 Y1.6405 I-0.684 J0.1247
G1 X3.4346 Y2.318
X3.4276 Y2.3675 F18.75
X3.4277 Y2.3691
X3.4282 Y2.3705
X3.4292 Y2.3717
X3.4305 Y2.3726
X3.432 Y2.3729
X3.4336 Y2.3727
X3.435 Y2.3721
X3.4361 Y2.371
G2 X3.5172 Y2.2582 I-8.8404 J-6.4397 F75
G3 X3.5983 Y2.1454 I8.9419 J6.3416
X3.7344 Y2.0153 I0.4292 J0.3126
X3.8588 Y1.9536 I0.3084 J0.4658
X3.9067 Y1.9393 I0.184 J0.5275 F18.75
G2 X3.916 Y1.9264 I-0.0031 J-0.012
G3 X3.9558 Y1.6446 I0.692 J-0.0459 F75
X3.9745 Y1.5982 I0.6522 J0.2359 F18.75
G2 X3.9686 Y1.5885 I-0.0063 J-0.0028
G3 X3.848 Y1.5683 I0.0321 J-0.5624 F75
X3.7627 Y1.4512 I0.0317 J-0.1127
G2 X3.7017 Y1.3195 I-0.1598 J-0.006
G1 X3.6461 Y1.276
G3 X3.5124 Y1.1233 I0.3395 J-0.432
G1 X3.2715 Y0.7119
X3.2462 Y0.6687 F18.75
X3.2453 Y0.6676
X3.244 Y0.6669
X3.2425 Y0.6666
X3.241 Y0.6669
X3.2397 Y0.6676
X3.2388 Y0.6688
X3.2383 Y0.6702
Y0.6717
X3.3814 Y1.447 F75
G3 X3.3851 Y1.6206 I-0.5405 J0.0985
G1 X3.2104 Y2.8738
X3.2034 Y2.9233 F18.75
X3.2035 Y2.9249
X3.204 Y2.9263
X3.205 Y2.9275
X3.2064 Y2.9283
X3.2079 Y2.9287
X3.2094 Y2.9285
X3.2108 Y2.9278
X3.212 Y2.9267
X3.7163 Y2.2314 F75
G3 X3.8787 Y2.1017 I0.3176 J0.2313
X4.0344 Y2.0689 I0.1596 J0.3713
X4.0843 Y2.0715 I0.0039 J0.4041 F18.75
G2 X4.0916 Y2.0624 I0.0008 J-0.0068
G3 X4.074 Y1.7556 I0.5218 J-0.1838 F75
X4.2242 Y1.4875 I0.5302 J0.1209
G1 X4.5962 Y1.1265
G2 X4.6142 Y1.0971 I-0.0491 J-0.0503
G1 X4.7292 Y0.7284
G2 X4.7302 Y0.6901 I-0.0672 J-0.0209
G1 X4.6925 Y0.5426
X4.6802 Y0.4942 F18.75
G2 X4.6701 Y0.4934 I-0.0052 J0.0013
G1 X4.3663 Y1.2037 F75
G3 X3.7528 Y1.3598 I-0.3668 J-0.1579
G1 X3.7016 Y1.3196
G2 X3.6818 Y1.3261 I-0.0077 J0.0099
G1 X3.1772 Y3.15
G2 X3.1992 Y3.1606 I0.012 J0.0033
G1 X3.3602 Y2.9399
X3.8208 Y2.3075
G3 X4.2591 Y2.3098 I0.2183 J0.159
G1 X4.7087 Y2.9414
X4.865 Y3.161
G2 X4.8747 Y3.1662 I0.0102 J-0.0073
G1 X5.293 Y3.1843
G2 X5.2994 Y3.1608 I0.0005 J-0.0125
G3 X5.1962 Y3.0835 I0.1973 J-0.3708
G1 X4.3076 Y2.174
G3 X4.3146 Y1.58 I0.3004 J-0.2935
G1 X4.7067 Y1.1969
G2 X4.7272 Y1.1635 I-0.0559 J-0.0572
G1 X4.8609 Y0.7346
G2 X4.8621 Y0.6909 I-0.0764 J-0.0239
G1 X4.7197 Y0.133
X4.7073 Y0.0845 F18.75
X4.6975 Y0.1072 F75
X4.2476 Y1.1526
G3 X3.8327 Y1.2582 I-0.2481 J-0.1068
G1 X3.726 Y1.1743
G3 X3.6238 Y1.0575 I0.2595 J-0.3302
G1 X3.0056 Y0.01
X2.9802 Y-0.0331 F18.75
X3.2541 Y1.4701 F75
G3 X3.257 Y1.6029 I-0.4132 J0.0754
G1 X3.0419 Y3.1608
G2 X3.055 Y3.1751 I0.0124 J0.0018
G1 X3.2208 Y3.1659
G2 X3.2302 Y3.1608 I-0.0007 J-0.0125
G1 X3.3804 Y2.9546
X3.841 Y2.3222
G3 X4.2387 Y2.3243 I0.1981 J0.1443
G1 X4.6883 Y2.9559
X4.8342 Y3.1607
G2 X4.8439 Y3.1659 I0.0101 J-0.0072
G1 X5.356 Y3.1851
G2 X5.3608 Y3.1609 I0.0005 J-0.0125
G3 X5.2141 Y3.066 I0.1359 J-0.3709
G1 X4.3255 Y2.1565
G3 X4.3321 Y1.5979 I0.2825 J-0.276
G1 X4.7242 Y1.2148
G2 X4.7511 Y1.1709 I-0.0734 J-0.0751
G1 X4.8847 Y0.742
G2 X4.8862 Y0.6848 I-0.1002 J-0.0313
G1 X4.7309 Y0.0758
X4.7257 Y0.0556
X4.7134 Y0.0072 F18.75
X4.6746 Y0.0973 F75
X4.2246 Y1.1427
G3 X3.8481 Y1.2385 I-0.2251 J-0.0969
G1 X3.7415 Y1.1547
G3 X3.6453 Y1.0448 I0.244 J-0.3106
G1 X2.981 Y-0.0809
X2.9794 Y-0.083
X2.9774 Y-0.0847
X2.9656 Y-0.0931
G2 X2.9461 Y-0.0807 I-0.0072 J0.0102
G1 X3.2295 Y1.4746
G3 X3.2322 Y1.5995 I-0.3886 J0.0709
G1 X3.0306 Y3.0598
X3.0167 Y3.1608
X3.0164 Y3.1647
X3.0166 Y3.1755
X3.0167 Y3.1794 Z0.2703
X3.0168 Y3.1832 Z0.2712
X3.0169 Y3.1868 Z0.2727
Y3.1902 Z0.2748
X3.017 Y3.1932 Z0.2773
Y3.1957 Z0.2803
X3.0171 Y3.1977 Z0.2837
Y3.1993 Z0.2873
Y3.2002 Z0.2911
Y3.2005 Z0.295
G0 Z1.64
X6.2996 Y3.2004
Z1.24
G1 Z0.8083 F15
X6.2995 Y3.2001 Z0.8044 F75
X6.2993 Y3.1992 Z0.8006
X6.299 Y3.1978 Z0.797
X6.2986 Y3.1957 Z0.7936
X6.2981 Y3.1932 Z0.7907
X6.2975 Y3.1903 Z0.7881
X6.2968 Y3.1871 Z0.7861
X6.2961 Y3.1835 Z0.7846
X6.2953 Y3.1798 Z0.7836
X6.2945 Y3.1759 Z0.7833
X6.2913 Y3.1605
X6.0172 Y1.8373
G3 X6.006 Y1.7274 I0.532 J-0.1098
G1 X6.0078 Y0.6706
G2 X6.0038 Y0.6556 I-0.0302 J0
G1 X5.9842 Y0.6213
X5.9595 Y0.5778 F18.75
G2 X5.9498 Y0.5803 I-0.0045 J0.0026
G1 X5.949 Y0.6103 F75
G3 X5.9461 Y0.6449 I-0.2907 J-0.0068
G1 X5.7827 Y1.766
G2 X5.7849 Y1.8042 I0.0948 J0.0136
G1 X6.1443 Y3.1606
G2 X6.1561 Y3.1699 I0.0121 J-0.0032
G1 X6.404 Y3.1757
G2 X6.4165 Y3.1607 I0.0003 J-0.0125
G1 X6.1379 Y1.8124
G3 X6.1292 Y1.7274 I0.4113 J-0.0849
G1 Y0.6516
G2 X6.1187 Y0.612 I-0.08 J0
G1 X5.8532 Y0.146
X5.8285 Y0.1026 F18.75
Y0.5674 F75
G3 X5.8242 Y0.6274 I-0.42 J0
G1 X5.6585 Y1.7762
G2 X5.6603 Y1.8082 I0.0792 J0.0115
G1 X5.9752 Y2.9965
X6.0188 Y3.1609
G2 X6.0307 Y3.1701 I0.012 J-0.0032
G1 X6.4297 Y3.1757
G2 X6.442 Y3.1607 I0.0001 J-0.0125
G1 X6.1624 Y1.8074
G3 X6.1542 Y1.7274 I0.3868 J-0.0799
G1 Y0.6516
G2 X6.1404 Y0.5996 I-0.105 J0
G1 X5.8625 Y0.1118
X5.8282 Y0.0517
X5.8035 Y0.0082 F18.75
Y0.5674 F75
G3 X5.7995 Y0.6238 I-0.395 J0
G1 X5.6338 Y1.7727
G2 X5.6362 Y1.8146 I0.1039 J0.015
G1 X5.951 Y3.0029
X5.9928 Y3.1606
G2 X6.0025 Y3.1697 I0.0121 J-0.0032
G1 X6.287 Y3.2253
G2 X6.3017 Y3.2105 I0.0024 J-0.0123
G1 X6.3009 Y3.2066 Z0.783
X6.3001 Y3.2029 Z0.7821
X6.2994 Y3.1993 Z0.7806
X6.2987 Y3.1961 Z0.7786
X6.2981 Y3.1931 Z0.776
X6.2976 Y3.1907 Z0.773
X6.2971 Y3.1886 Z0.7697
X6.2968 Y3.1872 Z0.7661
X6.2967 Y3.1863 Z0.7622
X6.2966 Y3.186 Z0.7583
Z0.5517
X6.2965 Y3.1857 Z0.5478
X6.2963 Y3.1848 Z0.5439
X6.296 Y3.1833 Z0.5403
X6.2956 Y3.1813 Z0.537
X6.2951 Y3.1788 Z0.534
X6.2945 Y3.1759 Z0.5314
X6.2938 Y3.1726 Z0.5294
X6.2931 Y3.1691 Z0.5279
X6.2923 Y3.1653 Z0.527
X6.2915 Y3.1615 Z0.5267
X6.2913 Y3.1605
X6.0172 Y1.8373
G3 X6.006 Y1.7274 I0.532 J-0.1098
G1 X6.0078 Y0.6706
G2 X6.0038 Y0.6556 I-0.0302 J0
G1 X5.9842 Y0.6213
X5.9595 Y0.5778 F18.75
G2 X5.9498 Y0.5803 I-0.0045 J0.0026
G1 X5.949 Y0.6103 F75
G3 X5.9461 Y0.6449 I-0.2907 J-0.0068
G1 X5.7827 Y1.766
G2 X5.7849 Y1.8042 I0.0948 J0.0136
G1 X6.1443 Y3.1606
G2 X6.1561 Y3.1699 I0.0121 J-0.0032
G1 X6.404 Y3.1757
G2 X6.4165 Y3.1607 I0.0003 J-0.0125
G1 X6.1379 Y1.8124
G3 X6.1292 Y1.7274 I0.4113 J-0.0849
G1 Y0.6516
G2 X6.1187 Y0.612 I-0.08 J0
G1 X5.8532 Y0.146
X5.8285 Y0.1026 F18.75
Y0.5674 F75
G3 X5.8242 Y0.6274 I-0.42 J0
G1 X5.6585 Y1.7762
G2 X5.6603 Y1.8082 I0.0792 J0.0115
G1 X5.9752 Y2.9965
X6.0188 Y3.1609
G2 X6.0307 Y3.1701 I0.012 J-0.0032
G1 X6.4297 Y3.1757
G2 X6.442 Y3.1607 I0.0001 J-0.0125
G1 X6.1624 Y1.8074
G3 X6.1542 Y1.7274 I0.3868 J-0.0799
G1 Y0.6516
G2 X6.1404 Y0.5996 I-0.105 J0
G1 X5.8625 Y0.1118
X5.8282 Y0.0517
X5.8035 Y0.0082 F18.75
Y0.5674 F75
G3 X5.7995 Y0.6238 I-0.395 J0
G1 X5.6338 Y1.7727
G2 X5.6362 Y1.8146 I0.1039 J0.015
G1 X5.951 Y3.0029
X5.9928 Y3.1606
G2 X6.0025 Y3.1697 I0.0121 J-0.0032
G1 X6.287 Y3.2253
G2 X6.3017 Y3.2105 I0.0024 J-0.0123
G1 X6.3009 Y3.2066 Z0.5264
X6.3001 Y3.2029 Z0.5254
X6.2994 Y3.1993 Z0.5239
X6.2987 Y3.1961 Z0.5219
X6.2981 Y3.1931 Z0.5193
X6.2976 Y3.1907 Z0.5164
X6.2971 Y3.1886 Z0.513
X6.2968 Y3.1872 Z0.5094
X6.2967 Y3.1863 Z0.5056
X6.2966 Y3.186 Z0.5017
Z0.295
X6.2965 Y3.1857 Z0.2911
X6.2963 Y3.1848 Z0.2873
X6.296 Y3.1833 Z0.2837
X6.2956 Y3.1813 Z0.2803
X6.2951 Y3.1788 Z0.2773
X6.2945 Y3.1759 Z0.2748
X6.2938 Y3.1726 Z0.2727
X6.2931 Y3.1691 Z0.2712
X6.2923 Y3.1653 Z0.2703
X6.2915 Y3.1615 Z0.27
X6.2913 Y3.1605
X6.0172 Y1.8373
G3 X6.006 Y1.7274 I0.532 J-0.1098
G1 X6.0078 Y0.6706
G2 X6.0038 Y0.6556 I-0.0302 J0
G1 X5.9842 Y0.6213
X5.9595 Y0.5778 F18.75
G2 X5.9498 Y0.5803 I-0.0045 J0.0026
G1 X5.949 Y0.6103 F75
G3 X5.9461 Y0.6449 I-0.2907 J-0.0068
G1 X5.7827 Y1.766
G2 X5.7849 Y1.8042 I0.0948 J0.0136
G1 X6.1443 Y3.1606
G2 X6.1561 Y3.1699 I0.0121 J-0.0032
G1 X6.404 Y3.1757
G2 X6.4165 Y3.1607 I0.0003 J-0.0125
G1 X6.1379 Y1.8124
G3 X6.1292 Y1.7274 I0.4113 J-0.0849
G1 Y0.6516
G2 X6.1187 Y0.612 I-0.08 J0
G1 X5.8532 Y0.146
X5.8285 Y0.1026 F18.75
Y0.5674 F75
G3 X5.8242 Y0.6274 I-0.42 J0
G1 X5.6585 Y1.7762
G2 X5.6603 Y1.8082 I0.0792 J0.0115
G1 X5.9752 Y2.9965
X6.0188 Y3.1609
G2 X6.0307 Y3.1701 I0.012 J-0.0032
G1 X6.4297 Y3.1757
G2 X6.442 Y3.1607 I0.0001 J-0.0125
G1 X6.1624 Y1.8074
G3 X6.1542 Y1.7274 I0.3868 J-0.0799
G1 Y0.6516
G2 X6.1404 Y0.5996 I-0.105 J0
G1 X5.8625 Y0.1118
X5.8282 Y0.0517
X5.8035 Y0.0082 F18.75
Y0.5674 F75
G3 X5.7995 Y0.6238 I-0.395 J0
G1 X5.6338 Y1.7727
G2 X5.6362 Y1.8146 I0.1039 J0.015
G1 X5.951 Y3.0029
X5.9928 Y3.1606
X5.9941 Y3.1643
X5.9985 Y3.1742
X6.0001 Y3.1777 Z0.2703
X6.0016 Y3.1812 Z0.2712
X6.0031 Y3.1845 Z0.2727
X6.0044 Y3.1876 Z0.2748
X6.0056 Y3.1903 Z0.2773
X6.0066 Y3.1927 Z0.2803
X6.0075 Y3.1945 Z0.2837
X6.0081 Y3.1959 Z0.2873
X6.0084 Y3.1967 Z0.2911
X6.0086 Y3.197 Z0.295
G0 Z1.64
X7.3977 Y3.2004
Z1.24
G1 Z0.8083 F15
Y3.2001 Z0.8044 F75
Y3.1992 Z0.8006
X7.3976 Y3.1977 Z0.797
X7.3974 Y3.1956 Z0.7936
X7.3973 Y3.1931 Z0.7907
X7.3971 Y3.1901 Z0.7881
X7.3969 Y3.1868 Z0.7861
X7.3966 Y3.1831 Z0.7846
X7.3964 Y3.1793 Z0.7836
X7.3962 Y3.1754 Z0.7833
X7.3952 Y3.1607
X7.2538 Y0.9455
X7.2507 Y0.8956 F18.75
X7.2503 Y0.8943
X7.2494 Y0.8931
X7.2482 Y0.8924
X7.2468 Y0.8921
X7.2454 Y0.8924
X7.2442 Y0.8932
X7.2434 Y0.8944
X7.2431 Y0.8958
X7.1897 Y3.1606 F75
G2 X7.2022 Y3.1734 I0.0125 J0.0003
G1 X7.5128 Y3.174
G2 X7.5253 Y3.1607 I0 J-0.0125
G1 X7.5183 Y3.0508
X7.377 Y0.8377
G2 X7.375 Y0.8244 I-0.0798 J0.0052
G1 X7.198 Y0.0793
X7.1599 Y-0.0809
G2 X7.1372 Y-0.0819 I-0.0115 J0.0027
G1 X7.1363 Y-0.0807
X7.1333 Y0.044
X7.0599 Y3.1606
G2 X7.0724 Y3.1734 I0.0125 J0.0003
G1 X7.5379 Y3.1741
G2 X7.5504 Y3.1608 I0 J-0.0125
G1 X7.5432 Y3.0492
X7.402 Y0.8361
G2 X7.3994 Y0.8186 I-0.1048 J0.0068
G1 X7.2223 Y0.0735
X7.1856 Y-0.081
G2 X7.174 Y-0.0906 I-0.0122 J0.0029
G1 X7.1244 Y-0.093
G2 X7.1113 Y-0.0808 I-0.0006 J0.0125
G1 X7.1083 Y0.0434
X7.0349 Y3.1605
G2 X7.0455 Y3.1732 I0.0125 J0.0003
G1 X7.3841 Y3.2247
G2 X7.3985 Y3.2115 I0.0019 J-0.0124
G1 X7.3982 Y3.2076 Z0.783
X7.398 Y3.2038 Z0.7821
X7.3977 Y3.2002 Z0.7806
X7.3975 Y3.1969 Z0.7786
X7.3973 Y3.1939 Z0.776
X7.3972 Y3.1914 Z0.773
X7.397 Y3.1893 Z0.7697
X7.3969 Y3.1878 Z0.7661
Y3.1869 Z0.7622
Y3.1866 Z0.7583
Z0.5517
X7.3968 Y3.1863 Z0.5478
Y3.1854 Z0.5439
X7.3967 Y3.1839 Z0.5403
X7.3966 Y3.1818 Z0.537
X7.3964 Y3.1793 Z0.534
X7.3962 Y3.1763 Z0.5314
X7.396 Y3.173 Z0.5294
X7.3958 Y3.1694 Z0.5279
X7.3955 Y3.1655 Z0.527
X7.3953 Y3.1616 Z0.5267
X7.3952 Y3.1607
X7.2538 Y0.9455
X7.2507 Y0.8956 F18.75
X7.2503 Y0.8943
X7.2494 Y0.8931
X7.2482 Y0.8924
X7.2468 Y0.8921
X7.2454 Y0.8924
X7.2442 Y0.8932
X7.2434 Y0.8944
X7.2431 Y0.8958
X7.1897 Y3.1606 F75
G2 X7.2022 Y3.1734 I0.0125 J0.0003
G1 X7.5128 Y3.174
G2 X7.5253 Y3.1607 I0 J-0.0125
G1 X7.5183 Y3.0508
X7.377 Y0.8377
G2 X7.375 Y0.8244 I-0.0798 J0.0052
G1 X7.198 Y0.0793
X7.1599 Y-0.0809
G2 X7.1372 Y-0.0819 I-0.0115 J0.0027
G1 X7.1363 Y-0.0807
X7.1333 Y0.044
X7.0599 Y3.1606
G2 X7.0724 Y3.1734 I0.0125 J0.0003
G1 X7.5379 Y3.1741
G2 X7.5504 Y3.1608 I0 J-0.0125
G1 X7.5432 Y3.0492
X7.402 Y0.8361
G2 X7.3994 Y0.8186 I-0.1048 J0.0068
G1 X7.2223 Y0.0735
X7.1856 Y-0.081
G2 X7.174 Y-0.0906 I-0.0122 J0.0029
G1 X7.1244 Y-0.093
G2 X7.1113 Y-0.0808 I-0.0006 J0.0125
G1 X7.1083 Y0.0434
X7.0349 Y3.1605
G2 X7.0455 Y3.1732 I0.0125 J0.0003
G1 X7.3841 Y3.2247
G2 X7.3985 Y3.2115 I0.0019 J-0.0124
G1 X7.3982 Y3.2076 Z0.5264
X7.398 Y3.2038 Z0.5254
X7.3977 Y3.2002 Z0.5239
X7.3975 Y3.1969 Z0.5219
X7.3973 Y3.1939 Z0.5193
X7.3972 Y3.1914 Z0.5164
X7.397 Y3.1893 Z0.513
X7.3969 Y3.1878 Z0.5094
Y3.1869 Z0.5056
Y3.1866 Z0.5017
Z0.295
X7.3968 Y3.1863 Z0.2911
Y3.1854 Z0.2873
X7.3967 Y3.1839 Z0.2837
X7.3966 Y3.1818 Z0.2803
X7.3964 Y3.1793 Z0.2773
X7.3962 Y3.1763 Z0.2748
X7.396 Y3.173 Z0.2727
X7.3958 Y3.1694 Z0.2712
X7.3955 Y3.1655 Z0.2703
X7.3953 Y3.1616 Z0.27
X7.3952 Y3.1607
X7.2538 Y0.9455
X7.2507 Y0.8956 F18.75
X7.2503 Y0.8943
X7.2494 Y0.8931
X7.2482 Y0.8924
X7.2468 Y0.8921
X7.2454 Y0.8924
X7.2442 Y0.8932
X7.2434 Y0.8944
X7.2431 Y0.8958
X7.1897 Y3.1606 F75
G2 X7.2022 Y3.1734 I0.0125 J0.0003
G1 X7.5128 Y3.174
G2 X7.5253 Y3.1607 I0 J-0.0125
G1 X7.5183 Y3.0508
X7.377 Y0.8377
G2 X7.375 Y0.8244 I-0.0798 J0.0052
G1 X7.198 Y0.0793
X7.1599 Y-0.0809
G2 X7.1372 Y-0.0819 I-0.0115 J0.0027
G1 X7.1363 Y-0.0807
X7.1333 Y0.044
X7.0599 Y3.1606
G2 X7.0724 Y3.1734 I0.0125 J0.0003
G1 X7.5379 Y3.1741
G2 X7.5504 Y3.1608 I0 J-0.0125
G1 X7.5432 Y3.0492
X7.402 Y0.8361
G2 X7.3994 Y0.8186 I-0.1048 J0.0068
G1 X7.2223 Y0.0735
X7.1856 Y-0.081
G2 X7.174 Y-0.0906 I-0.0122 J0.0029
G1 X7.1244 Y-0.093
G2 X7.1113 Y-0.0808 I-0.0006 J0.0125
G1 X7.1083 Y0.0434
X7.0349 Y3.1605
X7.0351 Y3.1644
X7.0365 Y3.1751
X7.037 Y3.179 Z0.2703
X7.0376 Y3.1827 Z0.2712
X7.038 Y3.1863 Z0.2727
X7.0385 Y3.1897 Z0.2748
X7.0389 Y3.1926 Z0.2773
X7.0392 Y3.1951 Z0.2803
X7.0395 Y3.1972 Z0.2837
X7.0397 Y3.1987 Z0.2873
X7.0398 Y3.1996 Z0.2911
X7.0399 Y3.1999 Z0.295
G0 Z1.64

(2D Contour1)
X0.265 Y-0.16
Z1.64
Z1.24
G1 Z0.805 F15
G19 G3 Y-0.135 Z0.78 J0.025 K0 F75
G1 Y-0.11
G17 G2 X0.29 Y-0.085 I0.025 J0
G1 X7.79
G3 X8.165 Y0.29 I0 J0.375
G1 Y2.79
G3 X7.79 Y3.165 I-0.375 J0
G1 X0.29
G3 X-0.085 Y2.79 I0 J-0.375
G1 Y0.29
G3 X0.29 Y-0.085 I0.375 J0
G2 X0.315 Y-0.11 I0 J-0.025
G1 Y-0.135
G19 G2 Y-0.16 Z0.805 J0 K0.025
G0 Z1.24
X0.265
G1 Z0.545 F15
G3 Y-0.135 Z0.52 J0.025 K0 F75
G1 Y-0.11
G17 G2 X0.29 Y-0.085 I0.025 J0
G1 X7.79
G3 X8.165 Y0.29 I0 J0.375
G1 Y2.79
G3 X7.79 Y3.165 I-0.375 J0
G1 X0.29
G3 X-0.085 Y2.79 I0 J-0.375
G1 Y0.29
G3 X0.29 Y-0.085 I0.375 J0
G2 X0.315 Y-0.11 I0 J-0.025
G1 Y-0.135
G19 G2 Y-0.16 Z0.545 J0 K0.025
G0 Z1.24
X0.265
G1 Z0.285 F15
G3 Y-0.135 Z0.26 J0.025 K0 F75
G1 Y-0.11
G17 G2 X0.29 Y-0.085 I0.025 J0
G1 X7.79
G3 X8.165 Y0.29 I0 J0.375
G1 Y2.79
G3 X7.79 Y3.165 I-0.375 J0
G1 X0.29
G3 X-0.085 Y2.79 I0 J-0.375
G1 Y0.29
G3 X0.29 Y-0.085 I0.375 J0
G2 X0.315 Y-0.11 I0 J-0.025
G1 Y-0.135
G19 G2 Y-0.16 Z0.285 J0 K0.025
G0 Z1.24
X0.265
G1 Z0.033 F15
G3 Y-0.135 Z0.008 J0.025 K0 F75
G1 Y-0.11
G17 G2 X0.29 Y-0.085 I0.025 J0
G1 X0.9039
X0.9539 F18.75
Z0.08 F75
X1.7039
Z0.008 F15
X5.6567 F75
X5.7067 F18.75
Z0.08 F75
X6.4567
Z0.008 F15
X7.79 F75
G3 X8.165 Y0.29 I0 J0.375
G1 Y1.0591
Y1.1091 F18.75
Z0.08 F75
Y1.8591
Z0.008 F15
Y2.79 F75
G3 X7.79 Y3.165 I-0.375 J0
G1 X6.9529
X6.9029 F18.75
Z0.08 F75
X6.1529
Z0.008 F15
X2.0357 F75
X1.9857 F18.75
Z0.08 F75
X1.2357
Z0.008 F15
X0.29 F75
G3 X-0.085 Y2.79 I0 J-0.375
G1 Y1.9967
Y1.9467 F18.75
Z0.08 F75
Y1.1967
Z0.008 F15
Y0.29 F75
G3 X0.29 Y-0.085 I0.375 J0
G2 X0.315 Y-0.11 I0 J-0.025
G1 Y-0.135
G19 G2 Y-0.16 Z0.033 J0 K0.025
G0 Z1.24
X0.265
G1 Z0.025 F15
G3 Y-0.135 Z0 J0.025 K0 F75
G1 Y-0.11
G17 G2 X0.29 Y-0.085 I0.025 J0
G1 X0.9039
X0.9539 F18.75
Z0.08 F75
X1.7039
Z0 F15
X5.6567 F75
X5.7067 F18.75
Z0.08 F75
X6.4567
Z0 F15
X7.79 F75
G3 X8.165 Y0.29 I0 J0.375
G1 Y1.0591
Y1.1091 F18.75
Z0.08 F75
Y1.8591
Z0 F15
Y2.79 F75
G3 X7.79 Y3.165 I-0.375 J0
G1 X6.9529
X6.9029 F18.75
Z0.08 F75
X6.1529
Z0 F15
X2.0357 F75
X1.9857 F18.75
Z0.08 F75
X1.2357
Z0 F15
X0.29 F75
G3 X-0.085 Y2.79 I0 J-0.375
G1 Y1.9967
Y1.9467 F18.75
Z0.08 F75
Y1.1967
Z0 F15
Y0.29 F75
G3 X0.29 Y-0.085 I0.375 J0
G2 X0.315 Y-0.11 I0 J-0.025
G1 Y-0.135
G19 G2 Y-0.16 Z0.025 J0 K0.025
G0 Z1.64
G17
G28 G91 Z0
G90
G28 G91 X0 Y0
G90
M30
%
