%
(Climbing Keyholder CAM 1)
(Machine)
(  vendor: Carbide3D)
(  model: Shapeoko 4 XXL)
(  description: Shapeoko 4 XXL)
(T1  D=0.25 CR=0 - ZMIN=0 - flat end mill)
G90
G17
G20
G28 G91 Z0
G90

(2D Pocket1)
T1 M6
S21000 M3
G54
G0 X-0.1005 Y2.6596
Z1.64
Z1.24
G1 Z1.0794 F15
Z0.8083 F75
X-0.1003 Y2.6594 Z0.8044
X-0.0996 Y2.6588 Z0.8006
X-0.0985 Y2.6579 Z0.797
X-0.0969 Y2.6565 Z0.7936
X-0.095 Y2.6549 Z0.7907
X-0.0927 Y2.6529 Z0.7881
X-0.0902 Y2.6508 Z0.7861
X-0.0874 Y2.6484 Z0.7846
X-0.0845 Y2.6459 Z0.7836
X-0.0815 Y2.6434 Z0.7833
X1.0771 Y1.6536
G3 X1.3264 Y1.5536 I0.2728 J0.3193
X1.6183 Y1.339 I1.6104 J1.885
G2 X1.5088 Y0.9938 I-0.0995 J-0.1584
G3 X1.4225 Y0.993 I-0.0369 J-0.6931
X1.3728 Y0.9876 I0.0494 J-0.6923 F18.75
G2 X1.3622 Y0.9969 I-0.0013 J0.0092
G3 X1.3269 Y1.2233 I-0.694 J0.0078 F75
X1.3095 Y1.2701 I-0.6587 J-0.2186 F18.75
G2 X1.3162 Y1.2797 I0.0064 J0.0027
G3 X1.5456 Y1.3071 I0.0337 J0.6932 F75
X1.593 Y1.3229 I-0.1957 J0.6658 F18.75
G1 X1.5947 Y1.3231
X1.5964 Y1.3229
X1.5979 Y1.3222
X1.5991 Y1.321
X1.5998 Y1.3195
X1.6 Y1.3178
X1.5996 Y1.3162
G2 X1.5862 Y1.2848 I-0.6122 J0.2434 F75
G3 X1.5728 Y1.2535 I0.5988 J-0.2747
X1.5374 Y1.1302 I0.6017 J-0.2393
X1.5274 Y1.0524 I0.7378 J-0.1343
X1.5253 Y1.0025 I0.7478 J-0.0565 F18.75
G2 X1.5155 Y0.9934 I-0.0092 J0.0001
G1 X1.5088 Y0.9938 F75
G3 X1.3883 Y0.9162 I-0.0065 J-0.1222
G2 X1.2858 Y0.8162 I-0.1614 J0.063
G3 X1.2061 Y0.78 I0.1861 J-0.5155
X1.1635 Y0.7538 I0.2658 J-0.4793 F18.75
G1 X1.1622 Y0.7532
X1.1608 Y0.7531
X1.1594 Y0.7536
X1.1583 Y0.7546
X1.1577 Y0.7558
X1.1575 Y0.7573
X1.1579 Y0.7587
X1.1588 Y0.7604
X1.1597 Y0.7621
G3 X1.0887 Y1.3589 I-0.494 J0.2439 F75
G1 X0.7944 Y1.7059
X0.7621 Y1.744 F18.75
X0.7613 Y1.7453
X0.7611 Y1.7467
X0.7615 Y1.7482
X0.7623 Y1.7494
X0.7635 Y1.7502
X0.7649 Y1.7505
X0.7664 Y1.7503
X0.7676 Y1.7496
G2 X0.8802 Y1.6522 I-7.993 J-9.3564 F75
G3 X0.9928 Y1.5549 I8.1056 J9.259
X1.8726 Y1.8026 I0.3571 J0.418
G1 X1.9835 Y2.1477
X1.9988 Y2.1954 F18.75
X1.9995 Y2.1967
X2.0006 Y2.1977
X2.0021 Y2.1982
X2.0036 Y2.1983
X2.005 Y2.1978
X2.0062 Y2.1968
X2.0069 Y2.1955
X2.0072 Y2.194
X2.007 Y1.9533 F75
G2 X2.0042 Y1.9384 I-0.0403 J0
G1 X1.7085 Y1.1995
G3 X1.6888 Y0.8535 I0.5096 J-0.2026
X1.6958 Y0.8303 I0.3753 J0.1011 F18.75
G2 X1.7028 Y0.8071 I-0.3684 J-0.1243
G1 X1.703 Y0.8054
X1.7026 Y0.8038
X1.7018 Y0.8023
X1.7005 Y0.8012
X1.6989 Y0.8006
X1.6973 Y0.8005
X1.6957 Y0.8009
G3 X1.2858 Y0.8161 I-0.2238 J-0.5002 F75
G1 X1.2821 Y0.8151 Z0.7839
X1.2782 Y0.8147 Z0.7846
X1.2747 Y0.8148 Z0.7863
X1.2713 Y0.8154 Z0.7881
X1.2687 Y0.8162 Z0.7909
X1.2661 Y0.8173 Z0.7936
X1.2631 Y0.8191 Z0.8006
X1.2621 Y0.8198 Z0.8083
G0 Z1.24
X-0.1204 Y2.6766
G1 Z0.8083 F15
X-0.1202 Y2.6764 Z0.8044 F75
X-0.1195 Y2.6758 Z0.8006
X-0.1183 Y2.6748 Z0.797
X-0.1168 Y2.6735 Z0.7936
X-0.1148 Y2.6718 Z0.7907
X-0.1126 Y2.6699 Z0.7881
X-0.11 Y2.6677 Z0.7861
X-0.1073 Y2.6654 Z0.7846
X-0.1044 Y2.6629 Z0.7836
X-0.1014 Y2.6604 Z0.7833
X-0.0808 Y2.6428
X1.0771 Y1.6536
G3 X1.7492 Y1.8428 I0.2728 J0.3193
G1 X2.1204 Y2.9817
X2.1359 Y3.0293 F18.75
X2.1351 Y1.9363 F75
G2 X2.1294 Y1.9068 I-0.08 J0.0001
G1 X1.8291 Y1.1516
G3 X1.8138 Y0.8872 I0.3903 J-0.1552
G1 X1.9912 Y0.2282
X2.0042 Y0.1799 F18.75
X1.8464 Y0.4908 F75
G3 X1.1594 Y0.5813 I-0.3745 J-0.1901
G1 X0.7751 Y0.1535
X0.7417 Y0.1163 F18.75
Y0.1549 F75
Y0.2049 F18.75
X1.0448 Y0.8188 F75
G3 X0.9894 Y1.2753 I-0.3766 J0.1859
G1 X-0.0807 Y2.5458
X-0.082 Y2.5476
X-0.0829 Y2.5497
X-0.0835 Y2.5519
X-0.1014 Y2.6643
G2 X-0.081 Y2.6757 I0.0123 J0.002
G1 X1.0933 Y1.6726
G3 X1.7255 Y1.8505 I0.2566 J0.3003
G1 X2.0984 Y2.9951
X2.1525 Y3.161
X2.1528 Y3.1615 Z0.7834
X2.1532 Y3.162 Z0.7837
X2.1536 Y3.1622 Z0.7842
X2.1538 Y3.1623 Z0.7848
X2.1539 Z0.7854
G0 Z1.24
X1.7342 Y1.4847
G1 Z1.165 F15
X1.7337 Y1.4836 Z1.1574 F13.333
X1.732 Y1.4807 Z1.1506
X1.7291 Y1.4762 Z1.1451
X1.7253 Y1.4707 Z1.1414
X1.7206 Y1.4648 Z1.14
G2 X1.5392 Y1.618 Z1.127 I-0.0907 J0.0766
X1.7206 Y1.4648 Z1.1139 I0.0907 J-0.0766
X1.5392 Y1.618 Z1.1009 I-0.0907 J0.0766
X1.7206 Y1.4648 Z1.0879 I0.0907 J-0.0766
X1.5392 Y1.618 Z1.0749 I-0.0907 J0.0766
X1.7206 Y1.4648 Z1.0618 I0.0907 J-0.0766
X1.5392 Y1.618 Z1.0488 I-0.0907 J0.0766
X1.7206 Y1.4648 Z1.0358 I0.0907 J-0.0766
X1.5392 Y1.618 Z1.0228 I-0.0907 J0.0766
X1.7206 Y1.4648 Z1.0097 I0.0907 J-0.0766
X1.5392 Y1.618 Z0.9967 I-0.0907 J0.0766
X1.7206 Y1.4648 Z0.9837 I0.0907 J-0.0766
X1.5392 Y1.618 Z0.9706 I-0.0907 J0.0766
X1.7206 Y1.4648 Z0.9576 I0.0907 J-0.0766
X1.5392 Y1.618 Z0.9446 I-0.0907 J0.0766
X1.7206 Y1.4648 Z0.9316 I0.0907 J-0.0766
X1.5392 Y1.618 Z0.9185 I-0.0907 J0.0766
X1.7206 Y1.4648 Z0.9055 I0.0907 J-0.0766
X1.5392 Y1.618 Z0.8925 I-0.0907 J0.0766
X1.7206 Y1.4648 Z0.8794 I0.0907 J-0.0766
X1.5392 Y1.618 Z0.8664 I-0.0907 J0.0766
X1.7206 Y1.4648 Z0.8534 I0.0907 J-0.0766
X1.5392 Y1.618 Z0.8404 I-0.0907 J0.0766
X1.7206 Y1.4648 Z0.8273 I0.0907 J-0.0766
X1.5392 Y1.618 Z0.8143 I-0.0907 J0.0766
X1.7206 Y1.4648 Z0.8013 I0.0907 J-0.0766
X1.5392 Y1.618 Z0.7883 I-0.0907 J0.0766
X1.6669 Y1.6542 Z0.7833 I0.0907 J-0.0766
G1 X2.1454 Y3.113 F75
X2.161 Y3.1606 F18.75
X2.1601 Y1.9363 F75
G2 X2.1526 Y1.8976 I-0.105 J0.0001
G1 X1.8524 Y1.1423
G3 X1.838 Y0.8937 I0.367 J-0.1459
G1 X2.078 Y0.0022
X2.091 Y-0.0461 F18.75
X2.0139 Y0.1057 F75
X1.8241 Y0.4795
G3 X1.178 Y0.5646 I-0.3522 J-0.1788
G1 X0.7501 Y0.0882
X0.7167 Y0.051 F18.75
Y0.1608 F75
Y0.2108 F18.75
X1.0224 Y0.8299 F75
G3 X0.9703 Y1.2592 I-0.3542 J0.1748
G1 X-0.0809 Y2.5072
X-0.0821 Y2.5089
X-0.083 Y2.5109
X-0.1394 Y2.662
G2 X-0.1195 Y2.6759 I0.0117 J0.0044
G1 X-0.1166 Y2.6733 Z0.783
X-0.1137 Y2.6708 Z0.7821
X-0.1109 Y2.6685 Z0.7806
X-0.1084 Y2.6663 Z0.7786
X-0.1061 Y2.6644 Z0.776
X-0.1042 Y2.6627 Z0.773
X-0.1026 Y2.6614 Z0.7697
X-0.1015 Y2.6604 Z0.7661
X-0.1008 Y2.6598 Z0.7622
X-0.1005 Y2.6596 Z0.7583
Z0.5517
X-0.1003 Y2.6594 Z0.5478
X-0.0996 Y2.6588 Z0.5439
X-0.0985 Y2.6579 Z0.5403
X-0.0969 Y2.6565 Z0.537
X-0.095 Y2.6549 Z0.534
X-0.0927 Y2.6529 Z0.5314
X-0.0902 Y2.6508 Z0.5294
X-0.0874 Y2.6484 Z0.5279
X-0.0845 Y2.6459 Z0.527
X-0.0815 Y2.6434 Z0.5267
X1.0771 Y1.6536
G3 X1.3264 Y1.5536 I0.2728 J0.3193
X1.6183 Y1.339 I1.6104 J1.885
G2 X1.5088 Y0.9938 I-0.0995 J-0.1584
G3 X1.4225 Y0.993 I-0.0369 J-0.6931
X1.3728 Y0.9876 I0.0494 J-0.6923 F18.75
G2 X1.3622 Y0.9969 I-0.0013 J0.0092
G3 X1.3269 Y1.2233 I-0.694 J0.0078 F75
X1.3095 Y1.2701 I-0.6587 J-0.2186 F18.75
G2 X1.3162 Y1.2797 I0.0064 J0.0027
G3 X1.5456 Y1.3071 I0.0337 J0.6932 F75
X1.593 Y1.3229 I-0.1957 J0.6658 F18.75
G1 X1.5947 Y1.3231
X1.5964 Y1.3229
X1.5979 Y1.3222
X1.5991 Y1.321
X1.5998 Y1.3195
X1.6 Y1.3178
X1.5996 Y1.3162
G2 X1.5862 Y1.2848 I-0.6122 J0.2434 F75
G3 X1.5728 Y1.2535 I0.5988 J-0.2747
X1.5374 Y1.1302 I0.6017 J-0.2393
X1.5274 Y1.0524 I0.7378 J-0.1343
X1.5253 Y1.0025 I0.7478 J-0.0565 F18.75
G2 X1.5155 Y0.9934 I-0.0092 J0.0001
G1 X1.5088 Y0.9938 F75
G3 X1.3883 Y0.9162 I-0.0065 J-0.1222
G2 X1.2858 Y0.8162 I-0.1614 J0.063
G3 X1.2061 Y0.78 I0.1861 J-0.5155
X1.1635 Y0.7538 I0.2658 J-0.4793 F18.75
G1 X1.1622 Y0.7532
X1.1608 Y0.7531
X1.1594 Y0.7536
X1.1583 Y0.7546
X1.1577 Y0.7558
X1.1575 Y0.7573
X1.1579 Y0.7587
X1.1588 Y0.7604
X1.1597 Y0.7621
G3 X1.0887 Y1.3589 I-0.494 J0.2439 F75
G1 X0.7944 Y1.7059
X0.7621 Y1.744 F18.75
X0.7613 Y1.7453
X0.7611 Y1.7467
X0.7615 Y1.7482
X0.7623 Y1.7494
X0.7635 Y1.7502
X0.7649 Y1.7505
X0.7664 Y1.7503
X0.7676 Y1.7496
G2 X0.8802 Y1.6522 I-7.993 J-9.3564 F75
G3 X0.9928 Y1.5549 I8.1056 J9.259
X1.8726 Y1.8026 I0.3571 J0.418
G1 X1.9835 Y2.1477
X1.9988 Y2.1954 F18.75
X1.9995 Y2.1967
X2.0006 Y2.1977
X2.0021 Y2.1982
X2.0036 Y2.1983
X2.005 Y2.1978
X2.0062 Y2.1968
X2.0069 Y2.1955
X2.0072 Y2.194
X2.007 Y1.9533 F75
G2 X2.0042 Y1.9384 I-0.0403 J0
G1 X1.7085 Y1.1995
G3 X1.6888 Y0.8535 I0.5096 J-0.2026
X1.6958 Y0.8303 I0.3753 J0.1011 F18.75
G2 X1.7028 Y0.8071 I-0.3684 J-0.1243
G1 X1.703 Y0.8054
X1.7026 Y0.8038
X1.7018 Y0.8023
X1.7005 Y0.8012
X1.6989 Y0.8006
X1.6973 Y0.8005
X1.6957 Y0.8009
G3 X1.2858 Y0.8161 I-0.2238 J-0.5002 F75
G1 X1.2821 Y0.8151 Z0.5273
X1.2782 Y0.8147 Z0.5279
X1.2747 Y0.8148 Z0.5297
X1.2713 Y0.8154 Z0.5314
X1.2687 Y0.8162 Z0.5342
X1.2661 Y0.8173 Z0.537
X1.2631 Y0.8191 Z0.5439
X1.2621 Y0.8198 Z0.5517
G0 Z1.24
X-0.1204 Y2.6766
G1 Z0.5517 F15
X-0.1202 Y2.6764 Z0.5478 F75
X-0.1195 Y2.6758 Z0.5439
X-0.1183 Y2.6748 Z0.5403
X-0.1168 Y2.6735 Z0.537
X-0.1148 Y2.6718 Z0.534
X-0.1126 Y2.6699 Z0.5314
X-0.11 Y2.6677 Z0.5294
X-0.1073 Y2.6654 Z0.5279
X-0.1044 Y2.6629 Z0.527
X-0.1014 Y2.6604 Z0.5267
X-0.0808 Y2.6428
X1.0771 Y1.6536
G3 X1.7492 Y1.8428 I0.2728 J0.3193
G1 X2.1204 Y2.9817
X2.1359 Y3.0293 F18.75
X2.1351 Y1.9363 F75
G2 X2.1294 Y1.9068 I-0.08 J0.0001
G1 X1.8291 Y1.1516
G3 X1.8138 Y0.8872 I0.3903 J-0.1552
G1 X1.9912 Y0.2282
X2.0042 Y0.1799 F18.75
X1.8464 Y0.4908 F75
G3 X1.1594 Y0.5813 I-0.3745 J-0.1901
G1 X0.7751 Y0.1535
X0.7417 Y0.1163 F18.75
Y0.1549 F75
Y0.2049 F18.75
X1.0448 Y0.8188 F75
G3 X0.9894 Y1.2753 I-0.3766 J0.1859
G1 X-0.0807 Y2.5458
X-0.082 Y2.5476
X-0.0829 Y2.5497
X-0.0835 Y2.5519
X-0.1014 Y2.6643
G2 X-0.081 Y2.6757 I0.0123 J0.002
G1 X1.0933 Y1.6726
G3 X1.7255 Y1.8505 I0.2566 J0.3003
G1 X2.0984 Y2.9951
X2.1525 Y3.161
X2.1528 Y3.1615 Z0.5268
X2.1532 Y3.162 Z0.5271
X2.1536 Y3.1622 Z0.5275
X2.1538 Y3.1623 Z0.5281
X2.1539 Z0.5287
Z0.9083
X1.7342 Y1.4847
X1.7337 Y1.4836 Z0.9008 F13.333
X1.732 Y1.4807 Z0.8939
X1.7291 Y1.4762 Z0.8884
X1.7253 Y1.4707 Z0.8848
X1.7206 Y1.4648 Z0.8833
G2 X1.5392 Y1.618 Z0.8703 I-0.0907 J0.0766
X1.7206 Y1.4648 Z0.8573 I0.0907 J-0.0766
X1.5392 Y1.618 Z0.8443 I-0.0907 J0.0766
X1.7206 Y1.4648 Z0.8312 I0.0907 J-0.0766
X1.5392 Y1.618 Z0.8182 I-0.0907 J0.0766
X1.7206 Y1.4648 Z0.8052 I0.0907 J-0.0766
X1.5392 Y1.618 Z0.7921 I-0.0907 J0.0766
X1.7206 Y1.4648 Z0.7791 I0.0907 J-0.0766
X1.5392 Y1.618 Z0.7661 I-0.0907 J0.0766
X1.7206 Y1.4648 Z0.7531 I0.0907 J-0.0766
X1.5392 Y1.618 Z0.74 I-0.0907 J0.0766
X1.7206 Y1.4648 Z0.727 I0.0907 J-0.0766
X1.5392 Y1.618 Z0.714 I-0.0907 J0.0766
X1.7206 Y1.4648 Z0.7009 I0.0907 J-0.0766
X1.5392 Y1.618 Z0.6879 I-0.0907 J0.0766
X1.7206 Y1.4648 Z0.6749 I0.0907 J-0.0766
X1.5392 Y1.618 Z0.6619 I-0.0907 J0.0766
X1.7206 Y1.4648 Z0.6488 I0.0907 J-0.0766
X1.5392 Y1.618 Z0.6358 I-0.0907 J0.0766
X1.7206 Y1.4648 Z0.6228 I0.0907 J-0.0766
X1.5392 Y1.618 Z0.6098 I-0.0907 J0.0766
X1.7206 Y1.4648 Z0.5967 I0.0907 J-0.0766
X1.5392 Y1.618 Z0.5837 I-0.0907 J0.0766
X1.7206 Y1.4648 Z0.5707 I0.0907 J-0.0766
X1.5392 Y1.618 Z0.5576 I-0.0907 J0.0766
X1.7206 Y1.4648 Z0.5446 I0.0907 J-0.0766
X1.5392 Y1.618 Z0.5316 I-0.0907 J0.0766
X1.6669 Y1.6542 Z0.5267 I0.0907 J-0.0766
G1 X2.1454 Y3.113 F75
X2.161 Y3.1606 F18.75
X2.1601 Y1.9363 F75
G2 X2.1526 Y1.8976 I-0.105 J0.0001
G1 X1.8524 Y1.1423
G3 X1.838 Y0.8937 I0.367 J-0.1459
G1 X2.078 Y0.0022
X2.091 Y-0.0461 F18.75
X2.0139 Y0.1057 F75
X1.8241 Y0.4795
G3 X1.178 Y0.5646 I-0.3522 J-0.1788
G1 X0.7501 Y0.0882
X0.7167 Y0.051 F18.75
Y0.1608 F75
Y0.2108 F18.75
X1.0224 Y0.8299 F75
G3 X0.9703 Y1.2592 I-0.3542 J0.1748
G1 X-0.0809 Y2.5072
X-0.0821 Y2.5089
X-0.083 Y2.5109
X-0.1394 Y2.662
G2 X-0.1195 Y2.6759 I0.0117 J0.0044
G1 X-0.1166 Y2.6733 Z0.5264
X-0.1137 Y2.6708 Z0.5254
X-0.1109 Y2.6685 Z0.5239
X-0.1084 Y2.6663 Z0.5219
X-0.1061 Y2.6644 Z0.5193
X-0.1042 Y2.6627 Z0.5164
X-0.1026 Y2.6614 Z0.513
X-0.1015 Y2.6604 Z0.5094
X-0.1008 Y2.6598 Z0.5056
X-0.1005 Y2.6596 Z0.5017
Z0.295
X-0.1003 Y2.6594 Z0.2911
X-0.0996 Y2.6588 Z0.2873
X-0.0985 Y2.6579 Z0.2837
X-0.0969 Y2.6565 Z0.2803
X-0.095 Y2.6549 Z0.2773
X-0.0927 Y2.6529 Z0.2748
X-0.0902 Y2.6508 Z0.2727
X-0.0874 Y2.6484 Z0.2712
X-0.0845 Y2.6459 Z0.2703
X-0.0815 Y2.6434 Z0.27
X1.0771 Y1.6536
G3 X1.3264 Y1.5536 I0.2728 J0.3193
X1.6183 Y1.339 I1.6104 J1.885
G2 X1.5088 Y0.9938 I-0.0995 J-0.1584
G3 X1.4225 Y0.993 I-0.0369 J-0.6931
X1.3728 Y0.9876 I0.0494 J-0.6923 F18.75
G2 X1.3622 Y0.9969 I-0.0013 J0.0092
G3 X1.3269 Y1.2233 I-0.694 J0.0078 F75
X1.3095 Y1.2701 I-0.6587 J-0.2186 F18.75
G2 X1.3162 Y1.2797 I0.0064 J0.0027
G3 X1.5456 Y1.3071 I0.0337 J0.6932 F75
X1.593 Y1.3229 I-0.1957 J0.6658 F18.75
G1 X1.5947 Y1.3231
X1.5964 Y1.3229
X1.5979 Y1.3222
X1.5991 Y1.321
X1.5998 Y1.3195
X1.6 Y1.3178
X1.5996 Y1.3162
G2 X1.5862 Y1.2848 I-0.6122 J0.2434 F75
G3 X1.5728 Y1.2535 I0.5988 J-0.2747
X1.5374 Y1.1302 I0.6017 J-0.2393
X1.5274 Y1.0524 I0.7378 J-0.1343
X1.5253 Y1.0025 I0.7478 J-0.0565 F18.75
G2 X1.5155 Y0.9934 I-0.0092 J0.0001
G1 X1.5088 Y0.9938 F75
G3 X1.3883 Y0.9162 I-0.0065 J-0.1222
G2 X1.2858 Y0.8162 I-0.1614 J0.063
G3 X1.2061 Y0.78 I0.1861 J-0.5155
X1.1635 Y0.7538 I0.2658 J-0.4793 F18.75
G1 X1.1622 Y0.7532
X1.1608 Y0.7531
X1.1594 Y0.7536
X1.1583 Y0.7546
X1.1577 Y0.7558
X1.1575 Y0.7573
X1.1579 Y0.7587
X1.1588 Y0.7604
X1.1597 Y0.7621
G3 X1.0887 Y1.3589 I-0.494 J0.2439 F75
G1 X0.7944 Y1.7059
X0.7621 Y1.744 F18.75
X0.7613 Y1.7453
X0.7611 Y1.7467
X0.7615 Y1.7482
X0.7623 Y1.7494
X0.7635 Y1.7502
X0.7649 Y1.7505
X0.7664 Y1.7503
X0.7676 Y1.7496
G2 X0.8802 Y1.6522 I-7.993 J-9.3564 F75
G3 X0.9928 Y1.5549 I8.1056 J9.259
X1.8726 Y1.8026 I0.3571 J0.418
G1 X1.9835 Y2.1477
X1.9988 Y2.1954 F18.75
X1.9995 Y2.1967
X2.0006 Y2.1977
X2.0021 Y2.1982
X2.0036 Y2.1983
X2.005 Y2.1978
X2.0062 Y2.1968
X2.0069 Y2.1955
X2.0072 Y2.194
X2.007 Y1.9533 F75
G2 X2.0042 Y1.9384 I-0.0403 J0
G1 X1.7085 Y1.1995
G3 X1.6888 Y0.8535 I0.5096 J-0.2026
X1.6958 Y0.8303 I0.3753 J0.1011 F18.75
G2 X1.7028 Y0.8071 I-0.3684 J-0.1243
G1 X1.703 Y0.8054
X1.7026 Y0.8038
X1.7018 Y0.8023
X1.7005 Y0.8012
X1.6989 Y0.8006
X1.6973 Y0.8005
X1.6957 Y0.8009
G3 X1.2858 Y0.8161 I-0.2238 J-0.5002 F75
G1 X1.2821 Y0.8151 Z0.2706
X1.2782 Y0.8147 Z0.2712
X1.2747 Y0.8148 Z0.273
X1.2713 Y0.8154 Z0.2748
X1.2687 Y0.8162 Z0.2775
X1.2661 Y0.8173 Z0.2803
X1.2631 Y0.8191 Z0.2873
X1.2621 Y0.8198 Z0.295
G0 Z1.24
X-0.1204 Y2.6766
G1 Z0.295 F15
X-0.1202 Y2.6764 Z0.2911 F75
X-0.1195 Y2.6758 Z0.2873
X-0.1183 Y2.6748 Z0.2837
X-0.1168 Y2.6735 Z0.2803
X-0.1148 Y2.6718 Z0.2773
X-0.1126 Y2.6699 Z0.2748
X-0.11 Y2.6677 Z0.2727
X-0.1073 Y2.6654 Z0.2712
X-0.1044 Y2.6629 Z0.2703
X-0.1014 Y2.6604 Z0.27
X-0.0808 Y2.6428
X1.0771 Y1.6536
G3 X1.7492 Y1.8428 I0.2728 J0.3193
G1 X2.1204 Y2.9817
X2.1359 Y3.0293 F18.75
X2.1351 Y1.9363 F75
G2 X2.1294 Y1.9068 I-0.08 J0.0001
G1 X1.8291 Y1.1516
G3 X1.8138 Y0.8872 I0.3903 J-0.1552
G1 X1.9912 Y0.2282
X2.0042 Y0.1799 F18.75
X1.8464 Y0.4908 F75
G3 X1.1594 Y0.5813 I-0.3745 J-0.1901
G1 X0.7751 Y0.1535
X0.7417 Y0.1163 F18.75
Y0.1549 F75
Y0.2049 F18.75
X1.0448 Y0.8188 F75
G3 X0.9894 Y1.2753 I-0.3766 J0.1859
G1 X-0.0807 Y2.5458
X-0.082 Y2.5476
X-0.0829 Y2.5497
X-0.0835 Y2.5519
X-0.1014 Y2.6643
G2 X-0.081 Y2.6757 I0.0123 J0.002
G1 X1.0933 Y1.6726
G3 X1.7255 Y1.8505 I0.2566 J0.3003
G1 X2.0984 Y2.9951
X2.1525 Y3.161
X2.1528 Y3.1615 Z0.2701
X2.1532 Y3.162 Z0.2704
X2.1536 Y3.1622 Z0.2708
X2.1538 Y3.1623 Z0.2714
X2.1539 Z0.2721
Z0.6517
X1.7342 Y1.4847
X1.7337 Y1.4836 Z0.6441 F13.333
X1.732 Y1.4807 Z0.6372
X1.7291 Y1.4762 Z0.6317
X1.7253 Y1.4707 Z0.6281
X1.7206 Y1.4648 Z0.6267
G2 X1.5392 Y1.618 Z0.6136 I-0.0907 J0.0766
X1.7206 Y1.4648 Z0.6006 I0.0907 J-0.0766
X1.5392 Y1.618 Z0.5876 I-0.0907 J0.0766
X1.7206 Y1.4648 Z0.5746 I0.0907 J-0.0766
X1.5392 Y1.618 Z0.5615 I-0.0907 J0.0766
X1.7206 Y1.4648 Z0.5485 I0.0907 J-0.0766
X1.5392 Y1.618 Z0.5355 I-0.0907 J0.0766
X1.7206 Y1.4648 Z0.5224 I0.0907 J-0.0766
X1.5392 Y1.618 Z0.5094 I-0.0907 J0.0766
X1.7206 Y1.4648 Z0.4964 I0.0907 J-0.0766
X1.5392 Y1.618 Z0.4834 I-0.0907 J0.0766
X1.7206 Y1.4648 Z0.4703 I0.0907 J-0.0766
X1.5392 Y1.618 Z0.4573 I-0.0907 J0.0766
X1.7206 Y1.4648 Z0.4443 I0.0907 J-0.0766
X1.5392 Y1.618 Z0.4313 I-0.0907 J0.0766
X1.7206 Y1.4648 Z0.4182 I0.0907 J-0.0766
X1.5392 Y1.618 Z0.4052 I-0.0907 J0.0766
X1.7206 Y1.4648 Z0.3922 I0.0907 J-0.0766
X1.5392 Y1.618 Z0.3791 I-0.0907 J0.0766
X1.7206 Y1.4648 Z0.3661 I0.0907 J-0.0766
X1.5392 Y1.618 Z0.3531 I-0.0907 J0.0766
X1.7206 Y1.4648 Z0.3401 I0.0907 J-0.0766
X1.5392 Y1.618 Z0.327 I-0.0907 J0.0766
X1.7206 Y1.4648 Z0.314 I0.0907 J-0.0766
X1.5392 Y1.618 Z0.301 I-0.0907 J0.0766
X1.7206 Y1.4648 Z0.2879 I0.0907 J-0.0766
X1.5392 Y1.618 Z0.2749 I-0.0907 J0.0766
X1.6669 Y1.6542 Z0.27 I0.0907 J-0.0766
G1 X2.1454 Y3.113 F75
X2.161 Y3.1606 F18.75
X2.1601 Y1.9363 F75
G2 X2.1526 Y1.8976 I-0.105 J0.0001
G1 X1.8524 Y1.1423
G3 X1.838 Y0.8937 I0.367 J-0.1459
G1 X2.078 Y0.0022
X2.091 Y-0.0461 F18.75
X2.0139 Y0.1057 F75
X1.8241 Y0.4795
G3 X1.178 Y0.5646 I-0.3522 J-0.1788
G1 X0.7501 Y0.0882
X0.7167 Y0.051 F18.75
Y0.1608 F75
Y0.2108 F18.75
X1.0224 Y0.8299 F75
G3 X0.9703 Y1.2592 I-0.3542 J0.1748
G1 X-0.0809 Y2.5072
X-0.0831 Y2.5104
X-0.0887 Y2.5196
X-0.0907 Y2.5229 Z0.2703
X-0.0927 Y2.5262 Z0.2712
X-0.0946 Y2.5293 Z0.2727
X-0.0963 Y2.5322 Z0.2748
X-0.0978 Y2.5347 Z0.2773
X-0.0991 Y2.5369 Z0.2803
X-0.1002 Y2.5386 Z0.2837
X-0.101 Y2.5399 Z0.2873
X-0.1015 Y2.5407 Z0.2911
X-0.1016 Y2.541 Z0.295
G0 Z1.64
X5.1296 Y3.2004
Z1.24
G1 Z0.8083 F15
X5.1294 Y3.2002 Z0.8044 F75
X5.1287 Y3.1995 Z0.8006
X5.1277 Y3.1985 Z0.797
X5.1263 Y3.197 Z0.7936
X5.1245 Y3.1952 Z0.7907
X5.1224 Y3.193 Z0.7881
X5.1201 Y3.1906 Z0.7861
X5.1175 Y3.188 Z0.7846
X5.1149 Y3.1853 Z0.7836
X5.1121 Y3.1825 Z0.7833
X5.0911 Y3.1609
G3 X4.9832 Y3.0492 I12.2037 J-11.8974
G2 X4.8976 Y2.9604 I-12.3116 J11.7858
X4.8627 Y2.9246 I-12.226 J11.8746 F18.75
G1 X4.8615 Y2.9238
X4.8601 Y2.9234
X4.8587 Y2.9236
X4.8575 Y2.9243
X4.8565 Y2.9254
X4.8561 Y2.9268
X4.8562 Y2.9282
X4.8568 Y2.9295
X5.0214 Y3.1607 F75
X5.022 Y3.1615
X5.0242 Y3.1647 Z0.7836
X5.0264 Y3.1678 Z0.7846
X5.0285 Y3.1707 Z0.7861
X5.0305 Y3.1734 Z0.7881
X5.0322 Y3.1759 Z0.7907
X5.0337 Y3.178 Z0.7936
X5.0349 Y3.1796 Z0.797
X5.0357 Y3.1808 Z0.8006
X5.0363 Y3.1816 Z0.8044
X5.0365 Y3.1818 Z0.8083
G0 Z1.24
X3.184 Y3.1817
G1 Z1.0794 F15
Z0.8083 F75
X3.1842 Y3.1814 Z0.8044
X3.1847 Y3.1807 Z0.8006
X3.1856 Y3.1795 Z0.797
X3.1868 Y3.1778 Z0.7936
X3.1883 Y3.1758 Z0.7907
X3.1901 Y3.1734 Z0.7881
X3.1921 Y3.1707 Z0.7861
X3.1942 Y3.1677 Z0.7846
X3.1964 Y3.1646 Z0.7836
X3.1987 Y3.1615 Z0.7833
X3.3602 Y2.9399
X3.8208 Y2.3075
G3 X3.8471 Y2.2766 I0.2183 J0.159
G2 X3.7698 Y2.0951 I-0.0928 J-0.0677
G3 X3.7347 Y1.9009 I0.0141 J-0.1028
X3.7529 Y1.8915 I0.3044 J0.5656 F18.75
G1 X3.7543 Y1.8904
X3.7553 Y1.889
X3.7558 Y1.8872
X3.7556 Y1.8854
X3.7548 Y1.8838
X3.7535 Y1.8826
X3.7519 Y1.8818
X3.6602 Y1.8578 F75
X3.6119 Y1.8451 F18.75
G2 X3.5979 Y1.8543 I-0.0029 J0.0108
G1 X3.5838 Y1.9575 F75
X3.577 Y2.0071 F18.75
G2 X3.5857 Y2.0114 I0.0051 J0.0007
G3 X3.7346 Y1.9008 I0.4534 J0.4551 F75
X3.828 Y1.9122 I0.0386 J0.0716
G2 X3.9185 Y1.9361 I0.0682 J-0.0749
G3 X3.9691 Y1.9271 I0.122 J0.5415
G2 X3.9798 Y1.9155 I-0.0016 J-0.0122
G3 X3.9816 Y1.8877 I0.6932 J0.0314
X3.9877 Y1.8381 I0.6914 J0.0592 F18.75
G2 X3.9794 Y1.8276 I-0.009 J-0.0014
G3 X3.7993 Y1.7961 I0.0652 J-0.9039 F75
G2 X3.623 Y1.7482 I-2.7527 J9.7894
G3 X3.5757 Y1.733 I0.1169 J-0.4463
X3.5296 Y1.7145 I0.501 J-1.3159 F18.75
G2 X3.517 Y1.7217 I-0.0035 J0.0085
G1 X3.4344 Y2.3178 F75
X3.4276 Y2.3673 F18.75
Y2.3689
X3.4282 Y2.3704
X3.4292 Y2.3716
X3.4306 Y2.3724
X3.4321 Y2.3728
X3.4337 Y2.3726
X3.4351 Y2.3719
X3.4363 Y2.3708
G2 X3.5173 Y2.2581 I-8.6488 J-6.3001 F75
G3 X3.5983 Y2.1454 I8.7493 J6.2014
X3.7613 Y1.9983 I0.432 J0.3147
X3.9186 Y1.9365 I0.2792 J0.4793
X4.0209 Y1.9752 I0.0218 J0.097
G2 X4.1257 Y1.9418 I0.0469 J-0.0339
G3 X4.1807 Y1.7078 I0.5473 J0.0051
X4.2045 Y1.6639 I0.4923 J0.2391 F18.75
G1 X4.2049 Y1.6622
X4.205 Y1.6604
X4.2044 Y1.6587
X4.2033 Y1.6574
X4.2018 Y1.6564
X4.2001 Y1.6561
X4.1984 Y1.6563
G3 X4.045 Y1.6837 I-0.1761 J-0.5424 F75
X3.8902 Y1.6669 I-0.021 J-0.5278
G1 X3.66 Y1.6066
G3 X3.5108 Y1.5417 I0.1343 J-0.5126
X3.4217 Y1.472 I0.304 J-0.4801
X3.3872 Y1.4359 I0.3931 J-0.4104 F18.75
G1 X3.3859 Y1.4348
X3.3844 Y1.4342
X3.3827
X3.3811 Y1.4346
X3.3798 Y1.4356
X3.3788 Y1.4369
X3.3783 Y1.4385
Y1.4401
G3 X3.3889 Y1.5301 I-0.7036 J0.1283 F75
X3.3851 Y1.6206 I-0.4748 J0.0254
G1 X3.2104 Y2.8738
X3.2034 Y2.9233 F18.75
X3.2035 Y2.9249
X3.204 Y2.9263
X3.205 Y2.9275
X3.2064 Y2.9283
X3.2079 Y2.9287
X3.2094 Y2.9285
X3.2108 Y2.9278
X3.2119 Y2.9267
X3.7163 Y2.2314 F75
G3 X3.901 Y2.0927 I0.3186 J0.232
X4.0823 Y2.0712 I0.1368 J0.3789
X4.1315 Y2.0798 I-0.0445 J0.4004 F18.75
G2 X4.1398 Y2.0716 I0.0016 J-0.0067
G3 X4.1254 Y1.9418 I0.5332 J-0.1247 F75
G1 X4.1257 Y1.9394
X4.1265 Y1.937
X4.1277 Y1.9348
X4.6501 Y1.178
X4.6517 Y1.1761
X4.6527 Y1.1751
G2 X4.6591 Y1.1625 I-0.0155 J-0.0158
G1 X4.7147 Y0.785
X4.7219 Y0.7356 F18.75
X4.722 Y0.7342
X4.7218 Y0.7329
X4.7175 Y0.7162
X4.7169 Y0.7148
X4.7159 Y0.7137
X4.7145 Y0.713
X4.713 Y0.7127
X4.7114 Y0.713
X4.7101 Y0.7137
X4.709 Y0.7149
X4.7084 Y0.7163
X4.6016 Y1.1746 F75
X4.5903 Y1.2233 F18.75
X4.5902 Y1.2249
X4.5906 Y1.2264
X4.5914 Y1.2277
X4.5927 Y1.2287
X4.5942 Y1.2293
X4.5958
X4.5973 Y1.2289
X4.5986 Y1.228
X4.6517 Y1.1761 F75
X4.6527 Y1.1751 Z0.7834
X4.6544 Y1.1732 Z0.7839
X4.6559 Y1.1712 Z0.7845
X4.6571 Y1.1689 Z0.785
X4.6584 Y1.1658 Z0.787
X4.6591 Y1.1625 Z0.789
X4.6595 Y1.1599 Z0.7915
X4.6598 Y1.1576 Z0.7944
X4.6601 Y1.1558 Z0.7976
X4.6603 Y1.1545 Z0.8011
X4.6604 Y1.1537 Z0.8047
Y1.1534 Z0.8083
G0 Z1.24
X5.3739 Y3.2004
G1 Z0.8083 F15
X5.3736 Y3.2003 Z0.8044 F75
X5.3728 Y3.1999 Z0.8006
X5.3715 Y3.1991 Z0.797
X5.3697 Y3.1982 Z0.7936
X5.3674 Y3.197 Z0.7907
X5.3648 Y3.1956 Z0.7881
X5.3618 Y3.194 Z0.7861
X5.3586 Y3.1923 Z0.7846
X5.3553 Y3.1905 Z0.7836
X5.3518 Y3.1887 Z0.7833
X5.2994 Y3.1608
G3 X5.1962 Y3.0835 I0.1973 J-0.3708
G1 X4.3726 Y2.2404
G3 X4.3795 Y1.6465 I0.3004 J-0.2935
G1 X4.7762 Y1.2589
G2 X4.7994 Y1.2133 I-0.0559 J-0.0572
G1 X4.8687 Y0.7424
G2 X4.8671 Y0.711 I-0.0791 J-0.0117
G1 X4.7187 Y0.1294
X4.7064 Y0.081 F18.75
X4.4384 Y1.2309 F75
G3 X3.9229 Y1.5419 I-0.4091 J-0.0954
G1 X3.6928 Y1.4815
G3 X3.4048 Y1.2196 I0.1064 J-0.4063
G1 X3.031 Y0.1985
X3.0138 Y0.1515 F18.75
X3.2541 Y1.4701 F75
G3 X3.257 Y1.6029 I-0.4132 J0.0754
G1 X3.0419 Y3.1608
G2 X3.0551 Y3.1751 I0.0124 J0.0018
G1 X3.1901 Y3.1658
G2 X3.1993 Y3.1607 I-0.0009 J-0.0125
G1 X3.3602 Y2.9399
X3.8208 Y2.3075
G3 X4.2591 Y2.3098 I0.2183 J0.159
G1 X4.7087 Y2.9414
X4.865 Y3.161
G2 X4.8747 Y3.1662 I0.0102 J-0.0073
G1 X5.356 Y3.1851
G2 X5.3608 Y3.1609 I0.0005 J-0.0125
G3 X5.2141 Y3.066 I0.1359 J-0.3709
G1 X4.3905 Y2.223
G3 X4.3969 Y1.6644 I0.2825 J-0.2761
G1 X4.7937 Y1.2768
G2 X4.8242 Y1.217 I-0.0734 J-0.0751
G1 X4.8935 Y0.746
G2 X4.8914 Y0.7048 I-0.1039 J-0.0153
G1 X4.7309 Y0.0758
X4.7176 Y0.024
X4.7053 Y-0.0245 F18.75
X4.414 Y1.2252 F75
G3 X3.9292 Y1.5176 I-0.3847 J-0.0897
G1 X3.6991 Y1.4574
G3 X3.4282 Y1.2111 I0.1001 J-0.3822
G1 X2.9553 Y-0.0809
X2.955 Y-0.0815 Z0.7834
X2.9546 Y-0.0819 Z0.7838
X2.9542 Y-0.0822 Z0.7842
X2.9539 Y-0.0823 Z0.7848
X2.9538 Z0.7855
G0 Z1.24
X3.3938 Y1.552
G1 Z1.165 F15
X3.3944 Y1.553 Z1.1574 F13.333
X3.3961 Y1.556 Z1.1506
X3.399 Y1.5604 Z1.1451
X3.403 Y1.5658 Z1.1414
X3.4078 Y1.5716 Z1.14
G2 X3.5862 Y1.4148 Z1.127 I0.0892 J-0.0784
X3.4078 Y1.5716 Z1.1139 I-0.0892 J0.0784
X3.5862 Y1.4148 Z1.1009 I0.0892 J-0.0784
X3.4078 Y1.5716 Z1.0879 I-0.0892 J0.0784
X3.5862 Y1.4148 Z1.0749 I0.0892 J-0.0784
X3.4078 Y1.5716 Z1.0618 I-0.0892 J0.0784
X3.5862 Y1.4148 Z1.0488 I0.0892 J-0.0784
X3.4078 Y1.5716 Z1.0358 I-0.0892 J0.0784
X3.5862 Y1.4148 Z1.0228 I0.0892 J-0.0784
X3.4078 Y1.5716 Z1.0097 I-0.0892 J0.0784
X3.5862 Y1.4148 Z0.9967 I0.0892 J-0.0784
X3.4078 Y1.5716 Z0.9837 I-0.0892 J0.0784
X3.5862 Y1.4148 Z0.9706 I0.0892 J-0.0784
X3.4078 Y1.5716 Z0.9576 I-0.0892 J0.0784
X3.5862 Y1.4148 Z0.9446 I0.0892 J-0.0784
X3.4078 Y1.5716 Z0.9316 I-0.0892 J0.0784
X3.5862 Y1.4148 Z0.9185 I0.0892 J-0.0784
X3.4078 Y1.5716 Z0.9055 I-0.0892 J0.0784
X3.5862 Y1.4148 Z0.8925 I0.0892 J-0.0784
X3.4078 Y1.5716 Z0.8794 I-0.0892 J0.0784
X3.5862 Y1.4148 Z0.8664 I0.0892 J-0.0784
X3.4078 Y1.5716 Z0.8534 I-0.0892 J0.0784
X3.5862 Y1.4148 Z0.8404 I0.0892 J-0.0784
X3.4078 Y1.5716 Z0.8273 I-0.0892 J0.0784
X3.5862 Y1.4148 Z0.8143 I0.0892 J-0.0784
X3.4078 Y1.5716 Z0.8013 I-0.0892 J0.0784
X3.5862 Y1.4148 Z0.7883 I0.0892 J-0.0784
X3.4577 Y1.3811 Z0.7833 I-0.0892 J0.0784
G1 X2.9625 Y-0.0337 F75
X2.946 Y-0.0809 F18.75
X3.2295 Y1.4746 F75
G3 X3.2322 Y1.5995 I-0.3886 J0.0709
G1 X3.0306 Y3.0598
X3.0167 Y3.1608
G2 X3.0296 Y3.1749 I0.0123 J0.0017
G1 X3.2207 Y3.1659
G2 X3.2302 Y3.1608 I-0.0006 J-0.0125
G1 X3.3804 Y2.9546
X3.841 Y2.3222
G3 X4.2387 Y2.3243 I0.1981 J0.1443
G1 X4.6883 Y2.9559
X4.8342 Y3.1607
X4.8357 Y3.1625
X4.8376 Y3.164
X4.8397 Y3.1651
X4.842 Y3.1657
X5.1153 Y3.2184
G2 X5.1267 Y3.1974 I0.0024 J-0.0123
G1 X5.1239 Y3.1946 Z0.783
X5.1213 Y3.1919 Z0.7821
X5.1187 Y3.1893 Z0.7806
X5.1164 Y3.1869 Z0.7786
X5.1143 Y3.1847 Z0.776
X5.1125 Y3.1829 Z0.773
X5.1111 Y3.1814 Z0.7697
X5.1101 Y3.1804 Z0.7661
X5.1094 Y3.1797 Z0.7622
X5.1092 Y3.1795 Z0.7583
Z0.5517
X5.109 Y3.1793 Z0.5478
X5.1084 Y3.1786 Z0.5439
X5.1073 Y3.1775 Z0.5403
X5.1059 Y3.1761 Z0.537
X5.1041 Y3.1743 Z0.534
X5.102 Y3.1721 Z0.5314
X5.0997 Y3.1697 Z0.5294
X5.0971 Y3.1671 Z0.5279
X5.0945 Y3.1644 Z0.527
X5.0918 Y3.1616 Z0.5267
X5.0911 Y3.1609
G3 X4.9832 Y3.0492 I12.2037 J-11.8974
G2 X4.8976 Y2.9604 I-12.3116 J11.7858
X4.8627 Y2.9246 I-12.226 J11.8746 F18.75
G1 X4.8615 Y2.9238
X4.8601 Y2.9234
X4.8587 Y2.9236
X4.8575 Y2.9243
X4.8565 Y2.9254
X4.8561 Y2.9268
X4.8562 Y2.9282
X4.8568 Y2.9295
X5.0214 Y3.1607 F75
X5.022 Y3.1615
X5.0242 Y3.1647 Z0.527
X5.0264 Y3.1678 Z0.5279
X5.0285 Y3.1707 Z0.5294
X5.0305 Y3.1734 Z0.5314
X5.0322 Y3.1759 Z0.534
X5.0337 Y3.178 Z0.537
X5.0349 Y3.1796 Z0.5403
X5.0357 Y3.1808 Z0.5439
X5.0363 Y3.1816 Z0.5478
X5.0365 Y3.1818 Z0.5517
G0 Z1.24
X3.184 Y3.1817
G1 Z0.8227 F15
Z0.5517 F75
X3.1842 Y3.1814 Z0.5478
X3.1847 Y3.1807 Z0.5439
X3.1856 Y3.1795 Z0.5403
X3.1868 Y3.1778 Z0.537
X3.1883 Y3.1758 Z0.534
X3.1901 Y3.1734 Z0.5314
X3.1921 Y3.1707 Z0.5294
X3.1942 Y3.1677 Z0.5279
X3.1964 Y3.1646 Z0.527
X3.1987 Y3.1615 Z0.5267
X3.3602 Y2.9399
X3.8208 Y2.3075
G3 X3.8471 Y2.2766 I0.2183 J0.159
G2 X3.7698 Y2.0951 I-0.0928 J-0.0677
G3 X3.7347 Y1.9009 I0.0141 J-0.1028
X3.7529 Y1.8915 I0.3044 J0.5656 F18.75
G1 X3.7543 Y1.8904
X3.7553 Y1.889
X3.7558 Y1.8872
X3.7556 Y1.8854
X3.7548 Y1.8838
X3.7535 Y1.8826
X3.7519 Y1.8818
X3.6602 Y1.8578 F75
X3.6119 Y1.8451 F18.75
G2 X3.5979 Y1.8543 I-0.0029 J0.0108
G1 X3.5838 Y1.9575 F75
X3.577 Y2.0071 F18.75
G2 X3.5857 Y2.0114 I0.0051 J0.0007
G3 X3.7346 Y1.9008 I0.4534 J0.4551 F75
X3.828 Y1.9122 I0.0386 J0.0716
G2 X3.9185 Y1.9361 I0.0682 J-0.0749
G3 X3.9691 Y1.9271 I0.122 J0.5415
G2 X3.9798 Y1.9155 I-0.0016 J-0.0122
G3 X3.9816 Y1.8877 I0.6932 J0.0314
X3.9877 Y1.8381 I0.6914 J0.0592 F18.75
G2 X3.9794 Y1.8276 I-0.009 J-0.0014
G3 X3.7993 Y1.7961 I0.0652 J-0.9039 F75
G2 X3.623 Y1.7482 I-2.7527 J9.7894
G3 X3.5757 Y1.733 I0.1169 J-0.4463
X3.5296 Y1.7145 I0.501 J-1.3159 F18.75
G2 X3.517 Y1.7217 I-0.0035 J0.0085
G1 X3.4344 Y2.3178 F75
X3.4276 Y2.3673 F18.75
Y2.3689
X3.4282 Y2.3704
X3.4292 Y2.3716
X3.4306 Y2.3724
X3.4321 Y2.3728
X3.4337 Y2.3726
X3.4351 Y2.3719
X3.4363 Y2.3708
G2 X3.5173 Y2.2581 I-8.6488 J-6.3001 F75
G3 X3.5983 Y2.1454 I8.7493 J6.2014
X3.7613 Y1.9983 I0.432 J0.3147
X3.9186 Y1.9365 I0.2792 J0.4793
X4.0209 Y1.9752 I0.0218 J0.097
G2 X4.1257 Y1.9418 I0.0469 J-0.0339
G3 X4.1807 Y1.7078 I0.5473 J0.0051
X4.2045 Y1.6639 I0.4923 J0.2391 F18.75
G1 X4.2049 Y1.6622
X4.205 Y1.6604
X4.2044 Y1.6587
X4.2033 Y1.6574
X4.2018 Y1.6564
X4.2001 Y1.6561
X4.1984 Y1.6563
G3 X4.045 Y1.6837 I-0.1761 J-0.5424 F75
X3.8902 Y1.6669 I-0.021 J-0.5278
G1 X3.66 Y1.6066
G3 X3.5108 Y1.5417 I0.1343 J-0.5126
X3.4217 Y1.472 I0.304 J-0.4801
X3.3872 Y1.4359 I0.3931 J-0.4104 F18.75
G1 X3.3859 Y1.4348
X3.3844 Y1.4342
X3.3827
X3.3811 Y1.4346
X3.3798 Y1.4356
X3.3788 Y1.4369
X3.3783 Y1.4385
Y1.4401
G3 X3.3889 Y1.5301 I-0.7036 J0.1283 F75
X3.3851 Y1.6206 I-0.4748 J0.0254
G1 X3.2104 Y2.8738
X3.2034 Y2.9233 F18.75
X3.2035 Y2.9249
X3.204 Y2.9263
X3.205 Y2.9275
X3.2064 Y2.9283
X3.2079 Y2.9287
X3.2094 Y2.9285
X3.2108 Y2.9278
X3.2119 Y2.9267
X3.7163 Y2.2314 F75
G3 X3.901 Y2.0927 I0.3186 J0.232
X4.0823 Y2.0712 I0.1368 J0.3789
X4.1315 Y2.0798 I-0.0445 J0.4004 F18.75
G2 X4.1398 Y2.0716 I0.0016 J-0.0067
G3 X4.1254 Y1.9418 I0.5332 J-0.1247 F75
G1 X4.1257 Y1.9394
X4.1265 Y1.937
X4.1277 Y1.9348
X4.6501 Y1.178
X4.6517 Y1.1761
X4.6527 Y1.1751
G2 X4.6591 Y1.1625 I-0.0155 J-0.0158
G1 X4.7147 Y0.785
X4.7219 Y0.7356 F18.75
X4.722 Y0.7342
X4.7218 Y0.7329
X4.7175 Y0.7162
X4.7169 Y0.7148
X4.7159 Y0.7137
X4.7145 Y0.713
X4.713 Y0.7127
X4.7114 Y0.713
X4.7101 Y0.7137
X4.709 Y0.7149
X4.7084 Y0.7163
X4.6016 Y1.1746 F75
X4.5903 Y1.2233 F18.75
X4.5902 Y1.2249
X4.5906 Y1.2264
X4.5914 Y1.2277
X4.5927 Y1.2287
X4.5942 Y1.2293
X4.5958
X4.5973 Y1.2289
X4.5986 Y1.228
X4.6517 Y1.1761 F75
X4.6527 Y1.1751
X4.6544 Y1.1732 Z0.5273
X4.6559 Y1.1712 Z0.5278
X4.6571 Y1.1689 Z0.5284
X4.6584 Y1.1658 Z0.5303
X4.6591 Y1.1625 Z0.5323
X4.6595 Y1.1599 Z0.5349
X4.6598 Y1.1576 Z0.5378
X4.6601 Y1.1558 Z0.541
X4.6603 Y1.1545 Z0.5444
X4.6604 Y1.1537 Z0.548
Y1.1534 Z0.5517
G0 Z1.24
X5.3739 Y3.2004
G1 Z0.5517 F15
X5.3736 Y3.2003 Z0.5478 F75
X5.3728 Y3.1999 Z0.5439
X5.3715 Y3.1991 Z0.5403
X5.3697 Y3.1982 Z0.537
X5.3674 Y3.197 Z0.534
X5.3648 Y3.1956 Z0.5314
X5.3618 Y3.194 Z0.5294
X5.3586 Y3.1923 Z0.5279
X5.3553 Y3.1905 Z0.527
X5.3518 Y3.1887 Z0.5267
X5.2994 Y3.1608
G3 X5.1962 Y3.0835 I0.1973 J-0.3708
G1 X4.3726 Y2.2404
G3 X4.3795 Y1.6465 I0.3004 J-0.2935
G1 X4.7762 Y1.2589
G2 X4.7994 Y1.2133 I-0.0559 J-0.0572
G1 X4.8687 Y0.7424
G2 X4.8671 Y0.711 I-0.0791 J-0.0117
G1 X4.7187 Y0.1294
X4.7064 Y0.081 F18.75
X4.4384 Y1.2309 F75
G3 X3.9229 Y1.5419 I-0.4091 J-0.0954
G1 X3.6928 Y1.4815
G3 X3.4048 Y1.2196 I0.1064 J-0.4063
G1 X3.031 Y0.1985
X3.0138 Y0.1515 F18.75
X3.2541 Y1.4701 F75
G3 X3.257 Y1.6029 I-0.4132 J0.0754
G1 X3.0419 Y3.1608
G2 X3.0551 Y3.1751 I0.0124 J0.0018
G1 X3.1901 Y3.1658
G2 X3.1993 Y3.1607 I-0.0009 J-0.0125
G1 X3.3602 Y2.9399
X3.8208 Y2.3075
G3 X4.2591 Y2.3098 I0.2183 J0.159
G1 X4.7087 Y2.9414
X4.865 Y3.161
G2 X4.8747 Y3.1662 I0.0102 J-0.0073
G1 X5.356 Y3.1851
G2 X5.3608 Y3.1609 I0.0005 J-0.0125
G3 X5.2141 Y3.066 I0.1359 J-0.3709
G1 X4.3905 Y2.223
G3 X4.3969 Y1.6644 I0.2825 J-0.2761
G1 X4.7937 Y1.2768
G2 X4.8242 Y1.217 I-0.0734 J-0.0751
G1 X4.8935 Y0.746
G2 X4.8914 Y0.7048 I-0.1039 J-0.0153
G1 X4.7309 Y0.0758
X4.7176 Y0.024
X4.7053 Y-0.0245 F18.75
X4.414 Y1.2252 F75
G3 X3.9292 Y1.5176 I-0.3847 J-0.0897
G1 X3.6991 Y1.4574
G3 X3.4282 Y1.2111 I0.1001 J-0.3822
G1 X2.9553 Y-0.0809
X2.955 Y-0.0815 Z0.5268
X2.9546 Y-0.0819 Z0.5271
X2.9542 Y-0.0822 Z0.5276
X2.9539 Y-0.0823 Z0.5282
X2.9538 Z0.5289
Z0.9083
X3.3938 Y1.552
X3.3944 Y1.553 Z0.9008 F13.333
X3.3961 Y1.556 Z0.8939
X3.399 Y1.5604 Z0.8884
X3.403 Y1.5658 Z0.8848
X3.4078 Y1.5716 Z0.8833
G2 X3.5862 Y1.4148 Z0.8703 I0.0892 J-0.0784
X3.4078 Y1.5716 Z0.8573 I-0.0892 J0.0784
X3.5862 Y1.4148 Z0.8443 I0.0892 J-0.0784
X3.4078 Y1.5716 Z0.8312 I-0.0892 J0.0784
X3.5862 Y1.4148 Z0.8182 I0.0892 J-0.0784
X3.4078 Y1.5716 Z0.8052 I-0.0892 J0.0784
X3.5862 Y1.4148 Z0.7921 I0.0892 J-0.0784
X3.4078 Y1.5716 Z0.7791 I-0.0892 J0.0784
X3.5862 Y1.4148 Z0.7661 I0.0892 J-0.0784
X3.4078 Y1.5716 Z0.7531 I-0.0892 J0.0784
X3.5862 Y1.4148 Z0.74 I0.0892 J-0.0784
X3.4078 Y1.5716 Z0.727 I-0.0892 J0.0784
X3.5862 Y1.4148 Z0.714 I0.0892 J-0.0784
X3.4078 Y1.5716 Z0.7009 I-0.0892 J0.0784
X3.5862 Y1.4148 Z0.6879 I0.0892 J-0.0784
X3.4078 Y1.5716 Z0.6749 I-0.0892 J0.0784
X3.5862 Y1.4148 Z0.6619 I0.0892 J-0.0784
X3.4078 Y1.5716 Z0.6488 I-0.0892 J0.0784
X3.5862 Y1.4148 Z0.6358 I0.0892 J-0.0784
X3.4078 Y1.5716 Z0.6228 I-0.0892 J0.0784
X3.5862 Y1.4148 Z0.6098 I0.0892 J-0.0784
X3.4078 Y1.5716 Z0.5967 I-0.0892 J0.0784
X3.5862 Y1.4148 Z0.5837 I0.0892 J-0.0784
X3.4078 Y1.5716 Z0.5707 I-0.0892 J0.0784
X3.5862 Y1.4148 Z0.5576 I0.0892 J-0.0784
X3.4078 Y1.5716 Z0.5446 I-0.0892 J0.0784
X3.5862 Y1.4148 Z0.5316 I0.0892 J-0.0784
X3.4577 Y1.3811 Z0.5267 I-0.0892 J0.0784
G1 X2.9625 Y-0.0337 F75
X2.946 Y-0.0809 F18.75
X3.2295 Y1.4746 F75
G3 X3.2322 Y1.5995 I-0.3886 J0.0709
G1 X3.0306 Y3.0598
X3.0167 Y3.1608
G2 X3.0296 Y3.1749 I0.0123 J0.0017
G1 X3.2207 Y3.1659
G2 X3.2302 Y3.1608 I-0.0006 J-0.0125
G1 X3.3804 Y2.9546
X3.841 Y2.3222
G3 X4.2387 Y2.3243 I0.1981 J0.1443
G1 X4.6883 Y2.9559
X4.8342 Y3.1607
X4.8357 Y3.1625
X4.8376 Y3.164
X4.8397 Y3.1651
X4.842 Y3.1657
X5.1153 Y3.2184
G2 X5.1267 Y3.1974 I0.0024 J-0.0123
G1 X5.1239 Y3.1946 Z0.5264
X5.1213 Y3.1919 Z0.5254
X5.1187 Y3.1893 Z0.5239
X5.1164 Y3.1869 Z0.5219
X5.1143 Y3.1847 Z0.5193
X5.1125 Y3.1829 Z0.5164
X5.1111 Y3.1814 Z0.513
X5.1101 Y3.1804 Z0.5094
X5.1094 Y3.1797 Z0.5056
X5.1092 Y3.1795 Z0.5017
Z0.295
X5.109 Y3.1793 Z0.2911
X5.1084 Y3.1786 Z0.2873
X5.1073 Y3.1775 Z0.2837
X5.1059 Y3.1761 Z0.2803
X5.1041 Y3.1743 Z0.2773
X5.102 Y3.1721 Z0.2748
X5.0997 Y3.1697 Z0.2727
X5.0971 Y3.1671 Z0.2712
X5.0945 Y3.1644 Z0.2703
X5.0918 Y3.1616 Z0.27
X5.0911 Y3.1609
G3 X4.9832 Y3.0492 I12.2037 J-11.8974
G2 X4.8976 Y2.9604 I-12.3116 J11.7858
X4.8627 Y2.9246 I-12.226 J11.8746 F18.75
G1 X4.8615 Y2.9238
X4.8601 Y2.9234
X4.8587 Y2.9236
X4.8575 Y2.9243
X4.8565 Y2.9254
X4.8561 Y2.9268
X4.8562 Y2.9282
X4.8568 Y2.9295
X5.0214 Y3.1607 F75
X5.022 Y3.1615
X5.0242 Y3.1647 Z0.2703
X5.0264 Y3.1678 Z0.2712
X5.0285 Y3.1707 Z0.2727
X5.0305 Y3.1734 Z0.2748
X5.0322 Y3.1759 Z0.2773
X5.0337 Y3.178 Z0.2803
X5.0349 Y3.1796 Z0.2837
X5.0357 Y3.1808 Z0.2873
X5.0363 Y3.1816 Z0.2911
X5.0365 Y3.1818 Z0.295
G0 Z1.24
X3.184 Y3.1817
G1 Z0.566 F15
Z0.295 F75
X3.1842 Y3.1814 Z0.2911
X3.1847 Y3.1807 Z0.2873
X3.1856 Y3.1795 Z0.2837
X3.1868 Y3.1778 Z0.2803
X3.1883 Y3.1758 Z0.2773
X3.1901 Y3.1734 Z0.2748
X3.1921 Y3.1707 Z0.2727
X3.1942 Y3.1677 Z0.2712
X3.1964 Y3.1646 Z0.2703
X3.1987 Y3.1615 Z0.27
X3.3602 Y2.9399
X3.8208 Y2.3075
G3 X3.8471 Y2.2766 I0.2183 J0.159
G2 X3.7698 Y2.0951 I-0.0928 J-0.0677
G3 X3.7347 Y1.9009 I0.0141 J-0.1028
X3.7529 Y1.8915 I0.3044 J0.5656 F18.75
G1 X3.7543 Y1.8904
X3.7553 Y1.889
X3.7558 Y1.8872
X3.7556 Y1.8854
X3.7548 Y1.8838
X3.7535 Y1.8826
X3.7519 Y1.8818
X3.6602 Y1.8578 F75
X3.6119 Y1.8451 F18.75
G2 X3.5979 Y1.8543 I-0.0029 J0.0108
G1 X3.5838 Y1.9575 F75
X3.577 Y2.0071 F18.75
G2 X3.5857 Y2.0114 I0.0051 J0.0007
G3 X3.7346 Y1.9008 I0.4534 J0.4551 F75
X3.828 Y1.9122 I0.0386 J0.0716
G2 X3.9185 Y1.9361 I0.0682 J-0.0749
G3 X3.9691 Y1.9271 I0.122 J0.5415
G2 X3.9798 Y1.9155 I-0.0016 J-0.0122
G3 X3.9816 Y1.8877 I0.6932 J0.0314
X3.9877 Y1.8381 I0.6914 J0.0592 F18.75
G2 X3.9794 Y1.8276 I-0.009 J-0.0014
G3 X3.7993 Y1.7961 I0.0652 J-0.9039 F75
G2 X3.623 Y1.7482 I-2.7527 J9.7894
G3 X3.5757 Y1.733 I0.1169 J-0.4463
X3.5296 Y1.7145 I0.501 J-1.3159 F18.75
G2 X3.517 Y1.7217 I-0.0035 J0.0085
G1 X3.4344 Y2.3178 F75
X3.4276 Y2.3673 F18.75
Y2.3689
X3.4282 Y2.3704
X3.4292 Y2.3716
X3.4306 Y2.3724
X3.4321 Y2.3728
X3.4337 Y2.3726
X3.4351 Y2.3719
X3.4363 Y2.3708
G2 X3.5173 Y2.2581 I-8.6488 J-6.3001 F75
G3 X3.5983 Y2.1454 I8.7493 J6.2014
X3.7613 Y1.9983 I0.432 J0.3147
X3.9186 Y1.9365 I0.2792 J0.4793
X4.0209 Y1.9752 I0.0218 J0.097
G2 X4.1257 Y1.9418 I0.0469 J-0.0339
G3 X4.1807 Y1.7078 I0.5473 J0.0051
X4.2045 Y1.6639 I0.4923 J0.2391 F18.75
G1 X4.2049 Y1.6622
X4.205 Y1.6604
X4.2044 Y1.6587
X4.2033 Y1.6574
X4.2018 Y1.6564
X4.2001 Y1.6561
X4.1984 Y1.6563
G3 X4.045 Y1.6837 I-0.1761 J-0.5424 F75
X3.8902 Y1.6669 I-0.021 J-0.5278
G1 X3.66 Y1.6066
G3 X3.5108 Y1.5417 I0.1343 J-0.5126
X3.4217 Y1.472 I0.304 J-0.4801
X3.3872 Y1.4359 I0.3931 J-0.4104 F18.75
G1 X3.3859 Y1.4348
X3.3844 Y1.4342
X3.3827
X3.3811 Y1.4346
X3.3798 Y1.4356
X3.3788 Y1.4369
X3.3783 Y1.4385
Y1.4401
G3 X3.3889 Y1.5301 I-0.7036 J0.1283 F75
X3.3851 Y1.6206 I-0.4748 J0.0254
G1 X3.2104 Y2.8738
X3.2034 Y2.9233 F18.75
X3.2035 Y2.9249
X3.204 Y2.9263
X3.205 Y2.9275
X3.2064 Y2.9283
X3.2079 Y2.9287
X3.2094 Y2.9285
X3.2108 Y2.9278
X3.2119 Y2.9267
X3.7163 Y2.2314 F75
G3 X3.901 Y2.0927 I0.3186 J0.232
X4.0823 Y2.0712 I0.1368 J0.3789
X4.1315 Y2.0798 I-0.0445 J0.4004 F18.75
G2 X4.1398 Y2.0716 I0.0016 J-0.0067
G3 X4.1254 Y1.9418 I0.5332 J-0.1247 F75
G1 X4.1257 Y1.9394
X4.1265 Y1.937
X4.1277 Y1.9348
X4.6501 Y1.178
X4.6517 Y1.1761
X4.6527 Y1.1751
G2 X4.6591 Y1.1625 I-0.0155 J-0.0158
G1 X4.7147 Y0.785
X4.7219 Y0.7356 F18.75
X4.722 Y0.7342
X4.7218 Y0.7329
X4.7175 Y0.7162
X4.7169 Y0.7148
X4.7159 Y0.7137
X4.7145 Y0.713
X4.713 Y0.7127
X4.7114 Y0.713
X4.7101 Y0.7137
X4.709 Y0.7149
X4.7084 Y0.7163
X4.6016 Y1.1746 F75
X4.5903 Y1.2233 F18.75
X4.5902 Y1.2249
X4.5906 Y1.2264
X4.5914 Y1.2277
X4.5927 Y1.2287
X4.5942 Y1.2293
X4.5958
X4.5973 Y1.2289
X4.5986 Y1.228
X4.6517 Y1.1761 F75
X4.6527 Y1.1751
X4.6544 Y1.1732 Z0.2706
X4.6559 Y1.1712 Z0.2711
X4.6571 Y1.1689 Z0.2717
X4.6584 Y1.1658 Z0.2737
X4.6591 Y1.1625 Z0.2756
X4.6595 Y1.1599 Z0.2782
X4.6598 Y1.1576 Z0.2811
X4.6601 Y1.1558 Z0.2843
X4.6603 Y1.1545 Z0.2877
X4.6604 Y1.1537 Z0.2913
Y1.1534 Z0.295
G0 Z1.24
X5.3739 Y3.2004
G1 Z0.295 F15
X5.3736 Y3.2003 Z0.2911 F75
X5.3728 Y3.1999 Z0.2873
X5.3715 Y3.1991 Z0.2837
X5.3697 Y3.1982 Z0.2803
X5.3674 Y3.197 Z0.2773
X5.3648 Y3.1956 Z0.2748
X5.3618 Y3.194 Z0.2727
X5.3586 Y3.1923 Z0.2712
X5.3553 Y3.1905 Z0.2703
X5.3518 Y3.1887 Z0.27
X5.2994 Y3.1608
G3 X5.1962 Y3.0835 I0.1973 J-0.3708
G1 X4.3726 Y2.2404
G3 X4.3795 Y1.6465 I0.3004 J-0.2935
G1 X4.7762 Y1.2589
G2 X4.7994 Y1.2133 I-0.0559 J-0.0572
G1 X4.8687 Y0.7424
G2 X4.8671 Y0.711 I-0.0791 J-0.0117
G1 X4.7187 Y0.1294
X4.7064 Y0.081 F18.75
X4.4384 Y1.2309 F75
G3 X3.9229 Y1.5419 I-0.4091 J-0.0954
G1 X3.6928 Y1.4815
G3 X3.4048 Y1.2196 I0.1064 J-0.4063
G1 X3.031 Y0.1985
X3.0138 Y0.1515 F18.75
X3.2541 Y1.4701 F75
G3 X3.257 Y1.6029 I-0.4132 J0.0754
G1 X3.0419 Y3.1608
G2 X3.0551 Y3.1751 I0.0124 J0.0018
G1 X3.1901 Y3.1658
G2 X3.1993 Y3.1607 I-0.0009 J-0.0125
G1 X3.3602 Y2.9399
X3.8208 Y2.3075
G3 X4.2591 Y2.3098 I0.2183 J0.159
G1 X4.7087 Y2.9414
X4.865 Y3.161
G2 X4.8747 Y3.1662 I0.0102 J-0.0073
G1 X5.356 Y3.1851
G2 X5.3608 Y3.1609 I0.0005 J-0.0125
G3 X5.2141 Y3.066 I0.1359 J-0.3709
G1 X4.3905 Y2.223
G3 X4.3969 Y1.6644 I0.2825 J-0.2761
G1 X4.7937 Y1.2768
G2 X4.8242 Y1.217 I-0.0734 J-0.0751
G1 X4.8935 Y0.746
G2 X4.8914 Y0.7048 I-0.1039 J-0.0153
G1 X4.7309 Y0.0758
X4.7176 Y0.024
X4.7053 Y-0.0245 F18.75
X4.414 Y1.2252 F75
G3 X3.9292 Y1.5176 I-0.3847 J-0.0897
G1 X3.6991 Y1.4574
G3 X3.4282 Y1.2111 I0.1001 J-0.3822
G1 X2.9553 Y-0.0809
X2.955 Y-0.0815 Z0.2701
X2.9546 Y-0.0819 Z0.2704
X2.9542 Y-0.0822 Z0.2709
X2.9539 Y-0.0823 Z0.2715
X2.9538 Z0.2722
Z0.6517
X3.3938 Y1.552
X3.3944 Y1.553 Z0.6441 F13.333
X3.3961 Y1.556 Z0.6372
X3.399 Y1.5604 Z0.6317
X3.403 Y1.5658 Z0.6281
X3.4078 Y1.5716 Z0.6267
G2 X3.5862 Y1.4148 Z0.6136 I0.0892 J-0.0784
X3.4078 Y1.5716 Z0.6006 I-0.0892 J0.0784
X3.5862 Y1.4148 Z0.5876 I0.0892 J-0.0784
X3.4078 Y1.5716 Z0.5746 I-0.0892 J0.0784
X3.5862 Y1.4148 Z0.5615 I0.0892 J-0.0784
X3.4078 Y1.5716 Z0.5485 I-0.0892 J0.0784
X3.5862 Y1.4148 Z0.5355 I0.0892 J-0.0784
X3.4078 Y1.5716 Z0.5224 I-0.0892 J0.0784
X3.5862 Y1.4148 Z0.5094 I0.0892 J-0.0784
X3.4078 Y1.5716 Z0.4964 I-0.0892 J0.0784
X3.5862 Y1.4148 Z0.4834 I0.0892 J-0.0784
X3.4078 Y1.5716 Z0.4703 I-0.0892 J0.0784
X3.5862 Y1.4148 Z0.4573 I0.0892 J-0.0784
X3.4078 Y1.5716 Z0.4443 I-0.0892 J0.0784
X3.5862 Y1.4148 Z0.4313 I0.0892 J-0.0784
X3.4078 Y1.5716 Z0.4182 I-0.0892 J0.0784
X3.5862 Y1.4148 Z0.4052 I0.0892 J-0.0784
X3.4078 Y1.5716 Z0.3922 I-0.0892 J0.0784
X3.5862 Y1.4148 Z0.3791 I0.0892 J-0.0784
X3.4078 Y1.5716 Z0.3661 I-0.0892 J0.0784
X3.5862 Y1.4148 Z0.3531 I0.0892 J-0.0784
X3.4078 Y1.5716 Z0.3401 I-0.0892 J0.0784
X3.5862 Y1.4148 Z0.327 I0.0892 J-0.0784
X3.4078 Y1.5716 Z0.314 I-0.0892 J0.0784
X3.5862 Y1.4148 Z0.301 I0.0892 J-0.0784
X3.4078 Y1.5716 Z0.2879 I-0.0892 J0.0784
X3.5862 Y1.4148 Z0.2749 I0.0892 J-0.0784
X3.4577 Y1.3811 Z0.27 I-0.0892 J0.0784
G1 X2.9625 Y-0.0337 F75
X2.946 Y-0.0809 F18.75
X3.2295 Y1.4746 F75
G3 X3.2322 Y1.5995 I-0.3886 J0.0709
G1 X3.0306 Y3.0598
X3.0167 Y3.1608
G2 X3.0296 Y3.1749 I0.0123 J0.0017
G1 X3.2207 Y3.1659
G2 X3.2302 Y3.1608 I-0.0006 J-0.0125
G1 X3.3804 Y2.9546
X3.841 Y2.3222
G3 X4.2387 Y2.3243 I0.1981 J0.1443
G1 X4.6883 Y2.9559
X4.8342 Y3.1607
X4.8367 Y3.1637
X4.8442 Y3.1714
X4.8469 Y3.1742 Z0.2703
X4.8496 Y3.1769 Z0.2712
X4.8521 Y3.1795 Z0.2727
X4.8545 Y3.1819 Z0.2748
X4.8566 Y3.184 Z0.2773
X4.8584 Y3.1858 Z0.2803
X4.8598 Y3.1873 Z0.2837
X4.8608 Y3.1884 Z0.2873
X4.8615 Y3.189 Z0.2911
X4.8617 Y3.1892 Z0.295
G0 Z1.64
X6.337 Y3.2005
Z1.24
G1 Z0.8083 F15
X6.3369 Y3.2002 Z0.8044 F75
X6.3366 Y3.1993 Z0.8006
X6.3362 Y3.1979 Z0.797
X6.3355 Y3.1959 Z0.7936
X6.3347 Y3.1935 Z0.7907
X6.3338 Y3.1907 Z0.7881
X6.3327 Y3.1875 Z0.7861
X6.3315 Y3.1841 Z0.7846
X6.3303 Y3.1805 Z0.7836
X6.3291 Y3.1768 Z0.7833
X6.3238 Y3.161
X6.1845 Y2.7445
X6.1686 Y2.697 F18.75
X6.1679 Y2.6958
X6.1668 Y2.695
X6.1655 Y2.6946
X6.1641 Y2.6947
X6.1629 Y2.6954
X6.1619 Y2.6964
X6.1615 Y2.6978
X6.1616 Y2.6992
X6.2839 Y3.1606 F75
G2 X6.2953 Y3.1698 I0.012 J-0.0032
G1 X6.4406 Y3.1774
G2 X6.4531 Y3.1609 I0.0007 J-0.0125
G1 X6.0062 Y1.8422
G3 X5.9768 Y1.6639 I0.5268 J-0.1783
G1 X5.9785 Y1.2508
X5.9787 Y1.2008 F18.75
X5.9784 Y1.1984
X5.9691 Y1.1633
X5.9684 Y1.1619
X5.9673 Y1.1609
X5.9658 Y1.1604
X5.9643 Y1.1605
X5.9629 Y1.1613
X5.9619 Y1.1625
X5.9615 Y1.164
G3 X5.9559 Y1.2191 I-0.8196 J-0.0554 F75
X5.9449 Y1.2733 I-0.4159 J-0.0565
G1 X5.8049 Y1.7788
G2 X5.8047 Y1.8286 I0.0924 J0.0252
G1 X6.1577 Y3.1609
G2 X6.1696 Y3.1702 I0.0121 J-0.0032
G1 X6.5841 Y3.1773
G2 X6.5961 Y3.1608 I0.0002 J-0.0125
G1 X6.5737 Y3.0945
X6.1352 Y1.7985
G3 X6.113 Y1.6639 I0.3978 J-0.1346
G1 Y1.1926
G2 X6.1104 Y1.1722 I-0.08 J0
G1 X5.8412 Y0.1484
X5.8285 Y0.1 F18.75
Y1.1267 F75
G3 X5.8136 Y1.2374 I-0.42 J-0.0001
G1 X5.6647 Y1.7823
G2 X5.6645 Y1.8239 I0.0772 J0.0211
G1 X5.9752 Y2.9965
X6.0188 Y3.1609
G2 X6.0307 Y3.1701 I0.012 J-0.0032
G1 X6.6105 Y3.1772
G2 X6.6225 Y3.1607 I0.0002 J-0.0125
G1 X6.5974 Y3.0865
X6.1588 Y1.7905
G3 X6.138 Y1.6639 I0.3742 J-0.1266
G1 Y1.1926
G2 X6.1345 Y1.1659 I-0.105 J0
G1 X5.8482 Y0.0769
X5.8069 Y-0.0804
X5.8068 Y-0.0806 Z0.7834
X5.8066 Y-0.0808 Z0.7835
X5.8065 Y-0.0809 Z0.7837
X5.8064 Y-0.081 Z0.7839
X5.8063 Z0.7842
G0 Z1.24
X5.9871 Y2.0255
G1 Z1.165 F15
X5.9875 Y2.0266 Z1.1574 F13.333
X5.9886 Y2.0298 Z1.1506
X5.9906 Y2.0347 Z1.1451
X5.9935 Y2.0408 Z1.1414
X5.997 Y2.0474 Z1.14
G2 X6.2024 Y1.928 Z1.127 I0.1027 J-0.0597
X5.997 Y2.0474 Z1.1139 I-0.1027 J0.0597
X6.2024 Y1.928 Z1.1009 I0.1027 J-0.0597
X5.997 Y2.0474 Z1.0879 I-0.1027 J0.0597
X6.2024 Y1.928 Z1.0749 I0.1027 J-0.0597
X5.997 Y2.0474 Z1.0618 I-0.1027 J0.0597
X6.2024 Y1.928 Z1.0488 I0.1027 J-0.0597
X5.997 Y2.0474 Z1.0358 I-0.1027 J0.0597
X6.2024 Y1.928 Z1.0228 I0.1027 J-0.0597
X5.997 Y2.0474 Z1.0097 I-0.1027 J0.0597
X6.2024 Y1.928 Z0.9967 I0.1027 J-0.0597
X5.997 Y2.0474 Z0.9837 I-0.1027 J0.0597
X6.2024 Y1.928 Z0.9706 I0.1027 J-0.0597
X5.997 Y2.0474 Z0.9576 I-0.1027 J0.0597
X6.2024 Y1.928 Z0.9446 I0.1027 J-0.0597
X5.997 Y2.0474 Z0.9316 I-0.1027 J0.0597
X6.2024 Y1.928 Z0.9185 I0.1027 J-0.0597
X5.997 Y2.0474 Z0.9055 I-0.1027 J0.0597
X6.2024 Y1.928 Z0.8925 I0.1027 J-0.0597
X5.997 Y2.0474 Z0.8794 I-0.1027 J0.0597
X6.2024 Y1.928 Z0.8664 I0.1027 J-0.0597
X5.997 Y2.0474 Z0.8534 I-0.1027 J0.0597
X6.2024 Y1.928 Z0.8404 I0.1027 J-0.0597
X5.997 Y2.0474 Z0.8273 I-0.1027 J0.0597
X6.2024 Y1.928 Z0.8143 I0.1027 J-0.0597
X5.997 Y2.0474 Z0.8013 I-0.1027 J0.0597
X6.2024 Y1.928 Z0.7883 I0.1027 J-0.0597
X6.0828 Y1.8701 Z0.7833 I-0.1027 J0.0597
G1 X5.8106 Y-0.0312 F75
X5.8035 Y-0.0806 F18.75
Y1.1267 F75
G3 X5.7895 Y1.2308 I-0.395 J-0.0001
G1 X5.6406 Y1.7757
G2 X5.6404 Y1.8303 I0.1013 J0.0277
G1 X5.951 Y3.0029
X5.9928 Y3.1606
G2 X6.0028 Y3.1697 I0.0121 J-0.0032
G1 X6.326 Y3.2256
G2 X6.3399 Y3.2093 I0.0021 J-0.0123
G1 X6.3387 Y3.2056 Z0.783
X6.3375 Y3.202 Z0.7821
X6.3364 Y3.1985 Z0.7806
X6.3353 Y3.1954 Z0.7786
X6.3344 Y3.1925 Z0.776
X6.3336 Y3.1901 Z0.773
X6.3329 Y3.1882 Z0.7697
X6.3324 Y3.1868 Z0.7661
X6.3322 Y3.1859 Z0.7622
X6.3321 Y3.1856 Z0.7583
Z0.5517
X6.332 Y3.1853 Z0.5478
X6.3317 Y3.1844 Z0.5439
X6.3312 Y3.183 Z0.5403
X6.3305 Y3.1811 Z0.537
X6.3297 Y3.1787 Z0.534
X6.3288 Y3.1758 Z0.5314
X6.3277 Y3.1727 Z0.5294
X6.3266 Y3.1692 Z0.5279
X6.3254 Y3.1656 Z0.527
X6.3241 Y3.1619 Z0.5267
X6.3238 Y3.161
X6.1845 Y2.7445
X6.1686 Y2.697 F18.75
X6.1679 Y2.6958
X6.1668 Y2.695
X6.1655 Y2.6946
X6.1641 Y2.6947
X6.1629 Y2.6954
X6.1619 Y2.6964
X6.1615 Y2.6978
X6.1616 Y2.6992
X6.2839 Y3.1606 F75
G2 X6.2953 Y3.1698 I0.012 J-0.0032
G1 X6.4406 Y3.1774
G2 X6.4531 Y3.1609 I0.0007 J-0.0125
G1 X6.0062 Y1.8422
G3 X5.9768 Y1.6639 I0.5268 J-0.1783
G1 X5.9785 Y1.2508
X5.9787 Y1.2008 F18.75
X5.9784 Y1.1984
X5.9691 Y1.1633
X5.9684 Y1.1619
X5.9673 Y1.1609
X5.9658 Y1.1604
X5.9643 Y1.1605
X5.9629 Y1.1613
X5.9619 Y1.1625
X5.9615 Y1.164
G3 X5.9559 Y1.2191 I-0.8196 J-0.0554 F75
X5.9449 Y1.2733 I-0.4159 J-0.0565
G1 X5.8049 Y1.7788
G2 X5.8047 Y1.8286 I0.0924 J0.0252
G1 X6.1577 Y3.1609
G2 X6.1696 Y3.1702 I0.0121 J-0.0032
G1 X6.5841 Y3.1773
G2 X6.5961 Y3.1608 I0.0002 J-0.0125
G1 X6.5737 Y3.0945
X6.1352 Y1.7985
G3 X6.113 Y1.6639 I0.3978 J-0.1346
G1 Y1.1926
G2 X6.1104 Y1.1722 I-0.08 J0
G1 X5.8412 Y0.1484
X5.8285 Y0.1 F18.75
Y1.1267 F75
G3 X5.8136 Y1.2374 I-0.42 J-0.0001
G1 X5.6647 Y1.7823
G2 X5.6645 Y1.8239 I0.0772 J0.0211
G1 X5.9752 Y2.9965
X6.0188 Y3.1609
G2 X6.0307 Y3.1701 I0.012 J-0.0032
G1 X6.6105 Y3.1772
G2 X6.6225 Y3.1607 I0.0002 J-0.0125
G1 X6.5974 Y3.0865
X6.1588 Y1.7905
G3 X6.138 Y1.6639 I0.3742 J-0.1266
G1 Y1.1926
G2 X6.1345 Y1.1659 I-0.105 J0
G1 X5.8482 Y0.0769
X5.8069 Y-0.0804
X5.8068 Y-0.0806
X5.8066 Y-0.0808 Z0.5268
X5.8065 Y-0.0809 Z0.527
X5.8064 Y-0.081 Z0.5272
X5.8063 Z0.5275
G0 Z1.24
X5.9871 Y2.0255
G1 Z0.9083 F15
X5.9875 Y2.0266 Z0.9008 F13.333
X5.9886 Y2.0298 Z0.8939
X5.9906 Y2.0347 Z0.8884
X5.9935 Y2.0408 Z0.8848
X5.997 Y2.0474 Z0.8833
G2 X6.2024 Y1.928 Z0.8703 I0.1027 J-0.0597
X5.997 Y2.0474 Z0.8573 I-0.1027 J0.0597
X6.2024 Y1.928 Z0.8443 I0.1027 J-0.0597
X5.997 Y2.0474 Z0.8312 I-0.1027 J0.0597
X6.2024 Y1.928 Z0.8182 I0.1027 J-0.0597
X5.997 Y2.0474 Z0.8052 I-0.1027 J0.0597
X6.2024 Y1.928 Z0.7921 I0.1027 J-0.0597
X5.997 Y2.0474 Z0.7791 I-0.1027 J0.0597
X6.2024 Y1.928 Z0.7661 I0.1027 J-0.0597
X5.997 Y2.0474 Z0.7531 I-0.1027 J0.0597
X6.2024 Y1.928 Z0.74 I0.1027 J-0.0597
X5.997 Y2.0474 Z0.727 I-0.1027 J0.0597
X6.2024 Y1.928 Z0.714 I0.1027 J-0.0597
X5.997 Y2.0474 Z0.7009 I-0.1027 J0.0597
X6.2024 Y1.928 Z0.6879 I0.1027 J-0.0597
X5.997 Y2.0474 Z0.6749 I-0.1027 J0.0597
X6.2024 Y1.928 Z0.6619 I0.1027 J-0.0597
X5.997 Y2.0474 Z0.6488 I-0.1027 J0.0597
X6.2024 Y1.928 Z0.6358 I0.1027 J-0.0597
X5.997 Y2.0474 Z0.6228 I-0.1027 J0.0597
X6.2024 Y1.928 Z0.6098 I0.1027 J-0.0597
X5.997 Y2.0474 Z0.5967 I-0.1027 J0.0597
X6.2024 Y1.928 Z0.5837 I0.1027 J-0.0597
X5.997 Y2.0474 Z0.5707 I-0.1027 J0.0597
X6.2024 Y1.928 Z0.5576 I0.1027 J-0.0597
X5.997 Y2.0474 Z0.5446 I-0.1027 J0.0597
X6.2024 Y1.928 Z0.5316 I0.1027 J-0.0597
X6.0828 Y1.8701 Z0.5267 I-0.1027 J0.0597
G1 X5.8106 Y-0.0312 F75
X5.8035 Y-0.0806 F18.75
Y1.1267 F75
G3 X5.7895 Y1.2308 I-0.395 J-0.0001
G1 X5.6406 Y1.7757
G2 X5.6404 Y1.8303 I0.1013 J0.0277
G1 X5.951 Y3.0029
X5.9928 Y3.1606
G2 X6.0028 Y3.1697 I0.0121 J-0.0032
G1 X6.326 Y3.2256
G2 X6.3399 Y3.2093 I0.0021 J-0.0123
G1 X6.3387 Y3.2056 Z0.5264
X6.3375 Y3.202 Z0.5254
X6.3364 Y3.1985 Z0.5239
X6.3353 Y3.1954 Z0.5219
X6.3344 Y3.1925 Z0.5193
X6.3336 Y3.1901 Z0.5164
X6.3329 Y3.1882 Z0.513
X6.3324 Y3.1868 Z0.5094
X6.3322 Y3.1859 Z0.5056
X6.3321 Y3.1856 Z0.5017
Z0.295
X6.332 Y3.1853 Z0.2911
X6.3317 Y3.1844 Z0.2873
X6.3312 Y3.183 Z0.2837
X6.3305 Y3.1811 Z0.2803
X6.3297 Y3.1787 Z0.2773
X6.3288 Y3.1758 Z0.2748
X6.3277 Y3.1727 Z0.2727
X6.3266 Y3.1692 Z0.2712
X6.3254 Y3.1656 Z0.2703
X6.3241 Y3.1619 Z0.27
X6.3238 Y3.161
X6.1845 Y2.7445
X6.1686 Y2.697 F18.75
X6.1679 Y2.6958
X6.1668 Y2.695
X6.1655 Y2.6946
X6.1641 Y2.6947
X6.1629 Y2.6954
X6.1619 Y2.6964
X6.1615 Y2.6978
X6.1616 Y2.6992
X6.2839 Y3.1606 F75
G2 X6.2953 Y3.1698 I0.012 J-0.0032
G1 X6.4406 Y3.1774
G2 X6.4531 Y3.1609 I0.0007 J-0.0125
G1 X6.0062 Y1.8422
G3 X5.9768 Y1.6639 I0.5268 J-0.1783
G1 X5.9785 Y1.2508
X5.9787 Y1.2008 F18.75
X5.9784 Y1.1984
X5.9691 Y1.1633
X5.9684 Y1.1619
X5.9673 Y1.1609
X5.9658 Y1.1604
X5.9643 Y1.1605
X5.9629 Y1.1613
X5.9619 Y1.1625
X5.9615 Y1.164
G3 X5.9559 Y1.2191 I-0.8196 J-0.0554 F75
X5.9449 Y1.2733 I-0.4159 J-0.0565
G1 X5.8049 Y1.7788
G2 X5.8047 Y1.8286 I0.0924 J0.0252
G1 X6.1577 Y3.1609
G2 X6.1696 Y3.1702 I0.0121 J-0.0032
G1 X6.5841 Y3.1773
G2 X6.5961 Y3.1608 I0.0002 J-0.0125
G1 X6.5737 Y3.0945
X6.1352 Y1.7985
G3 X6.113 Y1.6639 I0.3978 J-0.1346
G1 Y1.1926
G2 X6.1104 Y1.1722 I-0.08 J0
G1 X5.8412 Y0.1484
X5.8285 Y0.1 F18.75
Y1.1267 F75
G3 X5.8136 Y1.2374 I-0.42 J-0.0001
G1 X5.6647 Y1.7823
G2 X5.6645 Y1.8239 I0.0772 J0.0211
G1 X5.9752 Y2.9965
X6.0188 Y3.1609
G2 X6.0307 Y3.1701 I0.012 J-0.0032
G1 X6.6105 Y3.1772
G2 X6.6225 Y3.1607 I0.0002 J-0.0125
G1 X6.5974 Y3.0865
X6.1588 Y1.7905
G3 X6.138 Y1.6639 I0.3742 J-0.1266
G1 Y1.1926
G2 X6.1345 Y1.1659 I-0.105 J0
G1 X5.8482 Y0.0769
X5.8069 Y-0.0804
X5.8068 Y-0.0806
X5.8066 Y-0.0808 Z0.2702
X5.8065 Y-0.0809 Z0.2703
X5.8064 Y-0.081 Z0.2706
X5.8063 Z0.2708
G0 Z1.24
X5.9871 Y2.0255
G1 Z0.6517 F15
X5.9875 Y2.0266 Z0.6441 F13.333
X5.9886 Y2.0298 Z0.6372
X5.9906 Y2.0347 Z0.6317
X5.9935 Y2.0408 Z0.6281
X5.997 Y2.0474 Z0.6267
G2 X6.2024 Y1.928 Z0.6136 I0.1027 J-0.0597
X5.997 Y2.0474 Z0.6006 I-0.1027 J0.0597
X6.2024 Y1.928 Z0.5876 I0.1027 J-0.0597
X5.997 Y2.0474 Z0.5746 I-0.1027 J0.0597
X6.2024 Y1.928 Z0.5615 I0.1027 J-0.0597
X5.997 Y2.0474 Z0.5485 I-0.1027 J0.0597
X6.2024 Y1.928 Z0.5355 I0.1027 J-0.0597
X5.997 Y2.0474 Z0.5224 I-0.1027 J0.0597
X6.2024 Y1.928 Z0.5094 I0.1027 J-0.0597
X5.997 Y2.0474 Z0.4964 I-0.1027 J0.0597
X6.2024 Y1.928 Z0.4834 I0.1027 J-0.0597
X5.997 Y2.0474 Z0.4703 I-0.1027 J0.0597
X6.2024 Y1.928 Z0.4573 I0.1027 J-0.0597
X5.997 Y2.0474 Z0.4443 I-0.1027 J0.0597
X6.2024 Y1.928 Z0.4313 I0.1027 J-0.0597
X5.997 Y2.0474 Z0.4182 I-0.1027 J0.0597
X6.2024 Y1.928 Z0.4052 I0.1027 J-0.0597
X5.997 Y2.0474 Z0.3922 I-0.1027 J0.0597
X6.2024 Y1.928 Z0.3791 I0.1027 J-0.0597
X5.997 Y2.0474 Z0.3661 I-0.1027 J0.0597
X6.2024 Y1.928 Z0.3531 I0.1027 J-0.0597
X5.997 Y2.0474 Z0.3401 I-0.1027 J0.0597
X6.2024 Y1.928 Z0.327 I0.1027 J-0.0597
X5.997 Y2.0474 Z0.314 I-0.1027 J0.0597
X6.2024 Y1.928 Z0.301 I0.1027 J-0.0597
X5.997 Y2.0474 Z0.2879 I-0.1027 J0.0597
X6.2024 Y1.928 Z0.2749 I0.1027 J-0.0597
X6.0828 Y1.8701 Z0.27 I-0.1027 J0.0597
G1 X5.8106 Y-0.0312 F75
X5.8035 Y-0.0806 F18.75
Y1.1267 F75
G3 X5.7895 Y1.2308 I-0.395 J-0.0001
G1 X5.6406 Y1.7757
G2 X5.6404 Y1.8303 I0.1013 J0.0277
G1 X5.951 Y3.0029
X5.9928 Y3.1606
X5.9941 Y3.1643
X5.9985 Y3.1742
X6.0001 Y3.1777 Z0.2703
X6.0016 Y3.1812 Z0.2712
X6.0031 Y3.1845 Z0.2727
X6.0044 Y3.1876 Z0.2748
X6.0056 Y3.1903 Z0.2773
X6.0066 Y3.1927 Z0.2803
X6.0075 Y3.1945 Z0.2837
X6.0081 Y3.1959 Z0.2873
X6.0084 Y3.1967 Z0.2911
X6.0086 Y3.197 Z0.295
G0 Z1.64
X7.4141 Y3.2004
Z1.24
G1 Z0.8083 F15
Y3.2001 Z0.8044 F75
X7.414 Y3.1991 Z0.8006
X7.4139 Y3.1977 Z0.797
X7.4137 Y3.1956 Z0.7936
X7.4134 Y3.1931 Z0.7907
X7.4131 Y3.1901 Z0.7881
X7.4128 Y3.1868 Z0.7861
X7.4125 Y3.1832 Z0.7846
X7.4121 Y3.1794 Z0.7836
X7.4118 Y3.1755 Z0.7833
X7.4104 Y3.1607
X7.3108 Y2.1096
X7.3061 Y2.0598 F18.75
X7.3057 Y2.0585
X7.3048 Y2.0573
X7.3036 Y2.0566
X7.3021 Y2.0563
X7.3007 Y2.0567
X7.2995 Y2.0575
X7.2987 Y2.0586
X7.2984 Y2.0601
X7.2545 Y3.1605 F75
G2 X7.2669 Y3.1735 I0.0125 J0.0005
G1 X7.5247 Y3.1746
G2 X7.5371 Y3.1609 I0 J-0.0125
G1 X7.254 Y0.1708
X7.2493 Y0.121 F18.75
X7.1327 Y3.0468 F75
X7.1282 Y3.1609
G2 X7.1406 Y3.1738 I0.0124 J0.0005
G1 X7.5498 Y3.1742
G2 X7.5622 Y3.1605 I0 J-0.0125
G1 X7.2553 Y-0.0805
X7.2549 Y-0.0822 Z0.7836
X7.2541 Y-0.0835 Z0.7844
X7.2533 Y-0.0843 Z0.7856
X7.2526 Y-0.0847 Z0.7871
X7.2524 Y-0.0849 Z0.7888
Z0.8058
X7.2399 Y-0.12
Y-0.1197 Z0.8023
X7.2397 Y-0.1189 Z0.7989
X7.2394 Y-0.1176 Z0.7956
X7.2391 Y-0.1157 Z0.7926
X7.2386 Y-0.1135 Z0.7899
X7.2381 Y-0.1109 Z0.7876
X7.2375 Y-0.1079 Z0.7858
X7.2369 Y-0.1047 Z0.7844
X7.2362 Y-0.1013 Z0.7836
X7.2355 Y-0.0979 Z0.7833
X7.2327 Y-0.0837
X7.2323 Y-0.0807
X7.2273 Y0.0458
X7.1077 Y3.0458
X7.1031 Y3.1609
G2 X7.1134 Y3.1737 I0.0125 J0.0005
G1 X7.4005 Y3.225
G2 X7.4151 Y3.2115 I0.0022 J-0.0123
G1 X7.4148 Y3.2076 Z0.783
X7.4144 Y3.2038 Z0.7821
X7.4141 Y3.2002 Z0.7806
X7.4138 Y3.1969 Z0.7786
X7.4135 Y3.1939 Z0.776
X7.4133 Y3.1914 Z0.773
X7.4131 Y3.1893 Z0.7697
X7.4129 Y3.1878 Z0.7661
X7.4128 Y3.1869 Z0.7622
Y3.1866 Z0.7583
Z0.5517
Y3.1863 Z0.5478
X7.4127 Y3.1854 Z0.5439
X7.4125 Y3.1839 Z0.5403
X7.4124 Y3.1818 Z0.537
X7.4121 Y3.1793 Z0.534
X7.4118 Y3.1763 Z0.5314
X7.4115 Y3.173 Z0.5294
X7.4112 Y3.1694 Z0.5279
X7.4108 Y3.1656 Z0.527
X7.4104 Y3.1617 Z0.5267
Y3.1607
X7.3108 Y2.1096
X7.3061 Y2.0598 F18.75
X7.3057 Y2.0585
X7.3048 Y2.0573
X7.3036 Y2.0566
X7.3021 Y2.0563
X7.3007 Y2.0567
X7.2995 Y2.0575
X7.2987 Y2.0586
X7.2984 Y2.0601
X7.2545 Y3.1605 F75
G2 X7.2669 Y3.1735 I0.0125 J0.0005
G1 X7.5247 Y3.1746
G2 X7.5371 Y3.1609 I0 J-0.0125
G1 X7.254 Y0.1708
X7.2493 Y0.121 F18.75
X7.1327 Y3.0468 F75
X7.1282 Y3.1609
G2 X7.1406 Y3.1738 I0.0124 J0.0005
G1 X7.5498 Y3.1742
G2 X7.5622 Y3.1605 I0 J-0.0125
G1 X7.2553 Y-0.0805
X7.2549 Y-0.0822 Z0.5269
X7.2541 Y-0.0835 Z0.5277
X7.2533 Y-0.0843 Z0.5289
X7.2526 Y-0.0847 Z0.5305
X7.2524 Y-0.0849 Z0.5322
Z0.5492
X7.2399 Y-0.12
Y-0.1197 Z0.5456
X7.2397 Y-0.1189 Z0.5422
X7.2394 Y-0.1176 Z0.539
X7.2391 Y-0.1157 Z0.5359
X7.2386 Y-0.1135 Z0.5333
X7.2381 Y-0.1109 Z0.531
X7.2375 Y-0.1079 Z0.5291
X7.2369 Y-0.1047 Z0.5278
X7.2362 Y-0.1013 Z0.5269
X7.2355 Y-0.0979 Z0.5267
X7.2327 Y-0.0837
X7.2323 Y-0.0807
X7.2273 Y0.0458
X7.1077 Y3.0458
X7.1031 Y3.1609
G2 X7.1134 Y3.1737 I0.0125 J0.0005
G1 X7.4005 Y3.225
G2 X7.4151 Y3.2115 I0.0022 J-0.0123
G1 X7.4148 Y3.2076 Z0.5264
X7.4144 Y3.2038 Z0.5254
X7.4141 Y3.2002 Z0.5239
X7.4138 Y3.1969 Z0.5219
X7.4135 Y3.1939 Z0.5193
X7.4133 Y3.1914 Z0.5164
X7.4131 Y3.1893 Z0.513
X7.4129 Y3.1878 Z0.5094
X7.4128 Y3.1869 Z0.5056
Y3.1866 Z0.5017
Z0.295
Y3.1863 Z0.2911
X7.4127 Y3.1854 Z0.2873
X7.4125 Y3.1839 Z0.2837
X7.4124 Y3.1818 Z0.2803
X7.4121 Y3.1793 Z0.2773
X7.4118 Y3.1763 Z0.2748
X7.4115 Y3.173 Z0.2727
X7.4112 Y3.1694 Z0.2712
X7.4108 Y3.1656 Z0.2703
X7.4104 Y3.1617 Z0.27
Y3.1607
X7.3108 Y2.1096
X7.3061 Y2.0598 F18.75
X7.3057 Y2.0585
X7.3048 Y2.0573
X7.3036 Y2.0566
X7.3021 Y2.0563
X7.3007 Y2.0567
X7.2995 Y2.0575
X7.2987 Y2.0586
X7.2984 Y2.0601
X7.2545 Y3.1605 F75
G2 X7.2669 Y3.1735 I0.0125 J0.0005
G1 X7.5247 Y3.1746
G2 X7.5371 Y3.1609 I0 J-0.0125
G1 X7.254 Y0.1708
X7.2493 Y0.121 F18.75
X7.1327 Y3.0468 F75
X7.1282 Y3.1609
G2 X7.1406 Y3.1738 I0.0124 J0.0005
G1 X7.5498 Y3.1742
G2 X7.5622 Y3.1605 I0 J-0.0125
G1 X7.2553 Y-0.0805
X7.2549 Y-0.0822 Z0.2703
X7.2541 Y-0.0835 Z0.271
X7.2533 Y-0.0843 Z0.2723
X7.2526 Y-0.0847 Z0.2738
X7.2524 Y-0.0849 Z0.2755
Z0.2925
X7.2399 Y-0.12
Y-0.1197 Z0.289
X7.2397 Y-0.1189 Z0.2855
X7.2394 Y-0.1176 Z0.2823
X7.2391 Y-0.1157 Z0.2793
X7.2386 Y-0.1135 Z0.2766
X7.2381 Y-0.1109 Z0.2743
X7.2375 Y-0.1079 Z0.2725
X7.2369 Y-0.1047 Z0.2711
X7.2362 Y-0.1013 Z0.2703
X7.2355 Y-0.0979 Z0.27
X7.2327 Y-0.0837
X7.2323 Y-0.0807
X7.2273 Y0.0458
X7.1077 Y3.0458
X7.1031 Y3.1609
X7.1033 Y3.1648
X7.1045 Y3.1755
X7.105 Y3.1793 Z0.2703
X7.1054 Y3.1831 Z0.2712
X7.1059 Y3.1867 Z0.2727
X7.1063 Y3.19 Z0.2748
X7.1066 Y3.193 Z0.2773
X7.1069 Y3.1955 Z0.2803
X7.1071 Y3.1976 Z0.2837
X7.1073 Y3.1991 Z0.2873
X7.1074 Y3.2 Z0.2911
X7.1075 Y3.2003 Z0.295
G0 Z1.64

(2D Contour1)
X0.265 Y3.24
Z1.64
Z1.24
G1 Z0.815 F15
G19 G2 Y3.215 Z0.79 J-0.025 K0 F75
G1 Y3.19
G17 G3 X0.29 Y3.165 I0.025 J0
G1 X7.79
G2 X8.165 Y2.79 I0 J-0.375
G1 Y0.29
G2 X7.79 Y-0.085 I-0.375 J0
G1 X0.29
G2 X-0.085 Y0.29 I0 J0.375
G1 Y2.79
G2 X0.29 Y3.165 I0.375 J0
G3 X0.315 Y3.19 I0 J0.025
G1 Y3.215
G19 G3 Y3.24 Z0.815 J0 K0.025
G0 Z1.24
X0.265
G1 Z0.565 F15
G2 Y3.215 Z0.54 J-0.025 K0 F75
G1 Y3.19
G17 G3 X0.29 Y3.165 I0.025 J0
G1 X7.79
G2 X8.165 Y2.79 I0 J-0.375
G1 Y0.29
G2 X7.79 Y-0.085 I-0.375 J0
G1 X0.29
G2 X-0.085 Y0.29 I0 J0.375
G1 Y2.79
G2 X0.29 Y3.165 I0.375 J0
G3 X0.315 Y3.19 I0 J0.025
G1 Y3.215
G19 G3 Y3.24 Z0.565 J0 K0.025
G0 Z1.24
X0.265
G1 Z0.315 F15
G2 Y3.215 Z0.29 J-0.025 K0 F75
G1 Y3.19
G17 G3 X0.29 Y3.165 I0.025 J0
G1 X7.79
G2 X8.165 Y2.79 I0 J-0.375
G1 Y0.29
G2 X7.79 Y-0.085 I-0.375 J0
G1 X0.29
G2 X-0.085 Y0.29 I0 J0.375
G1 Y2.79
G2 X0.29 Y3.165 I0.375 J0
G3 X0.315 Y3.19 I0 J0.025
G1 Y3.215
G19 G3 Y3.24 Z0.315 J0 K0.025
G0 Z1.24
X0.265
G1 Z0.17 F15
G2 Y3.215 Z0.145 J-0.025 K0 F75
G1 Y3.19
G17 G3 X0.29 Y3.165 I0.025 J0
G1 X7.79
G2 X8.165 Y2.79 I0 J-0.375
G1 Y0.29
G2 X7.79 Y-0.085 I-0.375 J0
G1 X0.29
G2 X-0.085 Y0.29 I0 J0.375
G1 Y2.79
G2 X0.29 Y3.165 I0.375 J0
G3 X0.315 Y3.19 I0 J0.025
G1 Y3.215
G19 G3 Y3.24 Z0.17 J0 K0.025
G0 Z1.24
X0.265
G1 Z0.025 F15
G2 Y3.215 Z0 J-0.025 K0 F75
G1 Y3.19
G17 G3 X0.29 Y3.165 I0.025 J0
G1 X5.3827
X5.4327 F18.75
Z0.0625 F75
X5.9327
Z0 F15
X7.79 F75
G2 X8.165 Y2.79 I0 J-0.375
G1 Y0.29
G2 X7.79 Y-0.085 I-0.375 J0
G1 X2.6973
X2.6473 F18.75
Z0.0625 F75
X2.1473
Z0 F15
X0.29 F75
G2 X-0.085 Y0.29 I0 J0.375
G1 Y2.79
G2 X0.29 Y3.165 I0.375 J0
G3 X0.315 Y3.19 I0 J0.025
G1 Y3.215
G19 G3 Y3.24 Z0.025 J0 K0.025
G0 Z1.64
G17
G28 G91 Z0
G90
G28 G91 X0 Y0
G90
M30
%
