%
(Climbing Keyholder V9)
(T1  D=0.25 CR=0 - ZMIN=0 - flat end mill)
G90
G17
G20
G28 G91 Z0
G90

(2D Pocket1)
T1 M6
S21000 M3
G54
G0 X1.4351 Y1.0703
Z1.39
Z0.99
G1 Z0.915 F15
X1.4339 Y1.0701 Z0.9074 F13.333
X1.4305 Y1.0696 Z0.9006
X1.4252 Y1.0691 Z0.8951
X1.4185 Y1.0687 Z0.8914
X1.411 Y1.0688 Z0.89
G2 X1.42 Y1.306 Z0.877 I0.0045 J0.1186
X1.411 Y1.0688 Z0.8639 I-0.0045 J-0.1186
X1.42 Y1.306 Z0.8509 I0.0045 J0.1186
X1.411 Y1.0688 Z0.8379 I-0.0045 J-0.1186
X1.42 Y1.306 Z0.8249 I0.0045 J0.1186
X1.411 Y1.0688 Z0.8118 I-0.0045 J-0.1186
X1.42 Y1.306 Z0.7988 I0.0045 J0.1186
X1.411 Y1.0688 Z0.7858 I-0.0045 J-0.1186
X1.42 Y1.306 Z0.7728 I0.0045 J0.1186
X1.411 Y1.0688 Z0.7597 I-0.0045 J-0.1186
X1.42 Y1.306 Z0.7467 I0.0045 J0.1186
X1.411 Y1.0688 Z0.7337 I-0.0045 J-0.1186
X1.42 Y1.306 Z0.7206 I0.0045 J0.1186
X1.411 Y1.0688 Z0.7076 I-0.0045 J-0.1186
X1.42 Y1.306 Z0.6946 I0.0045 J0.1186
X1.411 Y1.0688 Z0.6816 I-0.0045 J-0.1186
X1.42 Y1.306 Z0.6685 I0.0045 J0.1186
X1.411 Y1.0688 Z0.6555 I-0.0045 J-0.1186
X1.42 Y1.306 Z0.6425 I0.0045 J0.1186
X1.411 Y1.0688 Z0.6294 I-0.0045 J-0.1186
X1.42 Y1.306 Z0.6164 I0.0045 J0.1186
X1.5342 Y1.1856 Z0.61 I-0.0045 J-0.1186
G3 X1.5409 Y1.0802 I0.6741 J-0.0101 F75
G1 X1.5665 Y0.9015
X1.5735 Y0.852 F18.75
G2 X1.5641 Y0.8446 I-0.0068 J-0.001
G3 X1.3685 Y0.8933 I-0.2587 J-0.6224 F75
X1.3186 Y0.8961 I-0.0631 J-0.6711 F18.75
G2 X1.3097 Y0.9071 I0.0002 J0.0093
G3 X1.2852 Y1.2469 I-0.6628 J0.1229 F75
X1.2674 Y1.2936 I-0.6383 J-0.2169 F18.75
G2 X1.2744 Y1.303 I0.0063 J0.0026
G3 X1.4924 Y1.314 I0.0755 J0.6699 F75
X1.5409 Y1.3264 I-0.1425 J0.6589 F18.75
G2 X1.5494 Y1.3184 I0.0019 J-0.0065
G3 X1.5342 Y1.1856 I0.6589 J-0.1429 F75
X1.6143 Y1.0737 I0.1158 J-0.0017
G2 X1.703 Y0.9688 I-0.0401 J-0.1238
G1 X1.7628 Y0.5599
G2 X1.7623 Y0.5489 I-0.0299 J-0.0042
G1 X1.7548 Y0.5164
X1.7435 Y0.4677 F18.75
G2 X1.7337 Y0.4671 I-0.005 J0.0012
G3 X1.6778 Y0.5807 I-0.5689 J-0.2092 F75
X1.5884 Y0.6703 I-0.2423 J-0.1524
X1.328 Y0.7508 I-0.2794 J-0.4424
X1.1075 Y0.7119 I-0.0194 J-0.5347
X1.0621 Y0.691 I0.2011 J-0.4958 F18.75
G1 X1.0607 Y0.6905
X1.0593 Y0.6906
X1.058 Y0.6913
X1.057 Y0.6924
X1.0565 Y0.6938
X1.0566 Y0.6953
X1.0572 Y0.6966
X1.0653 Y0.7069 F75
X1.0734 Y0.7173
G3 X1.0522 Y1.3714 I-0.4275 J0.3135
G1 X0.6221 Y1.8793
X0.5898 Y1.9175 F18.75
X0.5891 Y1.9188
X0.5889 Y1.9202
X0.5892 Y1.9216
X0.59 Y1.9228
X0.5912 Y1.9236
X0.5927 Y1.924
X0.5941 Y1.9237
X0.5954 Y1.923
X1.0058 Y1.5701 F75
G3 X1.8536 Y1.8088 I0.3441 J0.4028
X1.9057 Y1.9715 I-15.4168 J5.0235
G2 X1.9423 Y2.0865 I15.4596 J-4.858
X1.9577 Y2.1341 I15.423 J-4.973 F18.75
G1 X1.9585 Y2.1354
X1.9596 Y2.1364
X1.961 Y2.1369
X1.9625
X1.9639 Y2.1363
X1.965 Y2.1353
X1.9657 Y2.134
X1.9659 Y2.1325
X1.9389 Y1.7329 F75
G2 X1.9298 Y1.7064 I-0.0537 J0.0036
X1.8495 Y1.5892 I-9.2821 J6.272
G3 X1.7693 Y1.4721 I9.2018 J-6.389
X1.6838 Y1.1006 I0.439 J-0.2966
G1 X1.703 Y0.9688
X1.7031 Y0.9666
X1.6769 Y-0.0804
G2 X1.6519 Y-0.0805 I-0.0125 J0.0003
G1 X1.6377 Y0.2997
G3 X1.5594 Y0.5229 I-0.3997 J-0.0149
X1.519 Y0.5604 I-0.1205 J-0.0893
X1.0392 Y0.5208 I-0.2136 J-0.3382
G1 X0.6256 Y0.152
X0.5827 Y0.1137
X0.5454 Y0.0805 F18.75
Y0.1652 F75
Y0.2152 F18.75
X0.9695 Y0.7935 F75
G3 X0.9528 Y1.2877 I-0.3226 J0.2365
G1 X-0.0808 Y2.5149
X-0.0822 Y2.5169
X-0.0831 Y2.519
X-0.0837 Y2.5214
X-0.1013 Y2.6579
G2 X-0.0808 Y2.669 I0.0124 J0.0016
G1 X1.0901 Y1.6688
G3 X1.7302 Y1.849 I0.2598 J0.3041
G1 X2.1577 Y3.1608
X2.1583 Y3.1619
X2.1593 Y3.1626
X2.1606 Y3.1629
X2.1618 Y3.1626
X2.1628 Y3.1619
X2.1634 Y3.1608
X2.1637 Y3.1606
X2.0651 Y1.7023
G2 X2.0482 Y1.653 I-0.0997 J0.0067
G1 X1.8768 Y1.3994
G3 X1.8123 Y1.1189 I0.3315 J-0.2239
G1 X1.8937 Y0.5488
X1.784 Y0.0738
X1.7482 Y-0.081
G2 X1.7363 Y-0.0906 I-0.0121 J0.0028
G1 X1.6397 Y-0.0929
G2 X1.6269 Y-0.0809 I-0.0003 J0.0125
G1 X1.6127 Y0.2988
G3 X1.5393 Y0.508 I-0.3747 J-0.014
X1.5056 Y0.5393 I-0.1004 J-0.0744
X1.0558 Y0.5021 I-0.2002 J-0.3171
G1 X0.6422 Y0.1333
X0.5577 Y0.058
X0.5204 Y0.0247 F18.75
Y0.1733 F75
Y0.2233 F18.75
X0.9493 Y0.8082 F75
G3 X0.9337 Y1.2716 I-0.3024 J0.2218
G1 X-0.0807 Y2.4759
X-0.0821 Y2.4781
X-0.0831 Y2.4804
X-0.0836 Y2.4829
X-0.1012 Y2.6913
G2 X-0.0807 Y2.7018 I0.0124 J0.001
G1 X1.1063 Y1.6878
G3 X1.7065 Y1.8567 I0.2436 J0.2851
G1 X2.1313 Y3.1607
G2 X2.1414 Y3.1692 I0.0119 J-0.0039
G1 X2.1744 Y3.174
G2 X2.1887 Y3.1608 I0.0019 J-0.0123
G1 X2.0901 Y1.7006
G2 X2.0689 Y1.639 I-0.1247 J0.0084
G1 X1.8976 Y1.3854
G3 X1.8371 Y1.1225 I0.3107 J-0.2099
G1 X1.9191 Y0.5477
X1.7739 Y-0.0809
G2 X1.7504 Y-0.0834 I-0.0122 J0.0028
G1 X1.7093 Y0.0039
X1.7085 Y0.006
X1.7081 Y0.0081
X1.7082 Y0.0104
Y0.0124
X1.7079 Y0.0145
X1.5077 Y0.9204
X1.507 Y0.9225
X1.506 Y0.9245
X1.5047 Y0.9262
G3 X1.4937 Y0.9304 I-0.0094 J-0.0082
G1 X1.3662 Y0.9134
G2 X1.3561 Y0.9166 I-0.0016 J0.0124
X1.5167 Y1.0918 Z0.597 I0.0803 J0.0876 F13.333
X1.3561 Y0.9166 Z0.5839 I-0.0803 J-0.0876
X1.5167 Y1.0918 Z0.5709 I0.0803 J0.0876
X1.3561 Y0.9166 Z0.5579 I-0.0803 J-0.0876
X1.5167 Y1.0918 Z0.5449 I0.0803 J0.0876
X1.3561 Y0.9166 Z0.5318 I-0.0803 J-0.0876
X1.5167 Y1.0918 Z0.5188 I0.0803 J0.0876
X1.3561 Y0.9166 Z0.5058 I-0.0803 J-0.0876
X1.5167 Y1.0918 Z0.4928 I0.0803 J0.0876
X1.3561 Y0.9166 Z0.4797 I-0.0803 J-0.0876
X1.5167 Y1.0918 Z0.4667 I0.0803 J0.0876
X1.3561 Y0.9166 Z0.4537 I-0.0803 J-0.0876
X1.5167 Y1.0918 Z0.4406 I0.0803 J0.0876
X1.4167 Y0.887 Z0.43 I-0.0803 J-0.0876
G3 X1.3685 Y0.8933 I-0.1113 J-0.6648 F75
X1.3186 Y0.8961 I-0.0631 J-0.6711 F18.75
G2 X1.3097 Y0.9071 I0.0002 J0.0093
G3 X1.2852 Y1.2469 I-0.6628 J0.1229 F75
X1.2674 Y1.2936 I-0.6383 J-0.2169 F18.75
G2 X1.2744 Y1.303 I0.0063 J0.0026
G3 X1.4924 Y1.314 I0.0755 J0.6699 F75
X1.5409 Y1.3264 I-0.1425 J0.6589 F18.75
G2 X1.5494 Y1.3184 I0.0019 J-0.0065
G3 X1.5409 Y1.0802 I0.6589 J-0.1429 F75
G1 X1.5665 Y0.9015
X1.5735 Y0.852 F18.75
G2 X1.5641 Y0.8446 I-0.0068 J-0.001
G3 X1.4167 Y0.887 I-0.2587 J-0.6224 F75
X1.2892 Y0.8233 I-0.02 J-0.1194
G2 X1.1774 Y0.7347 I-0.1544 J0.08
G3 X1.1075 Y0.7118 I0.1312 J-0.5186
X1.0621 Y0.6909 I0.2011 J-0.4957 F18.75
G1 X1.0607 Y0.6905
X1.0593 Y0.6906
X1.058 Y0.6913
X1.057 Y0.6924
X1.0565 Y0.6938
X1.0566 Y0.6953
X1.0572 Y0.6966
X1.0653 Y0.7069 F75
X1.0734 Y0.7173
G3 X1.0522 Y1.3714 I-0.4275 J0.3135
G1 X0.6221 Y1.8793
X0.5898 Y1.9175 F18.75
X0.5891 Y1.9188
X0.5889 Y1.9202
X0.5892 Y1.9216
X0.59 Y1.9228
X0.5912 Y1.9236
X0.5927 Y1.924
X0.5941 Y1.9237
X0.5954 Y1.923
X1.0058 Y1.5701 F75
G3 X1.8536 Y1.8088 I0.3441 J0.4028
X1.9057 Y1.9715 I-15.4168 J5.0235
G2 X1.9423 Y2.0865 I15.4596 J-4.858
X1.9577 Y2.1341 I15.423 J-4.973 F18.75
G1 X1.9585 Y2.1354
X1.9596 Y2.1364
X1.961 Y2.1369
X1.9625
X1.9639 Y2.1363
X1.965 Y2.1353
X1.9657 Y2.134
X1.9659 Y2.1325
X1.9389 Y1.7329 F75
G2 X1.9298 Y1.7064 I-0.0537 J0.0036
X1.8495 Y1.5892 I-9.2821 J6.272
G3 X1.7693 Y1.4721 I9.2018 J-6.389
X1.6838 Y1.1006 I0.439 J-0.2966
G1 X1.7628 Y0.5599
G2 X1.7623 Y0.5489 I-0.0299 J-0.0042
G1 X1.7548 Y0.5164
X1.7435 Y0.4677 F18.75
G2 X1.7337 Y0.4671 I-0.005 J0.0012
G3 X1.6778 Y0.5807 I-0.5689 J-0.2092 F75
X1.5884 Y0.6703 I-0.2423 J-0.1524
X1.328 Y0.7508 I-0.2794 J-0.4424
X1.1774 Y0.7348 I-0.0194 J-0.5347
G2 X1.164 Y0.7537 I-0.0031 J0.012
G1 X1.2 Y0.8079
X1.2012 Y0.8094
X1.2025 Y0.8106
G2 X1.599 Y0.6603 I0.1548 J-0.1898
G1 X1.7021 Y0.0316
G2 X1.7042 Y-0.0312 I-0.2418 J-0.0396
G1 X1.7037 Y-0.0336
X1.7027 Y-0.036
X1.6754 Y-0.0861
G2 X1.6519 Y-0.0805 I-0.011 J0.006
G1 X1.6377 Y0.2997
G3 X1.5594 Y0.5229 I-0.3997 J-0.0149
X1.519 Y0.5604 I-0.1205 J-0.0893
X1.0392 Y0.5208 I-0.2136 J-0.3382
G1 X0.6256 Y0.152
X0.5827 Y0.1137
X0.5454 Y0.0805 F18.75
Y0.1652 F75
Y0.2152 F18.75
X0.9695 Y0.7935 F75
G3 X0.9528 Y1.2877 I-0.3226 J0.2365
G1 X-0.0808 Y2.5149
X-0.0822 Y2.5169
X-0.0831 Y2.519
X-0.0837 Y2.5214
X-0.1013 Y2.6579
G2 X-0.0808 Y2.669 I0.0124 J0.0016
G1 X1.0901 Y1.6688
G3 X1.7302 Y1.849 I0.2598 J0.3041
G1 X2.1577 Y3.1608
X2.1583 Y3.1619
X2.1593 Y3.1626
X2.1606 Y3.1629
X2.1618 Y3.1626
X2.1628 Y3.1619
X2.1634 Y3.1608
X2.1637 Y3.1606
X2.0651 Y1.7023
G2 X2.0482 Y1.653 I-0.0997 J0.0067
G1 X1.8768 Y1.3994
G3 X1.8123 Y1.1189 I0.3315 J-0.2239
G1 X1.8937 Y0.5488
X1.784 Y0.0738
X1.7482 Y-0.081
G2 X1.7363 Y-0.0906 I-0.0121 J0.0028
G1 X1.6397 Y-0.0929
G2 X1.6269 Y-0.0809 I-0.0003 J0.0125
G1 X1.6127 Y0.2988
G3 X1.5393 Y0.508 I-0.3747 J-0.014
X1.5056 Y0.5393 I-0.1004 J-0.0744
X1.0558 Y0.5021 I-0.2002 J-0.3171
G1 X0.6422 Y0.1333
X0.5577 Y0.058
X0.5204 Y0.0247 F18.75
Y0.1733 F75
Y0.2233 F18.75
X0.9493 Y0.8082 F75
G3 X0.9337 Y1.2716 I-0.3024 J0.2218
G1 X-0.0807 Y2.4759
X-0.0821 Y2.4781
X-0.0831 Y2.4804
X-0.0836 Y2.4829
X-0.1012 Y2.6913
G2 X-0.0807 Y2.7018 I0.0124 J0.001
G1 X1.1063 Y1.6878
G3 X1.7065 Y1.8567 I0.2436 J0.2851
G1 X2.1313 Y3.1607
G2 X2.1414 Y3.1692 I0.0119 J-0.0039
G1 X2.1744 Y3.174
G2 X2.1887 Y3.1608 I0.0019 J-0.0123
G1 X2.0901 Y1.7006
G2 X2.0689 Y1.639 I-0.1247 J0.0084
G1 X1.8976 Y1.3854
G3 X1.8371 Y1.1225 I0.3107 J-0.2099
G1 X1.9191 Y0.5477
X1.7739 Y-0.0809
G2 X1.7504 Y-0.0834 I-0.0122 J0.0028
G1 X1.7093 Y0.0039
X1.7085 Y0.006
X1.7081 Y0.0081
X1.7082 Y0.0104
Y0.0124
X1.7079 Y0.0145
X1.5077 Y0.9204
X1.507 Y0.9225
X1.506 Y0.9245
X1.5047 Y0.9262
G3 X1.4937 Y0.9304 I-0.0094 J-0.0082
G1 X1.3662 Y0.9134
G2 X1.3561 Y0.9166 I-0.0016 J0.0124
X1.5167 Y1.0918 Z0.417 I0.0803 J0.0876 F13.333
X1.3561 Y0.9166 Z0.4039 I-0.0803 J-0.0876
X1.5167 Y1.0918 Z0.3909 I0.0803 J0.0876
X1.3561 Y0.9166 Z0.3779 I-0.0803 J-0.0876
X1.5167 Y1.0918 Z0.3649 I0.0803 J0.0876
X1.3561 Y0.9166 Z0.3518 I-0.0803 J-0.0876
X1.5167 Y1.0918 Z0.3388 I0.0803 J0.0876
X1.3561 Y0.9166 Z0.3258 I-0.0803 J-0.0876
X1.5167 Y1.0918 Z0.3128 I0.0803 J0.0876
X1.3561 Y0.9166 Z0.2997 I-0.0803 J-0.0876
X1.5167 Y1.0918 Z0.2867 I0.0803 J0.0876
X1.3561 Y0.9166 Z0.2737 I-0.0803 J-0.0876
X1.5167 Y1.0918 Z0.2606 I0.0803 J0.0876
X1.4167 Y0.887 Z0.25 I-0.0803 J-0.0876
G3 X1.3685 Y0.8933 I-0.1113 J-0.6648 F75
X1.3186 Y0.8961 I-0.0631 J-0.6711 F18.75
G2 X1.3097 Y0.9071 I0.0002 J0.0093
G3 X1.2852 Y1.2469 I-0.6628 J0.1229 F75
X1.2674 Y1.2936 I-0.6383 J-0.2169 F18.75
G2 X1.2744 Y1.303 I0.0063 J0.0026
G3 X1.4924 Y1.314 I0.0755 J0.6699 F75
X1.5409 Y1.3264 I-0.1425 J0.6589 F18.75
G2 X1.5494 Y1.3184 I0.0019 J-0.0065
G3 X1.5409 Y1.0802 I0.6589 J-0.1429 F75
G1 X1.5665 Y0.9015
X1.5735 Y0.852 F18.75
G2 X1.5641 Y0.8446 I-0.0068 J-0.001
G3 X1.4167 Y0.887 I-0.2587 J-0.6224 F75
X1.2892 Y0.8233 I-0.02 J-0.1194
G2 X1.1774 Y0.7347 I-0.1544 J0.08
G3 X1.1075 Y0.7118 I0.1312 J-0.5186
X1.0621 Y0.6909 I0.2011 J-0.4957 F18.75
G1 X1.0607 Y0.6905
X1.0593 Y0.6906
X1.058 Y0.6913
X1.057 Y0.6924
X1.0565 Y0.6938
X1.0566 Y0.6953
X1.0572 Y0.6966
X1.0653 Y0.7069 F75
X1.0734 Y0.7173
G3 X1.0522 Y1.3714 I-0.4275 J0.3135
G1 X0.6221 Y1.8793
X0.5898 Y1.9175 F18.75
X0.5891 Y1.9188
X0.5889 Y1.9202
X0.5892 Y1.9216
X0.59 Y1.9228
X0.5912 Y1.9236
X0.5927 Y1.924
X0.5941 Y1.9237
X0.5954 Y1.923
X1.0058 Y1.5701 F75
G3 X1.8536 Y1.8088 I0.3441 J0.4028
X1.9057 Y1.9715 I-15.4168 J5.0235
G2 X1.9423 Y2.0865 I15.4596 J-4.858
X1.9577 Y2.1341 I15.423 J-4.973 F18.75
G1 X1.9585 Y2.1354
X1.9596 Y2.1364
X1.961 Y2.1369
X1.9625
X1.9639 Y2.1363
X1.965 Y2.1353
X1.9657 Y2.134
X1.9659 Y2.1325
X1.9389 Y1.7329 F75
G2 X1.9298 Y1.7064 I-0.0537 J0.0036
X1.8495 Y1.5892 I-9.2821 J6.272
G3 X1.7693 Y1.4721 I9.2018 J-6.389
X1.6838 Y1.1006 I0.439 J-0.2966
G1 X1.7628 Y0.5599
G2 X1.7623 Y0.5489 I-0.0299 J-0.0042
G1 X1.7548 Y0.5164
X1.7435 Y0.4677 F18.75
G2 X1.7337 Y0.4671 I-0.005 J0.0012
G3 X1.6778 Y0.5807 I-0.5689 J-0.2092 F75
X1.5884 Y0.6703 I-0.2423 J-0.1524
X1.328 Y0.7508 I-0.2794 J-0.4424
X1.1774 Y0.7348 I-0.0194 J-0.5347
G2 X1.164 Y0.7537 I-0.0031 J0.012
G1 X1.2 Y0.8079
X1.2012 Y0.8094
X1.2025 Y0.8106
G2 X1.599 Y0.6603 I0.1548 J-0.1898
G1 X1.7021 Y0.0316
G2 X1.7042 Y-0.0312 I-0.2418 J-0.0396
G1 X1.7037 Y-0.0336
X1.7027 Y-0.036
X1.6754 Y-0.0861
G2 X1.6519 Y-0.0805 I-0.011 J0.006
G1 X1.6377 Y0.2997
G3 X1.5594 Y0.5229 I-0.3997 J-0.0149
X1.519 Y0.5604 I-0.1205 J-0.0893
X1.0392 Y0.5208 I-0.2136 J-0.3382
G1 X0.6256 Y0.152
X0.5827 Y0.1137
X0.5454 Y0.0805 F18.75
Y0.1652 F75
Y0.2152 F18.75
X0.9695 Y0.7935 F75
G3 X0.9528 Y1.2877 I-0.3226 J0.2365
G1 X-0.0808 Y2.5149
X-0.0822 Y2.5169
X-0.0831 Y2.519
X-0.0837 Y2.5214
X-0.1013 Y2.6579
G2 X-0.0808 Y2.669 I0.0124 J0.0016
G1 X1.0901 Y1.6688
G3 X1.7302 Y1.849 I0.2598 J0.3041
G1 X2.1577 Y3.1608
X2.1583 Y3.1619
X2.1593 Y3.1626
X2.1606 Y3.1629
X2.1618 Y3.1626
X2.1628 Y3.1619
X2.1634 Y3.1608
X2.1637 Y3.1606
X2.0651 Y1.7023
G2 X2.0482 Y1.653 I-0.0997 J0.0067
G1 X1.8768 Y1.3994
G3 X1.8123 Y1.1189 I0.3315 J-0.2239
G1 X1.8937 Y0.5488
X1.784 Y0.0738
X1.7482 Y-0.081
G2 X1.7363 Y-0.0906 I-0.0121 J0.0028
G1 X1.6397 Y-0.0929
G2 X1.6269 Y-0.0809 I-0.0003 J0.0125
G1 X1.6127 Y0.2988
G3 X1.5393 Y0.508 I-0.3747 J-0.014
X1.5056 Y0.5393 I-0.1004 J-0.0744
X1.0558 Y0.5021 I-0.2002 J-0.3171
G1 X0.6422 Y0.1333
X0.5577 Y0.058
X0.5204 Y0.0247 F18.75
Y0.1733 F75
Y0.2233 F18.75
X0.9493 Y0.8082 F75
G3 X0.9337 Y1.2716 I-0.3024 J0.2218
G1 X-0.0807 Y2.4759
X-0.0821 Y2.4781
X-0.0831 Y2.4804
X-0.0836 Y2.4829
X-0.1012 Y2.6913
G2 X-0.0807 Y2.7018 I0.0124 J0.001
G1 X1.1063 Y1.6878
G3 X1.7065 Y1.8567 I0.2436 J0.2851
G1 X2.1313 Y3.1607
G2 X2.1414 Y3.1692 I0.0119 J-0.0039
G1 X2.1744 Y3.174
G2 X2.1887 Y3.1608 I0.0019 J-0.0123
G1 X2.0901 Y1.7006
G2 X2.0689 Y1.639 I-0.1247 J0.0084
G1 X1.8976 Y1.3854
G3 X1.8371 Y1.1225 I0.3107 J-0.2099
G1 X1.9191 Y0.5477
X1.7739 Y-0.0809
X1.7727 Y-0.0846
X1.7687 Y-0.0946
X1.7673 Y-0.0982 Z0.2503
X1.7658 Y-0.1017 Z0.2512
X1.7645 Y-0.1051 Z0.2527
X1.7632 Y-0.1082 Z0.2548
X1.7621 Y-0.111 Z0.2573
X1.7611 Y-0.1133 Z0.2603
X1.7604 Y-0.1152 Z0.2637
X1.7598 Y-0.1166 Z0.2673
X1.7595 Y-0.1175 Z0.2711
X1.7593 Y-0.1178 Z0.275
G0 Z1.39
X5.1317 Y3.1808
Z0.99
G1 Z0.8294 F15
Z0.635 F75
X5.1315 Y3.1806 Z0.6311
X5.1309 Y3.1799 Z0.6273
X5.1299 Y3.1787 Z0.6237
X5.1287 Y3.1771 Z0.6203
X5.127 Y3.1752 Z0.6173
X5.1252 Y3.1729 Z0.6148
X5.123 Y3.1703 Z0.6127
X5.1207 Y3.1675 Z0.6112
X5.1183 Y3.1645 Z0.6103
X5.1159 Y3.1615 Z0.61
X4.1759 Y2.0097
G3 X4.2532 Y1.249 I0.419 J-0.3417
X4.3788 Y1.1477 I9.3872 J11.5088
G2 X4.5044 Y1.0464 I-9.2061 J-11.5413
X4.5155 Y1.0194 I-0.0193 J-0.0237
X4.5015 Y0.9102 I-2.8462 J0.3101
G3 X4.4911 Y0.8006 I1.041 J-0.1542
X4.4854 Y0.6459 I13.5828 J-0.576
G2 X4.4797 Y0.4911 I-13.5888 J0.4212
G1 X4.4793 Y0.4896
X4.4785 Y0.4883
X4.4773 Y0.4873
X4.4758 Y0.4868
X4.4743
X4.4729 Y0.4873
X4.4716 Y0.4882
X4.4708 Y0.4895
X4.4268 Y0.592
X4.3832 Y0.6946
X4.3398 Y0.7973
G3 X4.1207 Y1.0502 I-0.4966 J-0.2089
G1 X3.9854 Y1.1314
G3 X3.2421 Y0.9439 I-0.2784 J-0.4635
G1 X2.94 Y0.4352
G2 X2.8649 Y0.3209 I-3.5343 J2.2405
X2.854 Y0.3229 I-0.005 J0.0034
G1 X2.8133 Y0.4962
G2 X2.8192 Y0.5334 I0.0483 J0.0114
G1 X3.296 Y1.3127
G3 X3.3698 Y1.668 I-0.4618 J0.2813
G1 X3.1902 Y2.956
X3.1903 Y2.9576
X3.1908 Y2.959
X3.1918 Y2.9602
X3.1932 Y2.9611
X3.1947 Y2.9614
X3.1962 Y2.9612
X3.1976 Y2.9605
X3.1987 Y2.9595
X3.7232 Y2.2364
G3 X3.8778 Y2.1105 I0.3159 J0.2301
G2 X3.8448 Y1.9328 I-0.1006 J-0.0732
G3 X3.7481 Y1.7799 I0.1172 J-0.1811
X3.7451 Y1.5818 I0.8468 J-0.1119
X3.7516 Y1.5322 I0.8498 J0.0862 F18.75
G2 X3.7419 Y1.5213 I-0.0093 J-0.0015
G3 X3.6957 Y1.5219 I-0.0349 J-0.8534
G2 X3.686 Y1.5321 I-0.0002 J0.0095
G3 X3.6887 Y1.6217 I-1.0534 J0.0766 F75
X3.682 Y1.7111 I-0.7181 J-0.0089
X3.6706 Y1.7872 I-3.2624 J-0.4505
G2 X3.6664 Y1.8139 I3.2513 J0.5267
X3.6592 Y1.8634 I3.2555 J0.5 F18.75
G1 X3.6593 Y1.865
X3.6599 Y1.8666
X3.661 Y1.8679
X3.6624 Y1.8689
X3.664 Y1.8693
X3.6657 Y1.8692
X3.6672 Y1.8685
G3 X3.743 Y1.8276 I0.3719 J0.598 F75
G2 X3.7525 Y1.8095 I-0.0071 J-0.0153
G3 X3.7481 Y1.78 I0.8424 J-0.1415
X3.7833 Y1.7109 I0.0677 J-0.009
G2 X3.8239 Y1.6451 I-0.0368 J-0.0681
G3 X3.8462 Y1.4824 I0.771 J0.0229
X3.8598 Y1.4342 I0.7487 J0.1856 F18.75
G2 X3.852 Y1.4255 I-0.0065 J-0.002
G3 X3.6473 Y1.4369 I-0.145 J-0.7576 F75
X3.5976 Y1.4314 I0.0597 J-0.769 F18.75
G2 X3.5899 Y1.4396 I-0.001 J0.0068
G3 X3.606 Y1.5692 I-0.8212 J0.1678 F75
X3.6 Y1.6997 I-0.7151 J0.0326
G1 X3.5539 Y2.0225
X3.5469 Y2.072 F18.75
Y2.0737
X3.5475 Y2.0752
X3.5485 Y2.0765
X3.5499 Y2.0774
X3.5515 Y2.0778
X3.5531 Y2.0777
X3.5546 Y2.077
X3.5559 Y2.0759
G3 X3.7939 Y1.8956 I0.4832 J0.3906 F75
X3.8406 Y1.8777 I0.2452 J0.5709 F18.75
G2 X3.8486 Y1.8629 I-0.0039 J-0.0117
G3 X3.8239 Y1.6451 I0.7463 J-0.1949 F75
X3.9095 Y1.5325 I0.1216 J0.0036
G2 X4.0132 Y1.4363 I-0.0484 J-0.1562
G3 X4.1985 Y1.182 I0.5835 J0.2306
X4.3058 Y1.0956 I6.6959 J8.2091
G2 X4.4131 Y1.0092 I-6.5577 J-8.2572
X4.4243 Y0.9818 I-0.0196 J-0.024
G1 X4.4174 Y0.9164
X4.4119 Y0.8667 F18.75
G2 X4.4022 Y0.865 I-0.0051 J0.0006
G3 X4.3022 Y1.0116 I-0.5807 J-0.2887 F75
X4.1652 Y1.1243 I-0.4489 J-0.4064
G1 X4.0299 Y1.2054
G3 X3.3395 Y1.174 I-0.3216 J-0.5353
X3.3004 Y1.1429 I0.3688 J-0.5039 F18.75
G1 X3.299 Y1.1421
X3.2975 Y1.142
X3.296 Y1.1424
X3.2948 Y1.1434
X3.2941 Y1.1448
X3.294 Y1.1463
X3.2946 Y1.1478
G2 X3.3322 Y1.2078 I2.3788 J-1.449 F75
G3 X3.3698 Y1.2678 I-2.3423 J1.5097
X3.4554 Y1.6798 I-0.5356 J0.3262
G1 X3.3297 Y2.5777
X3.3228 Y2.6272 F18.75
Y2.6288
X3.3234 Y2.6303
X3.3244 Y2.6315
X3.3257 Y2.6323
X3.3273 Y2.6327
X3.3289 Y2.6325
X3.3303 Y2.6318
X3.3315 Y2.6307
X3.6535 Y2.1856 F75
G3 X3.8267 Y2.0404 I0.3792 J0.2763
X3.9974 Y1.9931 I0.2122 J0.4342
X4.0473 Y1.9914 I0.0415 J0.4815 F18.75
G2 X4.0536 Y1.9807 I0.0002 J-0.0071
G3 X4.0133 Y1.4364 I0.5431 J-0.3138 F75
G1 X4.0144 Y1.4327 Z0.6106
X4.015 Y1.4289 Z0.6112
Y1.4254 Z0.613
X4.0145 Y1.4219 Z0.6148
X4.0138 Y1.4193 Z0.6175
X4.0127 Y1.4167 Z0.6203
X4.011 Y1.4136 Z0.6273
X4.0104 Y1.4126 Z0.635
G0 Z0.99
X5.1476 Y3.2004
G1 Z0.635 F15
X5.1474 Y3.2001 Z0.6311 F75
X5.1468 Y3.1994 Z0.6273
X5.1459 Y3.1983 Z0.6237
X5.1446 Y3.1967 Z0.6203
X5.143 Y3.1947 Z0.6173
X5.1411 Y3.1924 Z0.6148
X5.139 Y3.1898 Z0.6127
X5.1367 Y3.187 Z0.6112
X5.1343 Y3.184 Z0.6103
X5.1318 Y3.181 Z0.61
X5.1152 Y3.1607
X4.1759 Y2.0097
G3 X4.2532 Y1.249 I0.419 J-0.3417
X4.3788 Y1.1477 I9.3872 J11.5088
G2 X4.5044 Y1.0464 I-9.2061 J-11.5413
X4.5155 Y1.0194 I-0.0193 J-0.0237
X4.5015 Y0.9102 I-2.8462 J0.3101
G3 X4.4911 Y0.8006 I1.041 J-0.1542
X4.4854 Y0.6459 I13.5828 J-0.576
G2 X4.4817 Y0.5411 I-13.5888 J0.4212
X4.4797 Y0.4911 I-13.5851 J0.526 F18.75
G1 X4.4793 Y0.4896
X4.4785 Y0.4883
X4.4773 Y0.4873
X4.4758 Y0.4868
X4.4743
X4.4729 Y0.4873
X4.4716 Y0.4882
X4.4708 Y0.4895
X4.4268 Y0.592 F75
X4.3832 Y0.6946
X4.3398 Y0.7973
G3 X4.1207 Y1.0502 I-0.4966 J-0.2089
G1 X3.9854 Y1.1314
G3 X3.2421 Y0.9439 I-0.2784 J-0.4635
G1 X2.94 Y0.4352
G2 X2.8928 Y0.3624 I-3.5343 J2.2405
X2.8649 Y0.3209 I-3.4871 J2.3133 F18.75
X2.854 Y0.3229 I-0.005 J0.0034
G1 X2.8133 Y0.4962 F75
G2 X2.8192 Y0.5334 I0.0483 J0.0114
G1 X3.296 Y1.3127
G3 X3.3698 Y1.668 I-0.4618 J0.2813
G1 X3.1972 Y2.9065
X3.1902 Y2.956 F18.75
X3.1903 Y2.9576
X3.1908 Y2.959
X3.1918 Y2.9602
X3.1932 Y2.9611
X3.1947 Y2.9614
X3.1962 Y2.9612
X3.1976 Y2.9605
X3.1987 Y2.9595
X3.7232 Y2.2364 F75
G3 X4.3575 Y2.2398 I0.3159 J0.2301
G1 X5.0127 Y3.1608
G2 X5.0221 Y3.1659 I0.0101 J-0.0073
G1 X5.2858 Y3.181
G2 X5.2962 Y3.1606 I0.0007 J-0.0125
G1 X4.2849 Y1.9208
G3 X4.3421 Y1.358 I0.31 J-0.2528
G1 X4.6214 Y1.1301
G2 X4.6575 Y1.0418 I-0.0632 J-0.0774
G1 X4.6336 Y0.8211
G3 X4.6316 Y0.7947 I0.3976 J-0.0435
G1 X4.5998 Y0.0464
X4.5944 Y-0.081
G2 X4.574 Y-0.0901 I-0.0125 J0.0006
G1 X4.5686 Y-0.0857
X4.5672 Y-0.0843
X4.566 Y-0.0827
X4.5651 Y-0.0809
X4.4875 Y0.0993
X4.2096 Y0.7448
G3 X4.0482 Y0.9296 I-0.3674 J-0.1581
G1 X3.913 Y1.0108
G3 X3.363 Y0.8721 I-0.206 J-0.3429
G1 X3.0589 Y0.3599
X2.8227 Y0.0102
X2.7947 Y-0.0312 F18.75
X2.6697 Y0.4997 F75
G2 X2.6816 Y0.5746 I0.0974 J0.0229
G1 X3.1759 Y1.3859
G3 X3.2305 Y1.6487 I-0.3417 J0.2081
G1 X3.0356 Y3.0605
X3.0217 Y3.1605
G2 X3.0347 Y3.1747 I0.0124 J0.0017
G1 X3.2145 Y3.1659
G2 X3.224 Y3.1607 I-0.0006 J-0.0125
G1 X3.3763 Y2.9517
X3.837 Y2.3193
G3 X4.2428 Y2.3215 I0.2021 J0.1472
G1 X4.6924 Y2.953
X4.8402 Y3.1606
G2 X4.85 Y3.1659 I0.0102 J-0.0072
G1 X5.3187 Y3.1813
G2 X5.3288 Y3.1609 I0.0004 J-0.0125
G1 X4.3043 Y1.905
G3 X4.3579 Y1.3774 I0.2906 J-0.237
G1 X4.6372 Y1.1495
G2 X4.6824 Y1.0391 I-0.079 J-0.0968
G1 X4.6584 Y0.8184
G3 X4.6565 Y0.7937 I0.3728 J-0.0408
G1 X4.6248 Y0.0453
X4.6195 Y-0.0806
G2 X4.6061 Y-0.0925 I-0.0125 J0.0006
G1 X4.5483 Y-0.0882
G2 X4.5377 Y-0.0807 I0.0009 J0.0125
G1 X4.4645 Y0.0894
X4.1867 Y0.7349
G3 X4.0353 Y0.9082 I-0.3445 J-0.1482
G1 X3.9001 Y0.9894
G3 X3.3845 Y0.8593 I-0.1931 J-0.3215
G1 X3.0801 Y0.3465
X2.7913 Y-0.0809
X2.7902 Y-0.0825
X2.7889 Y-0.0837
X2.7874 Y-0.0845
X2.7857 Y-0.0847
X2.784 Y-0.0844
X2.7824 Y-0.0835
X2.7813 Y-0.0822
X2.7806 Y-0.0806
X2.7455 Y0.0686
X2.6454 Y0.494
G2 X2.6603 Y0.5876 I0.1217 J0.0286
G1 X3.1545 Y1.3989
G3 X3.2057 Y1.6453 I-0.3203 J0.1951
G1 X2.9965 Y3.1605
G2 X3.0094 Y3.1747 I0.0124 J0.0017
G1 X3.2453 Y3.1659
G2 X3.2549 Y3.1608 I-0.0005 J-0.0125
G1 X3.3965 Y2.9664
X3.8572 Y2.334
G3 X4.2224 Y2.336 I0.1819 J0.1325
G1 X4.672 Y2.9675
X4.8096 Y3.1607
X4.8112 Y3.1626
X4.8131 Y3.1641
X4.8153 Y3.1652
X4.8177 Y3.1658
X5.1357 Y3.2204
G2 X5.1475 Y3.2002 I0.0021 J-0.0123
G1 X5.145 Y3.1972 Z0.6097
X5.1426 Y3.1942 Z0.6088
X5.1403 Y3.1914 Z0.6073
X5.1382 Y3.1888 Z0.6052
X5.1363 Y3.1865 Z0.6027
X5.1347 Y3.1845 Z0.5997
X5.1334 Y3.183 Z0.5963
X5.1324 Y3.1818 Z0.5927
X5.1319 Y3.1811 Z0.5889
X5.1317 Y3.1808 Z0.585
Z0.455
X5.1315 Y3.1806 Z0.4511
X5.1309 Y3.1799 Z0.4473
X5.1299 Y3.1787 Z0.4437
X5.1287 Y3.1771 Z0.4403
X5.127 Y3.1752 Z0.4373
X5.1252 Y3.1729 Z0.4348
X5.123 Y3.1703 Z0.4327
X5.1207 Y3.1675 Z0.4312
X5.1183 Y3.1645 Z0.4303
X5.1159 Y3.1615 Z0.43
X4.1759 Y2.0097
G3 X4.2532 Y1.249 I0.419 J-0.3417
X4.3788 Y1.1477 I9.3872 J11.5088
G2 X4.5044 Y1.0464 I-9.2061 J-11.5413
X4.5155 Y1.0194 I-0.0193 J-0.0237
X4.5015 Y0.9102 I-2.8462 J0.3101
G3 X4.4911 Y0.8006 I1.041 J-0.1542
X4.4854 Y0.6459 I13.5828 J-0.576
G2 X4.4797 Y0.4911 I-13.5888 J0.4212
G1 X4.4793 Y0.4896
X4.4785 Y0.4883
X4.4773 Y0.4873
X4.4758 Y0.4868
X4.4743
X4.4729 Y0.4873
X4.4716 Y0.4882
X4.4708 Y0.4895
X4.4268 Y0.592
X4.3832 Y0.6946
X4.3398 Y0.7973
G3 X4.1207 Y1.0502 I-0.4966 J-0.2089
G1 X3.9854 Y1.1314
G3 X3.2421 Y0.9439 I-0.2784 J-0.4635
G1 X2.94 Y0.4352
G2 X2.8649 Y0.3209 I-3.5343 J2.2405
X2.854 Y0.3229 I-0.005 J0.0034
G1 X2.8133 Y0.4962
G2 X2.8192 Y0.5334 I0.0483 J0.0114
G1 X3.296 Y1.3127
G3 X3.3698 Y1.668 I-0.4618 J0.2813
G1 X3.1902 Y2.956
X3.1903 Y2.9576
X3.1908 Y2.959
X3.1918 Y2.9602
X3.1932 Y2.9611
X3.1947 Y2.9614
X3.1962 Y2.9612
X3.1976 Y2.9605
X3.1987 Y2.9595
X3.7232 Y2.2364
G3 X3.8778 Y2.1105 I0.3159 J0.2301
G2 X3.8448 Y1.9328 I-0.1006 J-0.0732
G3 X3.7481 Y1.7799 I0.1172 J-0.1811
X3.7451 Y1.5818 I0.8468 J-0.1119
X3.7516 Y1.5322 I0.8498 J0.0862 F18.75
G2 X3.7419 Y1.5213 I-0.0093 J-0.0015
G3 X3.6957 Y1.5219 I-0.0349 J-0.8534
G2 X3.686 Y1.5321 I-0.0002 J0.0095
G3 X3.6887 Y1.6217 I-1.0534 J0.0766 F75
X3.682 Y1.7111 I-0.7181 J-0.0089
X3.6706 Y1.7872 I-3.2624 J-0.4505
G2 X3.6664 Y1.8139 I3.2513 J0.5267
X3.6592 Y1.8634 I3.2555 J0.5 F18.75
G1 X3.6593 Y1.865
X3.6599 Y1.8666
X3.661 Y1.8679
X3.6624 Y1.8689
X3.664 Y1.8693
X3.6657 Y1.8692
X3.6672 Y1.8685
G3 X3.743 Y1.8276 I0.3719 J0.598 F75
G2 X3.7525 Y1.8095 I-0.0071 J-0.0153
G3 X3.7481 Y1.78 I0.8424 J-0.1415
X3.7833 Y1.7109 I0.0677 J-0.009
G2 X3.8239 Y1.6451 I-0.0368 J-0.0681
G3 X3.8462 Y1.4824 I0.771 J0.0229
X3.8598 Y1.4342 I0.7487 J0.1856 F18.75
G2 X3.852 Y1.4255 I-0.0065 J-0.002
G3 X3.6473 Y1.4369 I-0.145 J-0.7576 F75
X3.5976 Y1.4314 I0.0597 J-0.769 F18.75
G2 X3.5899 Y1.4396 I-0.001 J0.0068
G3 X3.606 Y1.5692 I-0.8212 J0.1678 F75
X3.6 Y1.6997 I-0.7151 J0.0326
G1 X3.5539 Y2.0225
X3.5469 Y2.072 F18.75
Y2.0737
X3.5475 Y2.0752
X3.5485 Y2.0765
X3.5499 Y2.0774
X3.5515 Y2.0778
X3.5531 Y2.0777
X3.5546 Y2.077
X3.5559 Y2.0759
G3 X3.7939 Y1.8956 I0.4832 J0.3906 F75
X3.8406 Y1.8777 I0.2452 J0.5709 F18.75
G2 X3.8486 Y1.8629 I-0.0039 J-0.0117
G3 X3.8239 Y1.6451 I0.7463 J-0.1949 F75
X3.9095 Y1.5325 I0.1216 J0.0036
G2 X4.0132 Y1.4363 I-0.0484 J-0.1562
G3 X4.1985 Y1.182 I0.5835 J0.2306
X4.3058 Y1.0956 I6.6959 J8.2091
G2 X4.4131 Y1.0092 I-6.5577 J-8.2572
X4.4243 Y0.9818 I-0.0196 J-0.024
G1 X4.4174 Y0.9164
X4.4119 Y0.8667 F18.75
G2 X4.4022 Y0.865 I-0.0051 J0.0006
G3 X4.3022 Y1.0116 I-0.5807 J-0.2887 F75
X4.1652 Y1.1243 I-0.4489 J-0.4064
G1 X4.0299 Y1.2054
G3 X3.3395 Y1.174 I-0.3216 J-0.5353
X3.3004 Y1.1429 I0.3688 J-0.5039 F18.75
G1 X3.299 Y1.1421
X3.2975 Y1.142
X3.296 Y1.1424
X3.2948 Y1.1434
X3.2941 Y1.1448
X3.294 Y1.1463
X3.2946 Y1.1478
G2 X3.3322 Y1.2078 I2.3788 J-1.449 F75
G3 X3.3698 Y1.2678 I-2.3423 J1.5097
X3.4554 Y1.6798 I-0.5356 J0.3262
G1 X3.3297 Y2.5777
X3.3228 Y2.6272 F18.75
Y2.6288
X3.3234 Y2.6303
X3.3244 Y2.6315
X3.3257 Y2.6323
X3.3273 Y2.6327
X3.3289 Y2.6325
X3.3303 Y2.6318
X3.3315 Y2.6307
X3.6535 Y2.1856 F75
G3 X3.8267 Y2.0404 I0.3792 J0.2763
X3.9974 Y1.9931 I0.2122 J0.4342
X4.0473 Y1.9914 I0.0415 J0.4815 F18.75
G2 X4.0536 Y1.9807 I0.0002 J-0.0071
G3 X4.0133 Y1.4364 I0.5431 J-0.3138 F75
G1 X4.0144 Y1.4327 Z0.4306
X4.015 Y1.4289 Z0.4312
Y1.4254 Z0.433
X4.0145 Y1.4219 Z0.4348
X4.0138 Y1.4193 Z0.4375
X4.0127 Y1.4167 Z0.4403
X4.011 Y1.4136 Z0.4473
X4.0104 Y1.4126 Z0.455
G0 Z0.99
X5.1476 Y3.2004
G1 Z0.455 F15
X5.1474 Y3.2001 Z0.4511 F75
X5.1468 Y3.1994 Z0.4473
X5.1459 Y3.1983 Z0.4437
X5.1446 Y3.1967 Z0.4403
X5.143 Y3.1947 Z0.4373
X5.1411 Y3.1924 Z0.4348
X5.139 Y3.1898 Z0.4327
X5.1367 Y3.187 Z0.4312
X5.1343 Y3.184 Z0.4303
X5.1318 Y3.181 Z0.43
X5.1152 Y3.1607
X4.1759 Y2.0097
G3 X4.2532 Y1.249 I0.419 J-0.3417
X4.3788 Y1.1477 I9.3872 J11.5088
G2 X4.5044 Y1.0464 I-9.2061 J-11.5413
X4.5155 Y1.0194 I-0.0193 J-0.0237
X4.5015 Y0.9102 I-2.8462 J0.3101
G3 X4.4911 Y0.8006 I1.041 J-0.1542
X4.4854 Y0.6459 I13.5828 J-0.576
G2 X4.4817 Y0.5411 I-13.5888 J0.4212
X4.4797 Y0.4911 I-13.5851 J0.526 F18.75
G1 X4.4793 Y0.4896
X4.4785 Y0.4883
X4.4773 Y0.4873
X4.4758 Y0.4868
X4.4743
X4.4729 Y0.4873
X4.4716 Y0.4882
X4.4708 Y0.4895
X4.4268 Y0.592 F75
X4.3832 Y0.6946
X4.3398 Y0.7973
G3 X4.1207 Y1.0502 I-0.4966 J-0.2089
G1 X3.9854 Y1.1314
G3 X3.2421 Y0.9439 I-0.2784 J-0.4635
G1 X2.94 Y0.4352
G2 X2.8928 Y0.3624 I-3.5343 J2.2405
X2.8649 Y0.3209 I-3.4871 J2.3133 F18.75
X2.854 Y0.3229 I-0.005 J0.0034
G1 X2.8133 Y0.4962 F75
G2 X2.8192 Y0.5334 I0.0483 J0.0114
G1 X3.296 Y1.3127
G3 X3.3698 Y1.668 I-0.4618 J0.2813
G1 X3.1972 Y2.9065
X3.1902 Y2.956 F18.75
X3.1903 Y2.9576
X3.1908 Y2.959
X3.1918 Y2.9602
X3.1932 Y2.9611
X3.1947 Y2.9614
X3.1962 Y2.9612
X3.1976 Y2.9605
X3.1987 Y2.9595
X3.7232 Y2.2364 F75
G3 X4.3575 Y2.2398 I0.3159 J0.2301
G1 X5.0127 Y3.1608
G2 X5.0221 Y3.1659 I0.0101 J-0.0073
G1 X5.2858 Y3.181
G2 X5.2962 Y3.1606 I0.0007 J-0.0125
G1 X4.2849 Y1.9208
G3 X4.3421 Y1.358 I0.31 J-0.2528
G1 X4.6214 Y1.1301
G2 X4.6575 Y1.0418 I-0.0632 J-0.0774
G1 X4.6336 Y0.8211
G3 X4.6316 Y0.7947 I0.3976 J-0.0435
G1 X4.5998 Y0.0464
X4.5944 Y-0.081
G2 X4.574 Y-0.0901 I-0.0125 J0.0006
G1 X4.5686 Y-0.0857
X4.5672 Y-0.0843
X4.566 Y-0.0827
X4.5651 Y-0.0809
X4.4875 Y0.0993
X4.2096 Y0.7448
G3 X4.0482 Y0.9296 I-0.3674 J-0.1581
G1 X3.913 Y1.0108
G3 X3.363 Y0.8721 I-0.206 J-0.3429
G1 X3.0589 Y0.3599
X2.8227 Y0.0102
X2.7947 Y-0.0312 F18.75
X2.6697 Y0.4997 F75
G2 X2.6816 Y0.5746 I0.0974 J0.0229
G1 X3.1759 Y1.3859
G3 X3.2305 Y1.6487 I-0.3417 J0.2081
G1 X3.0356 Y3.0605
X3.0217 Y3.1605
G2 X3.0347 Y3.1747 I0.0124 J0.0017
G1 X3.2145 Y3.1659
G2 X3.224 Y3.1607 I-0.0006 J-0.0125
G1 X3.3763 Y2.9517
X3.837 Y2.3193
G3 X4.2428 Y2.3215 I0.2021 J0.1472
G1 X4.6924 Y2.953
X4.8402 Y3.1606
G2 X4.85 Y3.1659 I0.0102 J-0.0072
G1 X5.3187 Y3.1813
G2 X5.3288 Y3.1609 I0.0004 J-0.0125
G1 X4.3043 Y1.905
G3 X4.3579 Y1.3774 I0.2906 J-0.237
G1 X4.6372 Y1.1495
G2 X4.6824 Y1.0391 I-0.079 J-0.0968
G1 X4.6584 Y0.8184
G3 X4.6565 Y0.7937 I0.3728 J-0.0408
G1 X4.6248 Y0.0453
X4.6195 Y-0.0806
G2 X4.6061 Y-0.0925 I-0.0125 J0.0006
G1 X4.5483 Y-0.0882
G2 X4.5377 Y-0.0807 I0.0009 J0.0125
G1 X4.4645 Y0.0894
X4.1867 Y0.7349
G3 X4.0353 Y0.9082 I-0.3445 J-0.1482
G1 X3.9001 Y0.9894
G3 X3.3845 Y0.8593 I-0.1931 J-0.3215
G1 X3.0801 Y0.3465
X2.7913 Y-0.0809
X2.7902 Y-0.0825
X2.7889 Y-0.0837
X2.7874 Y-0.0845
X2.7857 Y-0.0847
X2.784 Y-0.0844
X2.7824 Y-0.0835
X2.7813 Y-0.0822
X2.7806 Y-0.0806
X2.7455 Y0.0686
X2.6454 Y0.494
G2 X2.6603 Y0.5876 I0.1217 J0.0286
G1 X3.1545 Y1.3989
G3 X3.2057 Y1.6453 I-0.3203 J0.1951
G1 X2.9965 Y3.1605
G2 X3.0094 Y3.1747 I0.0124 J0.0017
G1 X3.2453 Y3.1659
G2 X3.2549 Y3.1608 I-0.0005 J-0.0125
G1 X3.3965 Y2.9664
X3.8572 Y2.334
G3 X4.2224 Y2.336 I0.1819 J0.1325
G1 X4.672 Y2.9675
X4.8096 Y3.1607
X4.8112 Y3.1626
X4.8131 Y3.1641
X4.8153 Y3.1652
X4.8177 Y3.1658
X5.1357 Y3.2204
G2 X5.1475 Y3.2002 I0.0021 J-0.0123
G1 X5.145 Y3.1972 Z0.4297
X5.1426 Y3.1942 Z0.4288
X5.1403 Y3.1914 Z0.4273
X5.1382 Y3.1888 Z0.4252
X5.1363 Y3.1865 Z0.4227
X5.1347 Y3.1845 Z0.4197
X5.1334 Y3.183 Z0.4163
X5.1324 Y3.1818 Z0.4127
X5.1319 Y3.1811 Z0.4089
X5.1317 Y3.1808 Z0.405
Z0.275
X5.1315 Y3.1806 Z0.2711
X5.1309 Y3.1799 Z0.2673
X5.1299 Y3.1787 Z0.2637
X5.1287 Y3.1771 Z0.2603
X5.127 Y3.1752 Z0.2573
X5.1252 Y3.1729 Z0.2548
X5.123 Y3.1703 Z0.2527
X5.1207 Y3.1675 Z0.2512
X5.1183 Y3.1645 Z0.2503
X5.1159 Y3.1615 Z0.25
X4.1759 Y2.0097
G3 X4.2532 Y1.249 I0.419 J-0.3417
X4.3788 Y1.1477 I9.3872 J11.5088
G2 X4.5044 Y1.0464 I-9.2061 J-11.5413
X4.5155 Y1.0194 I-0.0193 J-0.0237
X4.5015 Y0.9102 I-2.8462 J0.3101
G3 X4.4911 Y0.8006 I1.041 J-0.1542
X4.4854 Y0.6459 I13.5828 J-0.576
G2 X4.4797 Y0.4911 I-13.5888 J0.4212
G1 X4.4793 Y0.4896
X4.4785 Y0.4883
X4.4773 Y0.4873
X4.4758 Y0.4868
X4.4743
X4.4729 Y0.4873
X4.4716 Y0.4882
X4.4708 Y0.4895
X4.4268 Y0.592
X4.3832 Y0.6946
X4.3398 Y0.7973
G3 X4.1207 Y1.0502 I-0.4966 J-0.2089
G1 X3.9854 Y1.1314
G3 X3.2421 Y0.9439 I-0.2784 J-0.4635
G1 X2.94 Y0.4352
G2 X2.8649 Y0.3209 I-3.5343 J2.2405
X2.854 Y0.3229 I-0.005 J0.0034
G1 X2.8133 Y0.4962
G2 X2.8192 Y0.5334 I0.0483 J0.0114
G1 X3.296 Y1.3127
G3 X3.3698 Y1.668 I-0.4618 J0.2813
G1 X3.1902 Y2.956
X3.1903 Y2.9576
X3.1908 Y2.959
X3.1918 Y2.9602
X3.1932 Y2.9611
X3.1947 Y2.9614
X3.1962 Y2.9612
X3.1976 Y2.9605
X3.1987 Y2.9595
X3.7232 Y2.2364
G3 X3.8778 Y2.1105 I0.3159 J0.2301
G2 X3.8448 Y1.9328 I-0.1006 J-0.0732
G3 X3.7481 Y1.7799 I0.1172 J-0.1811
X3.7451 Y1.5818 I0.8468 J-0.1119
X3.7516 Y1.5322 I0.8498 J0.0862 F18.75
G2 X3.7419 Y1.5213 I-0.0093 J-0.0015
G3 X3.6957 Y1.5219 I-0.0349 J-0.8534
G2 X3.686 Y1.5321 I-0.0002 J0.0095
G3 X3.6887 Y1.6217 I-1.0534 J0.0766 F75
X3.682 Y1.7111 I-0.7181 J-0.0089
X3.6706 Y1.7872 I-3.2624 J-0.4505
G2 X3.6664 Y1.8139 I3.2513 J0.5267
X3.6592 Y1.8634 I3.2555 J0.5 F18.75
G1 X3.6593 Y1.865
X3.6599 Y1.8666
X3.661 Y1.8679
X3.6624 Y1.8689
X3.664 Y1.8693
X3.6657 Y1.8692
X3.6672 Y1.8685
G3 X3.743 Y1.8276 I0.3719 J0.598 F75
G2 X3.7525 Y1.8095 I-0.0071 J-0.0153
G3 X3.7481 Y1.78 I0.8424 J-0.1415
X3.7833 Y1.7109 I0.0677 J-0.009
G2 X3.8239 Y1.6451 I-0.0368 J-0.0681
G3 X3.8462 Y1.4824 I0.771 J0.0229
X3.8598 Y1.4342 I0.7487 J0.1856 F18.75
G2 X3.852 Y1.4255 I-0.0065 J-0.002
G3 X3.6473 Y1.4369 I-0.145 J-0.7576 F75
X3.5976 Y1.4314 I0.0597 J-0.769 F18.75
G2 X3.5899 Y1.4396 I-0.001 J0.0068
G3 X3.606 Y1.5692 I-0.8212 J0.1678 F75
X3.6 Y1.6997 I-0.7151 J0.0326
G1 X3.5539 Y2.0225
X3.5469 Y2.072 F18.75
Y2.0737
X3.5475 Y2.0752
X3.5485 Y2.0765
X3.5499 Y2.0774
X3.5515 Y2.0778
X3.5531 Y2.0777
X3.5546 Y2.077
X3.5559 Y2.0759
G3 X3.7939 Y1.8956 I0.4832 J0.3906 F75
X3.8406 Y1.8777 I0.2452 J0.5709 F18.75
G2 X3.8486 Y1.8629 I-0.0039 J-0.0117
G3 X3.8239 Y1.6451 I0.7463 J-0.1949 F75
X3.9095 Y1.5325 I0.1216 J0.0036
G2 X4.0132 Y1.4363 I-0.0484 J-0.1562
G3 X4.1985 Y1.182 I0.5835 J0.2306
X4.3058 Y1.0956 I6.6959 J8.2091
G2 X4.4131 Y1.0092 I-6.5577 J-8.2572
X4.4243 Y0.9818 I-0.0196 J-0.024
G1 X4.4174 Y0.9164
X4.4119 Y0.8667 F18.75
G2 X4.4022 Y0.865 I-0.0051 J0.0006
G3 X4.3022 Y1.0116 I-0.5807 J-0.2887 F75
X4.1652 Y1.1243 I-0.4489 J-0.4064
G1 X4.0299 Y1.2054
G3 X3.3395 Y1.174 I-0.3216 J-0.5353
X3.3004 Y1.1429 I0.3688 J-0.5039 F18.75
G1 X3.299 Y1.1421
X3.2975 Y1.142
X3.296 Y1.1424
X3.2948 Y1.1434
X3.2941 Y1.1448
X3.294 Y1.1463
X3.2946 Y1.1478
G2 X3.3322 Y1.2078 I2.3788 J-1.449 F75
G3 X3.3698 Y1.2678 I-2.3423 J1.5097
X3.4554 Y1.6798 I-0.5356 J0.3262
G1 X3.3297 Y2.5777
X3.3228 Y2.6272 F18.75
Y2.6288
X3.3234 Y2.6303
X3.3244 Y2.6315
X3.3257 Y2.6323
X3.3273 Y2.6327
X3.3289 Y2.6325
X3.3303 Y2.6318
X3.3315 Y2.6307
X3.6535 Y2.1856 F75
G3 X3.8267 Y2.0404 I0.3792 J0.2763
X3.9974 Y1.9931 I0.2122 J0.4342
X4.0473 Y1.9914 I0.0415 J0.4815 F18.75
G2 X4.0536 Y1.9807 I0.0002 J-0.0071
G3 X4.0133 Y1.4364 I0.5431 J-0.3138 F75
G1 X4.0144 Y1.4327 Z0.2506
X4.015 Y1.4289 Z0.2512
Y1.4254 Z0.253
X4.0145 Y1.4219 Z0.2548
X4.0138 Y1.4193 Z0.2575
X4.0127 Y1.4167 Z0.2603
X4.011 Y1.4136 Z0.2673
X4.0104 Y1.4126 Z0.275
G0 Z0.99
X5.1476 Y3.2004
G1 Z0.275 F15
X5.1474 Y3.2001 Z0.2711 F75
X5.1468 Y3.1994 Z0.2673
X5.1459 Y3.1983 Z0.2637
X5.1446 Y3.1967 Z0.2603
X5.143 Y3.1947 Z0.2573
X5.1411 Y3.1924 Z0.2548
X5.139 Y3.1898 Z0.2527
X5.1367 Y3.187 Z0.2512
X5.1343 Y3.184 Z0.2503
X5.1318 Y3.181 Z0.25
X5.1152 Y3.1607
X4.1759 Y2.0097
G3 X4.2532 Y1.249 I0.419 J-0.3417
X4.3788 Y1.1477 I9.3872 J11.5088
G2 X4.5044 Y1.0464 I-9.2061 J-11.5413
X4.5155 Y1.0194 I-0.0193 J-0.0237
X4.5015 Y0.9102 I-2.8462 J0.3101
G3 X4.4911 Y0.8006 I1.041 J-0.1542
X4.4854 Y0.6459 I13.5828 J-0.576
G2 X4.4817 Y0.5411 I-13.5888 J0.4212
X4.4797 Y0.4911 I-13.5851 J0.526 F18.75
G1 X4.4793 Y0.4896
X4.4785 Y0.4883
X4.4773 Y0.4873
X4.4758 Y0.4868
X4.4743
X4.4729 Y0.4873
X4.4716 Y0.4882
X4.4708 Y0.4895
X4.4268 Y0.592 F75
X4.3832 Y0.6946
X4.3398 Y0.7973
G3 X4.1207 Y1.0502 I-0.4966 J-0.2089
G1 X3.9854 Y1.1314
G3 X3.2421 Y0.9439 I-0.2784 J-0.4635
G1 X2.94 Y0.4352
G2 X2.8928 Y0.3624 I-3.5343 J2.2405
X2.8649 Y0.3209 I-3.4871 J2.3133 F18.75
X2.854 Y0.3229 I-0.005 J0.0034
G1 X2.8133 Y0.4962 F75
G2 X2.8192 Y0.5334 I0.0483 J0.0114
G1 X3.296 Y1.3127
G3 X3.3698 Y1.668 I-0.4618 J0.2813
G1 X3.1972 Y2.9065
X3.1902 Y2.956 F18.75
X3.1903 Y2.9576
X3.1908 Y2.959
X3.1918 Y2.9602
X3.1932 Y2.9611
X3.1947 Y2.9614
X3.1962 Y2.9612
X3.1976 Y2.9605
X3.1987 Y2.9595
X3.7232 Y2.2364 F75
G3 X4.3575 Y2.2398 I0.3159 J0.2301
G1 X5.0127 Y3.1608
G2 X5.0221 Y3.1659 I0.0101 J-0.0073
G1 X5.2858 Y3.181
G2 X5.2962 Y3.1606 I0.0007 J-0.0125
G1 X4.2849 Y1.9208
G3 X4.3421 Y1.358 I0.31 J-0.2528
G1 X4.6214 Y1.1301
G2 X4.6575 Y1.0418 I-0.0632 J-0.0774
G1 X4.6336 Y0.8211
G3 X4.6316 Y0.7947 I0.3976 J-0.0435
G1 X4.5998 Y0.0464
X4.5944 Y-0.081
G2 X4.574 Y-0.0901 I-0.0125 J0.0006
G1 X4.5686 Y-0.0857
X4.5672 Y-0.0843
X4.566 Y-0.0827
X4.5651 Y-0.0809
X4.4875 Y0.0993
X4.2096 Y0.7448
G3 X4.0482 Y0.9296 I-0.3674 J-0.1581
G1 X3.913 Y1.0108
G3 X3.363 Y0.8721 I-0.206 J-0.3429
G1 X3.0589 Y0.3599
X2.8227 Y0.0102
X2.7947 Y-0.0312 F18.75
X2.6697 Y0.4997 F75
G2 X2.6816 Y0.5746 I0.0974 J0.0229
G1 X3.1759 Y1.3859
G3 X3.2305 Y1.6487 I-0.3417 J0.2081
G1 X3.0356 Y3.0605
X3.0217 Y3.1605
G2 X3.0347 Y3.1747 I0.0124 J0.0017
G1 X3.2145 Y3.1659
G2 X3.224 Y3.1607 I-0.0006 J-0.0125
G1 X3.3763 Y2.9517
X3.837 Y2.3193
G3 X4.2428 Y2.3215 I0.2021 J0.1472
G1 X4.6924 Y2.953
X4.8402 Y3.1606
G2 X4.85 Y3.1659 I0.0102 J-0.0072
G1 X5.3187 Y3.1813
G2 X5.3288 Y3.1609 I0.0004 J-0.0125
G1 X4.3043 Y1.905
G3 X4.3579 Y1.3774 I0.2906 J-0.237
G1 X4.6372 Y1.1495
G2 X4.6824 Y1.0391 I-0.079 J-0.0968
G1 X4.6584 Y0.8184
G3 X4.6565 Y0.7937 I0.3728 J-0.0408
G1 X4.6248 Y0.0453
X4.6195 Y-0.0806
G2 X4.6061 Y-0.0925 I-0.0125 J0.0006
G1 X4.5483 Y-0.0882
G2 X4.5377 Y-0.0807 I0.0009 J0.0125
G1 X4.4645 Y0.0894
X4.1867 Y0.7349
G3 X4.0353 Y0.9082 I-0.3445 J-0.1482
G1 X3.9001 Y0.9894
G3 X3.3845 Y0.8593 I-0.1931 J-0.3215
G1 X3.0801 Y0.3465
X2.7913 Y-0.0809
X2.7902 Y-0.0825
X2.7889 Y-0.0837
X2.7874 Y-0.0845
X2.7857 Y-0.0847
X2.784 Y-0.0844
X2.7824 Y-0.0835
X2.7813 Y-0.0822
X2.7806 Y-0.0806
X2.7455 Y0.0686
X2.6454 Y0.494
G2 X2.6603 Y0.5876 I0.1217 J0.0286
G1 X3.1545 Y1.3989
G3 X3.2057 Y1.6453 I-0.3203 J0.1951
G1 X2.9965 Y3.1605
G2 X3.0094 Y3.1747 I0.0124 J0.0017
G1 X3.2453 Y3.1659
G2 X3.2549 Y3.1608 I-0.0005 J-0.0125
G1 X3.3965 Y2.9664
X3.8572 Y2.334
G3 X4.2224 Y2.336 I0.1819 J0.1325
G1 X4.672 Y2.9675
X4.8096 Y3.1607
X4.8121 Y3.1638
X4.8197 Y3.1714
X4.8224 Y3.1742 Z0.2503
X4.8251 Y3.1769 Z0.2512
X4.8276 Y3.1795 Z0.2527
X4.8299 Y3.1819 Z0.2548
X4.832 Y3.184 Z0.2573
X4.8338 Y3.1859 Z0.2603
X4.8353 Y3.1873 Z0.2637
X4.8363 Y3.1884 Z0.2673
X4.837 Y3.189 Z0.2711
X4.8372 Y3.1893 Z0.275
G0 Z1.39
X6.2789 Y3.1862
Z0.99
G1 Z0.8294 F15
Z0.635 F75
Y3.1859 Z0.6311
X6.2787 Y3.185 Z0.6273
X6.2784 Y3.1835 Z0.6237
X6.2781 Y3.1815 Z0.6203
X6.2777 Y3.179 Z0.6173
X6.2772 Y3.176 Z0.6148
X6.2766 Y3.1727 Z0.6127
X6.276 Y3.1692 Z0.6112
X6.2754 Y3.1654 Z0.6103
X6.2747 Y3.1615 Z0.61
X5.8898 Y0.8936
G2 X5.825 Y0.8722 I-0.0381 J0.0065
G3 X5.7602 Y0.8507 I-0.0267 J-0.0279
G1 X5.7532 Y0.8093
G2 X5.7393 Y0.7325 I-3.3331 J0.564
X5.7295 Y0.6835 I-3.3192 J0.6408 F18.75
X5.7194 Y0.6824 I-0.0052 J0.001
G1 X5.7126 Y0.6982
X5.712 Y0.7001
X5.7118 Y0.7022
X5.7121 Y0.7042
X5.751 Y0.8631 F75
X5.7629 Y0.9116 F18.75
X5.7635 Y0.9129
X5.7645 Y0.9139
X5.7659 Y0.9144
X5.7673
X5.7686 Y0.9138
X5.7696 Y0.9128
X5.7702 Y0.9115
Y0.9101
X5.7602 Y0.8507 F75
X5.7595 Y0.8469 Z0.6103
X5.7589 Y0.8431 Z0.6112
X5.7583 Y0.8395 Z0.6127
X5.7577 Y0.8362 Z0.6148
X5.7572 Y0.8333 Z0.6173
X5.7568 Y0.8308 Z0.6203
X5.7565 Y0.8288 Z0.6237
X5.7562 Y0.8273 Z0.6273
X5.7561 Y0.8264 Z0.6311
X5.756 Y0.8261 Z0.635
G0 Z0.99
X6.2813 Y3.2004
G1 Z0.635 F15
Y3.2001 Z0.6311 F75
X6.2811 Y3.1992 Z0.6273
X6.2809 Y3.1977 Z0.6237
X6.2805 Y3.1957 Z0.6203
X6.2801 Y3.1932 Z0.6173
X6.2796 Y3.1903 Z0.6148
X6.279 Y3.187 Z0.6127
X6.2784 Y3.1834 Z0.6112
X6.2778 Y3.1796 Z0.6103
X6.2771 Y3.1758 Z0.61
X6.2746 Y3.1606
X5.8609 Y0.7238
G2 X5.8239 Y0.5374 I-9.8624 J1.8616
G1 X5.7809 Y0.3312
X5.7707 Y0.2822 F18.75
G2 X5.7608 Y0.2812 I-0.0051 J0.0011
G1 X5.5925 Y0.6678 F75
G2 X5.5886 Y0.7138 I0.0661 J0.0288
G1 X6.188 Y3.1607
G2 X6.1998 Y3.1702 I0.0121 J-0.0029
G1 X6.3867 Y3.1754
G2 X6.3994 Y3.1608 I0.0004 J-0.0125
G1 X6.3832 Y3.065
X5.9831 Y0.7007
X5.8517 Y0.0706
X5.8202 Y-0.0805
G2 X5.8059 Y-0.0903 I-0.0122 J0.0025
G1 X5.7942 Y-0.0883
G2 X5.7849 Y-0.081 I0.0021 J0.0123
G1 X5.7061 Y0.0999
X5.4674 Y0.6482
G2 X5.462 Y0.7119 I0.0917 J0.0399
G1 X6.0236 Y3.0043
X6.0619 Y3.1609
G2 X6.0739 Y3.1705 I0.0122 J-0.0029
G1 X6.4122 Y3.1753
G2 X6.4247 Y3.1607 I0.0002 J-0.0125
G1 X6.4078 Y3.0609
X6.0077 Y0.6961
X5.8762 Y0.0655
X5.8457 Y-0.0808
G2 X5.833 Y-0.0907 I-0.0122 J0.0025
G1 X5.7685 Y-0.0882
G2 X5.7575 Y-0.0807 I0.0004 J0.0124
G1 X5.6832 Y0.0899
X5.4445 Y0.6382
G2 X5.4377 Y0.7179 I0.1146 J0.0499
G1 X5.9993 Y3.0103
X6.0361 Y3.1607
X6.0374 Y3.1644
X6.0415 Y3.1743
X6.043 Y3.1779 Z0.6103
X6.0445 Y3.1814 Z0.6112
X6.0459 Y3.1848 Z0.6127
X6.0472 Y3.1879 Z0.6148
X6.0484 Y3.1906 Z0.6173
X6.0493 Y3.193 Z0.6203
X6.0501 Y3.1949 Z0.6237
X6.0507 Y3.1962 Z0.6273
X6.0511 Y3.1971 Z0.6311
X6.0512 Y3.1974 Z0.635
Z0.6494
X6.2789 Y3.1862
Z0.455
Y3.1859 Z0.4511
X6.2787 Y3.185 Z0.4473
X6.2784 Y3.1835 Z0.4437
X6.2781 Y3.1815 Z0.4403
X6.2777 Y3.179 Z0.4373
X6.2772 Y3.176 Z0.4348
X6.2766 Y3.1727 Z0.4327
X6.276 Y3.1692 Z0.4312
X6.2754 Y3.1654 Z0.4303
X6.2747 Y3.1615 Z0.43
X5.8898 Y0.8936
G2 X5.825 Y0.8722 I-0.0381 J0.0065
G3 X5.7602 Y0.8507 I-0.0267 J-0.0279
G1 X5.7532 Y0.8093
G2 X5.7393 Y0.7325 I-3.3331 J0.564
X5.7295 Y0.6835 I-3.3192 J0.6408 F18.75
X5.7194 Y0.6824 I-0.0052 J0.001
G1 X5.7126 Y0.6982
X5.712 Y0.7001
X5.7118 Y0.7022
X5.7121 Y0.7042
X5.751 Y0.8631 F75
X5.7629 Y0.9116 F18.75
X5.7635 Y0.9129
X5.7645 Y0.9139
X5.7659 Y0.9144
X5.7673
X5.7686 Y0.9138
X5.7696 Y0.9128
X5.7702 Y0.9115
Y0.9101
X5.7602 Y0.8507 F75
X5.7595 Y0.8469 Z0.4303
X5.7589 Y0.8431 Z0.4312
X5.7583 Y0.8395 Z0.4327
X5.7577 Y0.8362 Z0.4348
X5.7572 Y0.8333 Z0.4373
X5.7568 Y0.8308 Z0.4403
X5.7565 Y0.8288 Z0.4437
X5.7562 Y0.8273 Z0.4473
X5.7561 Y0.8264 Z0.4511
X5.756 Y0.8261 Z0.455
G0 Z0.99
X6.2813 Y3.2004
G1 Z0.455 F15
Y3.2001 Z0.4511 F75
X6.2811 Y3.1992 Z0.4473
X6.2809 Y3.1977 Z0.4437
X6.2805 Y3.1957 Z0.4403
X6.2801 Y3.1932 Z0.4373
X6.2796 Y3.1903 Z0.4348
X6.279 Y3.187 Z0.4327
X6.2784 Y3.1834 Z0.4312
X6.2778 Y3.1796 Z0.4303
X6.2771 Y3.1758 Z0.43
X6.2746 Y3.1606
X5.8609 Y0.7238
G2 X5.8239 Y0.5374 I-9.8624 J1.8616
G1 X5.7809 Y0.3312
X5.7707 Y0.2822 F18.75
G2 X5.7608 Y0.2812 I-0.0051 J0.0011
G1 X5.5925 Y0.6678 F75
G2 X5.5886 Y0.7138 I0.0661 J0.0288
G1 X6.188 Y3.1607
G2 X6.1998 Y3.1702 I0.0121 J-0.0029
G1 X6.3867 Y3.1754
G2 X6.3994 Y3.1608 I0.0004 J-0.0125
G1 X6.3832 Y3.065
X5.9831 Y0.7007
X5.8517 Y0.0706
X5.8202 Y-0.0805
G2 X5.8059 Y-0.0903 I-0.0122 J0.0025
G1 X5.7942 Y-0.0883
G2 X5.7849 Y-0.081 I0.0021 J0.0123
G1 X5.7061 Y0.0999
X5.4674 Y0.6482
G2 X5.462 Y0.7119 I0.0917 J0.0399
G1 X6.0236 Y3.0043
X6.0619 Y3.1609
G2 X6.0739 Y3.1705 I0.0122 J-0.0029
G1 X6.4122 Y3.1753
G2 X6.4247 Y3.1607 I0.0002 J-0.0125
G1 X6.4078 Y3.0609
X6.0077 Y0.6961
X5.8762 Y0.0655
X5.8457 Y-0.0808
G2 X5.833 Y-0.0907 I-0.0122 J0.0025
G1 X5.7685 Y-0.0882
G2 X5.7575 Y-0.0807 I0.0004 J0.0124
G1 X5.6832 Y0.0899
X5.4445 Y0.6382
G2 X5.4377 Y0.7179 I0.1146 J0.0499
G1 X5.9993 Y3.0103
X6.0361 Y3.1607
X6.0374 Y3.1644
X6.0415 Y3.1743
X6.043 Y3.1779 Z0.4303
X6.0445 Y3.1814 Z0.4312
X6.0459 Y3.1848 Z0.4327
X6.0472 Y3.1879 Z0.4348
X6.0484 Y3.1906 Z0.4373
X6.0493 Y3.193 Z0.4403
X6.0501 Y3.1949 Z0.4437
X6.0507 Y3.1962 Z0.4473
X6.0511 Y3.1971 Z0.4511
X6.0512 Y3.1974 Z0.455
Z0.4694
X6.2789 Y3.1862
Z0.275
Y3.1859 Z0.2711
X6.2787 Y3.185 Z0.2673
X6.2784 Y3.1835 Z0.2637
X6.2781 Y3.1815 Z0.2603
X6.2777 Y3.179 Z0.2573
X6.2772 Y3.176 Z0.2548
X6.2766 Y3.1727 Z0.2527
X6.276 Y3.1692 Z0.2512
X6.2754 Y3.1654 Z0.2503
X6.2747 Y3.1615 Z0.25
X5.8898 Y0.8936
G2 X5.825 Y0.8722 I-0.0381 J0.0065
G3 X5.7602 Y0.8507 I-0.0267 J-0.0279
G1 X5.7532 Y0.8093
G2 X5.7393 Y0.7325 I-3.3331 J0.564
X5.7295 Y0.6835 I-3.3192 J0.6408 F18.75
X5.7194 Y0.6824 I-0.0052 J0.001
G1 X5.7126 Y0.6982
X5.712 Y0.7001
X5.7118 Y0.7022
X5.7121 Y0.7042
X5.751 Y0.8631 F75
X5.7629 Y0.9116 F18.75
X5.7635 Y0.9129
X5.7645 Y0.9139
X5.7659 Y0.9144
X5.7673
X5.7686 Y0.9138
X5.7696 Y0.9128
X5.7702 Y0.9115
Y0.9101
X5.7602 Y0.8507 F75
X5.7595 Y0.8469 Z0.2503
X5.7589 Y0.8431 Z0.2512
X5.7583 Y0.8395 Z0.2527
X5.7577 Y0.8362 Z0.2548
X5.7572 Y0.8333 Z0.2573
X5.7568 Y0.8308 Z0.2603
X5.7565 Y0.8288 Z0.2637
X5.7562 Y0.8273 Z0.2673
X5.7561 Y0.8264 Z0.2711
X5.756 Y0.8261 Z0.275
G0 Z0.99
X6.2813 Y3.2004
G1 Z0.275 F15
Y3.2001 Z0.2711 F75
X6.2811 Y3.1992 Z0.2673
X6.2809 Y3.1977 Z0.2637
X6.2805 Y3.1957 Z0.2603
X6.2801 Y3.1932 Z0.2573
X6.2796 Y3.1903 Z0.2548
X6.279 Y3.187 Z0.2527
X6.2784 Y3.1834 Z0.2512
X6.2778 Y3.1796 Z0.2503
X6.2771 Y3.1758 Z0.25
X6.2746 Y3.1606
X5.8609 Y0.7238
G2 X5.8239 Y0.5374 I-9.8624 J1.8616
G1 X5.7809 Y0.3312
X5.7707 Y0.2822 F18.75
G2 X5.7608 Y0.2812 I-0.0051 J0.0011
G1 X5.5925 Y0.6678 F75
G2 X5.5886 Y0.7138 I0.0661 J0.0288
G1 X6.188 Y3.1607
G2 X6.1998 Y3.1702 I0.0121 J-0.0029
G1 X6.3867 Y3.1754
G2 X6.3994 Y3.1608 I0.0004 J-0.0125
G1 X6.3832 Y3.065
X5.9831 Y0.7007
X5.8517 Y0.0706
X5.8202 Y-0.0805
G2 X5.8059 Y-0.0903 I-0.0122 J0.0025
G1 X5.7942 Y-0.0883
G2 X5.7849 Y-0.081 I0.0021 J0.0123
G1 X5.7061 Y0.0999
X5.4674 Y0.6482
G2 X5.462 Y0.7119 I0.0917 J0.0399
G1 X6.0236 Y3.0043
X6.0619 Y3.1609
G2 X6.0739 Y3.1705 I0.0122 J-0.0029
G1 X6.4122 Y3.1753
G2 X6.4247 Y3.1607 I0.0002 J-0.0125
G1 X6.4078 Y3.0609
X6.0077 Y0.6961
X5.8762 Y0.0655
X5.8457 Y-0.0808
G2 X5.833 Y-0.0907 I-0.0122 J0.0025
G1 X5.7685 Y-0.0882
G2 X5.7575 Y-0.0807 I0.0004 J0.0124
G1 X5.6832 Y0.0899
X5.4445 Y0.6382
G2 X5.4377 Y0.7179 I0.1146 J0.0499
G1 X5.9993 Y3.0103
X6.0361 Y3.1607
X6.0374 Y3.1644
X6.0415 Y3.1743
X6.043 Y3.1779 Z0.2503
X6.0445 Y3.1814 Z0.2512
X6.0459 Y3.1848 Z0.2527
X6.0472 Y3.1879 Z0.2548
X6.0484 Y3.1906 Z0.2573
X6.0493 Y3.193 Z0.2603
X6.0501 Y3.1949 Z0.2637
X6.0507 Y3.1962 Z0.2673
X6.0511 Y3.1971 Z0.2711
X6.0512 Y3.1974 Z0.275
G0 Z1.39
X7.4492 Y3.1867
Z0.99
G1 Z0.8294 F15
Z0.635 F75
Y3.1863 Z0.6311
Y3.1854 Z0.6273
Y3.1839 Z0.6237
Y3.1819 Z0.6203
Y3.1793 Z0.6173
Y3.1764 Z0.6148
Y3.173 Z0.6127
Y3.1694 Z0.6112
Y3.1656 Z0.6103
Y3.1617 Z0.61
X7.448 Y1.8603
X7.4059 Y1.319
G2 X7.3443 Y1.2922 I-0.0379 J0.0029
G3 X7.2827 Y1.2655 I-0.0237 J-0.0297
G1 X7.2593 Y0.9688
X7.2553 Y0.919 F18.75
X7.2549 Y0.9175
X7.2541 Y0.9161
X7.2528 Y0.9152
X7.2513 Y0.9147
X7.2498
X7.2483 Y0.9152
X7.247 Y0.9162
X7.2462 Y0.9176
X7.2383 Y0.9367
X7.2377 Y0.939
X7.2376 Y0.9413
X7.2746 Y1.2755 F75
X7.2801 Y1.3252 F18.75
X7.2805 Y1.3266
X7.2814 Y1.3277
X7.2827 Y1.3283
X7.2841 Y1.3285
X7.2854 Y1.3281
X7.2865 Y1.3272
X7.2872 Y1.3259
X7.2874 Y1.3245
X7.2827 Y1.2655 F75
G2 X7.2692 Y1.254 I-0.0125 J0.001
X7.2577 Y1.2676 I0.001 J0.0125
G1 X7.4242 Y3.1618
G2 X7.4492 Y3.1607 I0.0125 J-0.0011
G1 X7.448 Y1.8603
X7.3393 Y0.4612
X7.3354 Y0.4113 F18.75
X7.335 Y0.4098
X7.3341 Y0.4084
X7.3329 Y0.4075
X7.3314 Y0.407
X7.3298
X7.3283 Y0.4075
X7.3271 Y0.4085
X7.3263 Y0.4099
X7.1268 Y0.8929 F75
G2 X7.1184 Y0.9524 I0.1121 J0.0462
G1 X7.3624 Y3.1608
G2 X7.3748 Y3.172 I0.0125 J-0.0014
G1 X7.562 Y3.1732
G2 X7.5746 Y3.1607 I0.0001 J-0.0125
G1 Y1.8592
X7.5743 Y1.8513
X7.4322 Y0.0518
X7.4217 Y-0.0806
G2 X7.4006 Y-0.0887 I-0.0125 J0.001
G1 X7.3968 Y-0.0851
X7.3951 Y-0.0831
X7.3938 Y-0.0807
X7.3203 Y0.0972
X6.9972 Y0.8798
G2 X6.9902 Y0.929 I0.0924 J0.0382
G1 X7.2217 Y3.0235
X7.2369 Y3.1609
G2 X7.2493 Y3.172 I0.0124 J-0.0014
G1 X7.5871 Y3.1732
G2 X7.5996 Y3.1607 I0 J-0.0125
G1 Y1.8591
X7.5992 Y1.8493
X7.4571 Y0.0498
X7.4468 Y-0.0806
G2 X7.4335 Y-0.0921 I-0.0125 J0.001
G1 X7.3775 Y-0.0884
G2 X7.3667 Y-0.0807 I0.0008 J0.0125
G1 X7.2972 Y0.0877
X6.9741 Y0.8703
G2 X6.9654 Y0.9317 I0.1155 J0.0477
G1 X7.1969 Y3.0263
X7.2117 Y3.1607
G2 X7.2212 Y3.1716 I0.0125 J-0.0013
G1 X7.4337 Y3.2238
G2 X7.4492 Y3.2117 I0.003 J-0.0121
G1 Y3.2077 Z0.6097
Y3.2039 Z0.6088
Y3.2003 Z0.6073
Y3.197 Z0.6052
Y3.194 Z0.6027
Y3.1914 Z0.5997
Y3.1894 Z0.5963
Y3.1879 Z0.5927
Y3.187 Z0.5889
Y3.1867 Z0.585
Z0.455
Y3.1863 Z0.4511
Y3.1854 Z0.4473
Y3.1839 Z0.4437
Y3.1819 Z0.4403
Y3.1793 Z0.4373
Y3.1764 Z0.4348
Y3.173 Z0.4327
Y3.1694 Z0.4312
Y3.1656 Z0.4303
Y3.1617 Z0.43
X7.448 Y1.8603
X7.4059 Y1.319
G2 X7.3443 Y1.2922 I-0.0379 J0.0029
G3 X7.2827 Y1.2655 I-0.0237 J-0.0297
G1 X7.2593 Y0.9688
X7.2553 Y0.919 F18.75
X7.2549 Y0.9175
X7.2541 Y0.9161
X7.2528 Y0.9152
X7.2513 Y0.9147
X7.2498
X7.2483 Y0.9152
X7.247 Y0.9162
X7.2462 Y0.9176
X7.2383 Y0.9367
X7.2377 Y0.939
X7.2376 Y0.9413
X7.2746 Y1.2755 F75
X7.2801 Y1.3252 F18.75
X7.2805 Y1.3266
X7.2814 Y1.3277
X7.2827 Y1.3283
X7.2841 Y1.3285
X7.2854 Y1.3281
X7.2865 Y1.3272
X7.2872 Y1.3259
X7.2874 Y1.3245
X7.2827 Y1.2655 F75
G2 X7.2692 Y1.254 I-0.0125 J0.001
X7.2577 Y1.2676 I0.001 J0.0125
G1 X7.4242 Y3.1618
G2 X7.4492 Y3.1607 I0.0125 J-0.0011
G1 X7.448 Y1.8603
X7.3393 Y0.4612
X7.3354 Y0.4113 F18.75
X7.335 Y0.4098
X7.3341 Y0.4084
X7.3329 Y0.4075
X7.3314 Y0.407
X7.3298
X7.3283 Y0.4075
X7.3271 Y0.4085
X7.3263 Y0.4099
X7.1268 Y0.8929 F75
G2 X7.1184 Y0.9524 I0.1121 J0.0462
G1 X7.3624 Y3.1608
G2 X7.3748 Y3.172 I0.0125 J-0.0014
G1 X7.562 Y3.1732
G2 X7.5746 Y3.1607 I0.0001 J-0.0125
G1 Y1.8592
X7.5743 Y1.8513
X7.4322 Y0.0518
X7.4217 Y-0.0806
G2 X7.4006 Y-0.0887 I-0.0125 J0.001
G1 X7.3968 Y-0.0851
X7.3951 Y-0.0831
X7.3938 Y-0.0807
X7.3203 Y0.0972
X6.9972 Y0.8798
G2 X6.9902 Y0.929 I0.0924 J0.0382
G1 X7.2217 Y3.0235
X7.2369 Y3.1609
G2 X7.2493 Y3.172 I0.0124 J-0.0014
G1 X7.5871 Y3.1732
G2 X7.5996 Y3.1607 I0 J-0.0125
G1 Y1.8591
X7.5992 Y1.8493
X7.4571 Y0.0498
X7.4468 Y-0.0806
G2 X7.4335 Y-0.0921 I-0.0125 J0.001
G1 X7.3775 Y-0.0884
G2 X7.3667 Y-0.0807 I0.0008 J0.0125
G1 X7.2972 Y0.0877
X6.9741 Y0.8703
G2 X6.9654 Y0.9317 I0.1155 J0.0477
G1 X7.1969 Y3.0263
X7.2117 Y3.1607
G2 X7.2212 Y3.1716 I0.0125 J-0.0013
G1 X7.4337 Y3.2238
G2 X7.4492 Y3.2117 I0.003 J-0.0121
G1 Y3.2077 Z0.4297
Y3.2039 Z0.4288
Y3.2003 Z0.4273
Y3.197 Z0.4252
Y3.194 Z0.4227
Y3.1914 Z0.4197
Y3.1894 Z0.4163
Y3.1879 Z0.4127
Y3.187 Z0.4089
Y3.1867 Z0.405
Z0.275
Y3.1863 Z0.2711
Y3.1854 Z0.2673
Y3.1839 Z0.2637
Y3.1819 Z0.2603
Y3.1793 Z0.2573
Y3.1764 Z0.2548
Y3.173 Z0.2527
Y3.1694 Z0.2512
Y3.1656 Z0.2503
Y3.1617 Z0.25
X7.448 Y1.8603
X7.4059 Y1.319
G2 X7.3443 Y1.2922 I-0.0379 J0.0029
G3 X7.2827 Y1.2655 I-0.0237 J-0.0297
G1 X7.2593 Y0.9688
X7.2553 Y0.919 F18.75
X7.2549 Y0.9175
X7.2541 Y0.9161
X7.2528 Y0.9152
X7.2513 Y0.9147
X7.2498
X7.2483 Y0.9152
X7.247 Y0.9162
X7.2462 Y0.9176
X7.2383 Y0.9367
X7.2377 Y0.939
X7.2376 Y0.9413
X7.2746 Y1.2755 F75
X7.2801 Y1.3252 F18.75
X7.2805 Y1.3266
X7.2814 Y1.3277
X7.2827 Y1.3283
X7.2841 Y1.3285
X7.2854 Y1.3281
X7.2865 Y1.3272
X7.2872 Y1.3259
X7.2874 Y1.3245
X7.2827 Y1.2655 F75
G2 X7.2692 Y1.254 I-0.0125 J0.001
X7.2577 Y1.2676 I0.001 J0.0125
G1 X7.4242 Y3.1618
G2 X7.4492 Y3.1607 I0.0125 J-0.0011
G1 X7.448 Y1.8603
X7.3393 Y0.4612
X7.3354 Y0.4113 F18.75
X7.335 Y0.4098
X7.3341 Y0.4084
X7.3329 Y0.4075
X7.3314 Y0.407
X7.3298
X7.3283 Y0.4075
X7.3271 Y0.4085
X7.3263 Y0.4099
X7.1268 Y0.8929 F75
G2 X7.1184 Y0.9524 I0.1121 J0.0462
G1 X7.3624 Y3.1608
G2 X7.3748 Y3.172 I0.0125 J-0.0014
G1 X7.562 Y3.1732
G2 X7.5746 Y3.1607 I0.0001 J-0.0125
G1 Y1.8592
X7.5743 Y1.8513
X7.4322 Y0.0518
X7.4217 Y-0.0806
G2 X7.4006 Y-0.0887 I-0.0125 J0.001
G1 X7.3968 Y-0.0851
X7.3951 Y-0.0831
X7.3938 Y-0.0807
X7.3203 Y0.0972
X6.9972 Y0.8798
G2 X6.9902 Y0.929 I0.0924 J0.0382
G1 X7.2217 Y3.0235
X7.2369 Y3.1609
G2 X7.2493 Y3.172 I0.0124 J-0.0014
G1 X7.5871 Y3.1732
G2 X7.5996 Y3.1607 I0 J-0.0125
G1 Y1.8591
X7.5992 Y1.8493
X7.4571 Y0.0498
X7.4468 Y-0.0806
G2 X7.4335 Y-0.0921 I-0.0125 J0.001
G1 X7.3775 Y-0.0884
G2 X7.3667 Y-0.0807 I0.0008 J0.0125
G1 X7.2972 Y0.0877
X6.9741 Y0.8703
G2 X6.9654 Y0.9317 I0.1155 J0.0477
G1 X7.1969 Y3.0263
X7.2117 Y3.1607
X7.2125 Y3.1646
X7.2153 Y3.1749
X7.2163 Y3.1787 Z0.2503
X7.2174 Y3.1824 Z0.2512
X7.2183 Y3.1859 Z0.2527
X7.2192 Y3.1891 Z0.2548
X7.22 Y3.192 Z0.2573
X7.2207 Y3.1944 Z0.2603
X7.2212 Y3.1964 Z0.2637
X7.2216 Y3.1979 Z0.2673
X7.2218 Y3.1988 Z0.2711
X7.2219 Y3.1991 Z0.275
G0 Z1.39

(2D Contour1)
X0.265 Y-0.16
Z1.39
Z0.99
G1 Z0.555 F15
G19 G3 Y-0.135 Z0.53 J0.025 K0 F75
G1 Y-0.11
G17 G2 X0.29 Y-0.085 I0.025 J0
G1 X7.79
G3 X8.165 Y0.29 I0 J0.375
G1 Y2.79
G3 X7.79 Y3.165 I-0.375 J0
G1 X0.29
G3 X-0.085 Y2.79 I0 J-0.375
G1 Y0.29
G3 X0.29 Y-0.085 I0.375 J0
G2 X0.315 Y-0.11 I0 J-0.025
G1 Y-0.135
G19 G2 Y-0.16 Z0.555 J0 K0.025
G0 Z0.99
X0.265
G1 Z0.295 F15
G3 Y-0.135 Z0.27 J0.025 K0 F75
G1 Y-0.11
G17 G2 X0.29 Y-0.085 I0.025 J0
G1 X7.79
G3 X8.165 Y0.29 I0 J0.375
G1 Y2.79
G3 X7.79 Y3.165 I-0.375 J0
G1 X0.29
G3 X-0.085 Y2.79 I0 J-0.375
G1 Y0.29
G3 X0.29 Y-0.085 I0.375 J0
G2 X0.315 Y-0.11 I0 J-0.025
G1 Y-0.135
G19 G2 Y-0.16 Z0.295 J0 K0.025
G0 Z0.99
X0.265
G1 Z0.033 F15
G3 Y-0.135 Z0.008 J0.025 K0 F75
G1 Y-0.11
G17 G2 X0.29 Y-0.085 I0.025 J0
G1 X1.9723
X2.0223 F18.75
Z0.05 F75
X2.7723
Z0.008 F15
X7.79 F75
G3 X8.165 Y0.29 I0 J0.375
G1 Y2.79
G3 X7.79 Y3.165 I-0.375 J0
G1 X6.1077
X6.0577 F18.75
Z0.05 F75
X5.3077
Z0.008 F15
X0.29 F75
G3 X-0.085 Y2.79 I0 J-0.375
G1 Y0.29
G3 X0.29 Y-0.085 I0.375 J0
G2 X0.315 Y-0.11 I0 J-0.025
G1 Y-0.135
G19 G2 Y-0.16 Z0.033 J0 K0.025
G0 Z0.99
X0.265
G1 Z0.025 F15
G3 Y-0.135 Z0 J0.025 K0 F75
G1 Y-0.11
G17 G2 X0.29 Y-0.085 I0.025 J0
G1 X1.9723
X2.0223 F18.75
Z0.05 F75
X2.7723
Z0 F15
X7.79 F75
G3 X8.165 Y0.29 I0 J0.375
G1 Y2.79
G3 X7.79 Y3.165 I-0.375 J0
G1 X6.1077
X6.0577 F18.75
Z0.05 F75
X5.3077
Z0 F15
X0.29 F75
G3 X-0.085 Y2.79 I0 J-0.375
G1 Y0.29
G3 X0.29 Y-0.085 I0.375 J0
G2 X0.315 Y-0.11 I0 J-0.025
G1 Y-0.135
G19 G2 Y-0.16 Z0.025 J0 K0.025
G0 Z1.39
G17
G28 G91 Z0
G90
G28 G91 X0 Y0
G90
M30
%
