%
(Climbing Keyholder V10)
(T1  D=0.25 CR=0 - ZMIN=0 - flat end mill)
G90
G17
G20
G28 G91 Z0
G90

(2D Pocket1)
T1 M6
S21000 M3
G54
G0 X-0.1005 Y2.6859
Z1.39
Z0.99
G1 Z0.8294 F15
Z0.545 F75
X-0.1003 Y2.6857 Z0.5411
X-0.0996 Y2.6851 Z0.5373
X-0.0984 Y2.6841 Z0.5337
X-0.0969 Y2.6828 Z0.5303
X-0.0949 Y2.6811 Z0.5273
X-0.0927 Y2.6792 Z0.5248
X-0.0901 Y2.677 Z0.5227
X-0.0874 Y2.6747 Z0.5212
X-0.0845 Y2.6722 Z0.5203
X-0.0815 Y2.6697 Z0.52
X1.0901 Y1.6688
G3 X1.302 Y1.5758 I0.2598 J0.3041
G2 X1.3288 Y1.4277 I-0.0774 J-0.0905
G3 X1.4112 Y1.3016 I0.0746 J-0.0412
X1.4722 Y1.31 I-0.0613 J0.6713
X1.521 Y1.3209 I-0.1223 J0.6629 F18.75
G2 X1.5292 Y1.3122 I0.0017 J-0.0066
G3 X1.4993 Y1.1645 I0.6784 J-0.2141 F75
X1.503 Y1.0138 I0.6394 J-0.0599
X1.5142 Y0.9419 I2.974 J0.4246
G2 X1.5179 Y0.9194 I-2.9629 J-0.4966
X1.5254 Y0.8699 I-2.9666 J-0.4741 F18.75
X1.5164 Y0.8625 I-0.0068 J-0.0009
G3 X1.3685 Y0.8934 I-0.211 J-0.6403 F75
X1.3186 Y0.8962 I-0.0631 J-0.6712 F18.75
G2 X1.3098 Y0.9071 I0.0002 J0.0092
G3 X1.2853 Y1.2469 I-0.6629 J0.1229 F75
X1.2675 Y1.2936 I-0.6384 J-0.2169 F18.75
G2 X1.2744 Y1.3029 I0.0062 J0.0026
G3 X1.4112 Y1.3015 I0.0755 J0.67 F75
X1.5181 Y1.3948 I-0.011 J0.1205
G2 X1.6037 Y1.5076 I0.1683 J-0.0388
G3 X1.8538 Y1.8087 I-0.2538 J0.4653
X1.8843 Y1.9053 I-5.4247 J1.7677
G2 X1.8996 Y1.9543 I5.4531 J-1.6703
X1.9149 Y2.0019 I5.4378 J-1.7193 F18.75
G1 X1.9155 Y2.0033
X1.9166 Y2.0042
X1.918 Y2.0047
X1.9194
X1.9208 Y2.0041
X1.9219 Y2.0031
X1.9225 Y2.0018
X1.9227 Y2.0003
X1.894 Y1.7134 F75
G2 X1.8906 Y1.7022 I-0.03 J0.003
G1 X1.705 Y1.3595
G3 X1.6475 Y1.0344 I0.4671 J-0.2502
G1 X1.7105 Y0.6051
X1.7177 Y0.5557 F18.75
X1.7178 Y0.5544
X1.7176 Y0.5531
X1.7153 Y0.5431
X1.7146 Y0.5415
X1.7135 Y0.5402
X1.7119 Y0.5393
X1.7102 Y0.5391
X1.7084 Y0.5394
X1.7069 Y0.5403
X1.7058 Y0.5416
G3 X1.6618 Y0.6059 I-0.5226 J-0.31 F75
X1.605 Y0.6592 I-0.2012 J-0.1574
X1.338 Y0.7501 I-0.296 J-0.4318
X1.1075 Y0.7117 I-0.0296 J-0.5335
X1.0622 Y0.6908 I0.2009 J-0.4951 F18.75
G1 X1.0607 Y0.6905
X1.0593 Y0.6906
X1.0579 Y0.6913
X1.057 Y0.6924
X1.0565 Y0.6938
X1.0566 Y0.6953
X1.0572 Y0.6966
X1.0653 Y0.7069 F75
X1.0734 Y0.7173
G3 X1.0522 Y1.3714 I-0.4275 J0.3135
G1 X0.6221 Y1.8793
X0.5898 Y1.9175 F18.75
X0.5891 Y1.9188
X0.5889 Y1.9202
X0.5892 Y1.9216
X0.59 Y1.9228
X0.5912 Y1.9236
X0.5927 Y1.924
X0.5941 Y1.9237
X0.5954 Y1.923
X1.0058 Y1.5701 F75
G3 X1.6036 Y1.5078 I0.3441 J0.4028
G1 X1.6057 Y1.5087
X1.6079 Y1.5092
X1.6101 Y1.5093
X1.6123 Y1.509
X1.6918 Y1.4912
G3 X1.7041 Y1.4953 I0.0028 J0.0122
G1 X1.7053 Y1.4969
X1.7062 Y1.4987
X1.7068 Y1.5005
X2.1617 Y3.1568
X2.1643 Y3.1617
X2.1649 Y3.1623
X2.1657 Y3.1625
X2.1665 Y3.1623
X2.167 Y3.1617
X2.1672 Y3.1608
X2.0203 Y1.6892
G2 X2.009 Y1.6519 I-0.0995 J0.0099
G1 X1.8195 Y1.2982
G3 X1.7761 Y1.0528 I0.3526 J-0.1889
G1 X1.8481 Y0.5488
X1.7383 Y0.0738
X1.7222 Y0.004
X1.711 Y-0.0447 F18.75
X1.646 Y0.3389 F75
G3 X1.5639 Y0.5222 I-0.3944 J-0.0667
X1.5316 Y0.5522 I-0.1171 J-0.0938
X1.0392 Y0.5208 I-0.2262 J-0.33
G1 X0.6256 Y0.152
X0.5827 Y0.1137
X0.5454 Y0.0805 F18.75
Y0.1652 F75
Y0.2152 F18.75
X0.9695 Y0.7935 F75
G3 X0.9528 Y1.2877 I-0.3226 J0.2365
G1 X-0.0808 Y2.5149
X-0.0822 Y2.5169
X-0.0831 Y2.519
X-0.0837 Y2.5214
X-0.1013 Y2.6579
G2 X-0.0808 Y2.669 I0.0124 J0.0016
G1 X1.0901 Y1.6688
G3 X1.7302 Y1.849 I0.2598 J0.3041
G1 X2.1032 Y2.9935
X2.1577 Y3.1608
G2 X2.1642 Y3.1683 I0.0119 J-0.0038
G1 X2.1745 Y3.1731
G2 X2.1922 Y3.1606 I0.0053 J-0.0113
G1 X2.0452 Y1.6867
G2 X2.031 Y1.6401 I-0.1244 J0.0124
G1 X1.8415 Y1.2864
G3 X1.8008 Y1.0563 I0.3306 J-0.1771
G1 X1.8735 Y0.5477
X1.7627 Y0.0681
X1.7283 Y-0.0809
G2 X1.7169 Y-0.0906 I-0.0122 J0.0028
G1 X1.7048 Y-0.0913
G2 X1.6918 Y-0.0809 I-0.0007 J0.0125
G1 X1.6214 Y0.3348
G3 X1.5444 Y0.5066 I-0.3698 J-0.0626
X1.5175 Y0.5316 I-0.0976 J-0.0782
X1.0558 Y0.5022 I-0.2121 J-0.3094
G1 X0.6422 Y0.1333
X0.5577 Y0.058
X0.5204 Y0.0247 F18.75
Y0.1733 F75
Y0.2233 F18.75
X0.9493 Y0.8082 F75
G3 X0.9337 Y1.2716 I-0.3024 J0.2218
G1 X-0.0807 Y2.4759
X-0.0821 Y2.4781
X-0.0831 Y2.4804
X-0.0836 Y2.4829
X-0.1012 Y2.6913
G2 X-0.0807 Y2.7018 I0.0124 J0.001
G1 X1.1063 Y1.6878
G3 X1.7065 Y1.8567 I0.2436 J0.2851
G1 X2.0794 Y3.0013
X2.1313 Y3.1607
X2.1328 Y3.1643
X2.1377 Y3.1738
X2.1395 Y3.1773 Z0.5203
X2.1412 Y3.1807 Z0.5212
X2.1429 Y3.184 Z0.5227
X2.1444 Y3.1869 Z0.5248
X2.1458 Y3.1896 Z0.5273
X2.1469 Y3.1919 Z0.5303
X2.1479 Y3.1937 Z0.5337
X2.1485 Y3.195 Z0.5373
X2.149 Y3.1958 Z0.5411
X2.1491 Y3.1961 Z0.545
G0 Z0.99
X-0.1005 Y2.6859
G1 Z0.5594 F15
Z0.275 F75
X-0.1003 Y2.6857 Z0.2711
X-0.0996 Y2.6851 Z0.2673
X-0.0984 Y2.6841 Z0.2637
X-0.0969 Y2.6828 Z0.2603
X-0.0949 Y2.6811 Z0.2573
X-0.0927 Y2.6792 Z0.2548
X-0.0901 Y2.677 Z0.2527
X-0.0874 Y2.6747 Z0.2512
X-0.0845 Y2.6722 Z0.2503
X-0.0815 Y2.6697 Z0.25
X1.0901 Y1.6688
G3 X1.302 Y1.5758 I0.2598 J0.3041
G2 X1.3288 Y1.4277 I-0.0774 J-0.0905
G3 X1.4112 Y1.3016 I0.0746 J-0.0412
X1.4722 Y1.31 I-0.0613 J0.6713
X1.521 Y1.3209 I-0.1223 J0.6629 F18.75
G2 X1.5292 Y1.3122 I0.0017 J-0.0066
G3 X1.4993 Y1.1645 I0.6784 J-0.2141 F75
X1.503 Y1.0138 I0.6394 J-0.0599
X1.5142 Y0.9419 I2.974 J0.4246
G2 X1.5179 Y0.9194 I-2.9629 J-0.4966
X1.5254 Y0.8699 I-2.9666 J-0.4741 F18.75
X1.5164 Y0.8625 I-0.0068 J-0.0009
G3 X1.3685 Y0.8934 I-0.211 J-0.6403 F75
X1.3186 Y0.8962 I-0.0631 J-0.6712 F18.75
G2 X1.3098 Y0.9071 I0.0002 J0.0092
G3 X1.2853 Y1.2469 I-0.6629 J0.1229 F75
X1.2675 Y1.2936 I-0.6384 J-0.2169 F18.75
G2 X1.2744 Y1.3029 I0.0062 J0.0026
G3 X1.4112 Y1.3015 I0.0755 J0.67 F75
X1.5181 Y1.3948 I-0.011 J0.1205
G2 X1.6037 Y1.5076 I0.1683 J-0.0388
G3 X1.8538 Y1.8087 I-0.2538 J0.4653
X1.8843 Y1.9053 I-5.4247 J1.7677
G2 X1.8996 Y1.9543 I5.4531 J-1.6703
X1.9149 Y2.0019 I5.4378 J-1.7193 F18.75
G1 X1.9155 Y2.0033
X1.9166 Y2.0042
X1.918 Y2.0047
X1.9194
X1.9208 Y2.0041
X1.9219 Y2.0031
X1.9225 Y2.0018
X1.9227 Y2.0003
X1.894 Y1.7134 F75
G2 X1.8906 Y1.7022 I-0.03 J0.003
G1 X1.705 Y1.3595
G3 X1.6475 Y1.0344 I0.4671 J-0.2502
G1 X1.7105 Y0.6051
X1.7177 Y0.5557 F18.75
X1.7178 Y0.5544
X1.7176 Y0.5531
X1.7153 Y0.5431
X1.7146 Y0.5415
X1.7135 Y0.5402
X1.7119 Y0.5393
X1.7102 Y0.5391
X1.7084 Y0.5394
X1.7069 Y0.5403
X1.7058 Y0.5416
G3 X1.6618 Y0.6059 I-0.5226 J-0.31 F75
X1.605 Y0.6592 I-0.2012 J-0.1574
X1.338 Y0.7501 I-0.296 J-0.4318
X1.1075 Y0.7117 I-0.0296 J-0.5335
X1.0622 Y0.6908 I0.2009 J-0.4951 F18.75
G1 X1.0607 Y0.6905
X1.0593 Y0.6906
X1.0579 Y0.6913
X1.057 Y0.6924
X1.0565 Y0.6938
X1.0566 Y0.6953
X1.0572 Y0.6966
X1.0653 Y0.7069 F75
X1.0734 Y0.7173
G3 X1.0522 Y1.3714 I-0.4275 J0.3135
G1 X0.6221 Y1.8793
X0.5898 Y1.9175 F18.75
X0.5891 Y1.9188
X0.5889 Y1.9202
X0.5892 Y1.9216
X0.59 Y1.9228
X0.5912 Y1.9236
X0.5927 Y1.924
X0.5941 Y1.9237
X0.5954 Y1.923
X1.0058 Y1.5701 F75
G3 X1.6036 Y1.5078 I0.3441 J0.4028
G1 X1.6057 Y1.5087
X1.6079 Y1.5092
X1.6101 Y1.5093
X1.6123 Y1.509
X1.6918 Y1.4912
G3 X1.7041 Y1.4953 I0.0028 J0.0122
G1 X1.7053 Y1.4969
X1.7062 Y1.4987
X1.7068 Y1.5005
X2.1617 Y3.1568
X2.1643 Y3.1617
X2.1649 Y3.1623
X2.1657 Y3.1625
X2.1665 Y3.1623
X2.167 Y3.1617
X2.1672 Y3.1608
X2.0203 Y1.6892
G2 X2.009 Y1.6519 I-0.0995 J0.0099
G1 X1.8195 Y1.2982
G3 X1.7761 Y1.0528 I0.3526 J-0.1889
G1 X1.8481 Y0.5488
X1.7383 Y0.0738
X1.7222 Y0.004
X1.711 Y-0.0447 F18.75
X1.646 Y0.3389 F75
G3 X1.5639 Y0.5222 I-0.3944 J-0.0667
X1.5316 Y0.5522 I-0.1171 J-0.0938
X1.0392 Y0.5208 I-0.2262 J-0.33
G1 X0.6256 Y0.152
X0.5827 Y0.1137
X0.5454 Y0.0805 F18.75
Y0.1652 F75
Y0.2152 F18.75
X0.9695 Y0.7935 F75
G3 X0.9528 Y1.2877 I-0.3226 J0.2365
G1 X-0.0808 Y2.5149
X-0.0822 Y2.5169
X-0.0831 Y2.519
X-0.0837 Y2.5214
X-0.1013 Y2.6579
G2 X-0.0808 Y2.669 I0.0124 J0.0016
G1 X1.0901 Y1.6688
G3 X1.7302 Y1.849 I0.2598 J0.3041
G1 X2.1032 Y2.9935
X2.1577 Y3.1608
G2 X2.1642 Y3.1683 I0.0119 J-0.0038
G1 X2.1745 Y3.1731
G2 X2.1922 Y3.1606 I0.0053 J-0.0113
G1 X2.0452 Y1.6867
G2 X2.031 Y1.6401 I-0.1244 J0.0124
G1 X1.8415 Y1.2864
G3 X1.8008 Y1.0563 I0.3306 J-0.1771
G1 X1.8735 Y0.5477
X1.7627 Y0.0681
X1.7283 Y-0.0809
G2 X1.7169 Y-0.0906 I-0.0122 J0.0028
G1 X1.7048 Y-0.0913
G2 X1.6918 Y-0.0809 I-0.0007 J0.0125
G1 X1.6214 Y0.3348
G3 X1.5444 Y0.5066 I-0.3698 J-0.0626
X1.5175 Y0.5316 I-0.0976 J-0.0782
X1.0558 Y0.5022 I-0.2121 J-0.3094
G1 X0.6422 Y0.1333
X0.5577 Y0.058
X0.5204 Y0.0247 F18.75
Y0.1733 F75
Y0.2233 F18.75
X0.9493 Y0.8082 F75
G3 X0.9337 Y1.2716 I-0.3024 J0.2218
G1 X-0.0807 Y2.4759
X-0.0821 Y2.4781
X-0.0831 Y2.4804
X-0.0836 Y2.4829
X-0.1012 Y2.6913
G2 X-0.0807 Y2.7018 I0.0124 J0.001
G1 X1.1063 Y1.6878
G3 X1.7065 Y1.8567 I0.2436 J0.2851
G1 X2.0794 Y3.0013
X2.1313 Y3.1607
X2.1328 Y3.1643
X2.1377 Y3.1738
X2.1395 Y3.1773 Z0.2503
X2.1412 Y3.1807 Z0.2512
X2.1429 Y3.184 Z0.2527
X2.1444 Y3.1869 Z0.2548
X2.1458 Y3.1896 Z0.2573
X2.1469 Y3.1919 Z0.2603
X2.1479 Y3.1937 Z0.2637
X2.1485 Y3.195 Z0.2673
X2.149 Y3.1958 Z0.2711
X2.1491 Y3.1961 Z0.275
G0 Z1.39
X5.1319 Y3.1811
Z0.99
G1 Z0.8294 F15
Z0.545 F75
X5.1317 Y3.1809 Z0.5411
X5.1311 Y3.1802 Z0.5373
X5.1302 Y3.179 Z0.5337
X5.1289 Y3.1774 Z0.5303
X5.1273 Y3.1754 Z0.5273
X5.1254 Y3.1731 Z0.5248
X5.1233 Y3.1705 Z0.5227
X5.121 Y3.1677 Z0.5212
X5.1186 Y3.1648 Z0.5203
X5.1161 Y3.1618 Z0.52
X4.1679 Y1.9999
G3 X4.2452 Y1.2392 I0.419 J-0.3417
X4.3648 Y1.1428 I8.5047 J10.4268
G2 X4.4844 Y1.0464 I-8.3376 J-10.4643
X4.4955 Y1.0194 I-0.0193 J-0.0237
X4.4815 Y0.9102 I-2.8462 J0.3101
G3 X4.4711 Y0.8006 I1.041 J-0.1542
X4.4663 Y0.667 I10.1253 J-0.4294
G2 X4.4615 Y0.5334 I-10.1303 J0.2958
G1 X4.4611 Y0.5319
X4.4603 Y0.5306
X4.4591 Y0.5296
X4.4576 Y0.5291
X4.4561 Y0.529
X4.4546 Y0.5295
X4.4534 Y0.5305
X4.4526 Y0.5318
G2 X4.3478 Y0.7817 I13.1318 J5.6524
G3 X4.1866 Y0.9995 I-0.508 J-0.2074
X4.1006 Y1.0569 I-0.3417 J-0.419
G1 X3.9104 Y1.159
G3 X3.2012 Y0.977 I-0.2557 J-0.4764
G1 X2.9069 Y0.5206
X2.9059 Y0.5195
X2.9047 Y0.519
X2.9033 Y0.5189
X2.9019 Y0.5194
X2.9009 Y0.5203
X2.9002 Y0.5215
X2.9001 Y0.5229
X2.9005 Y0.5243
X3.3174 Y1.338
G3 X3.3713 Y1.6576 I-0.4817 J0.2456
G1 X3.1902 Y2.956
X3.1903 Y2.9576
X3.1908 Y2.959
X3.1918 Y2.9602
X3.1932 Y2.9611
X3.1947 Y2.9614
X3.1962 Y2.9612
X3.1976 Y2.9606
X3.1987 Y2.9595
X3.7232 Y2.2364
G3 X3.8758 Y2.1114 I0.3159 J0.2301
G2 X3.8427 Y1.933 I-0.101 J-0.0735
G3 X3.7446 Y1.78 I0.1194 J-0.1845
X3.7386 Y1.5901 I0.8423 J-0.1218
X3.7441 Y1.5404 I0.8483 J0.0681 F18.75
G2 X3.734 Y1.5299 I-0.0092 J-0.0013
G3 X3.6977 Y1.5325 I-0.0793 J-0.8473 F75
G2 X3.6858 Y1.5455 I0.0006 J0.0125
G3 X3.6787 Y1.7 I-0.8501 J0.0381
G1 X3.662 Y1.8203
X3.6551 Y1.8698 F18.75
X3.6552 Y1.8715
X3.6558 Y1.8731
X3.6568 Y1.8744
X3.6582 Y1.8753
X3.6599 Y1.8757
X3.6615 Y1.8756
X3.6631 Y1.8749
G3 X3.7409 Y1.8321 I0.376 J0.5916 F75
G2 X3.7503 Y1.8138 I-0.0072 J-0.0153
G3 X3.7447 Y1.78 I0.8366 J-0.1556
X3.7797 Y1.7094 I0.0687 J-0.0099
G2 X3.8203 Y1.642 I-0.0383 J-0.069
G3 X3.8406 Y1.4821 I0.7666 J0.0162
X3.8537 Y1.4338 I0.7463 J0.1761 F18.75
G2 X3.8455 Y1.4252 I-0.0065 J-0.002
G3 X3.6518 Y1.4493 I-0.1908 J-0.7426 F75
X3.6018 Y1.4475 I0.0029 J-0.7667 F18.75
G2 X3.5922 Y1.4581 I-0.0006 J0.0091
G3 X3.6033 Y1.5732 I-0.8417 J0.1396 F75
X3.597 Y1.6887 I-0.6976 J0.0201
G1 X3.5464 Y2.0436
X3.5393 Y2.0931 F18.75
X3.5394 Y2.0946
X3.54 Y2.0958
X3.541 Y2.0968
X3.5423 Y2.0974
X3.5437
X3.545 Y2.0969
X3.5461 Y2.0959
G3 X3.7947 Y1.9002 I0.493 J0.3706 F75
X3.8413 Y1.8823 I0.2444 J0.5663 F18.75
G2 X3.8493 Y1.8672 I-0.0039 J-0.0117
G3 X3.8204 Y1.642 I0.7376 J-0.209 F75
X3.9051 Y1.5287 I0.1216 J0.0026
G2 X4.0081 Y1.4318 I-0.0499 J-0.1563
G3 X4.1935 Y1.1758 I0.5805 J0.2253
X4.2958 Y1.0935 I6.0771 J7.4505
G2 X4.398 Y1.0113 I-5.9484 J-7.4998
X4.4093 Y0.9838 I-0.0197 J-0.0242
G1 X4.4036 Y0.9317
X4.3982 Y0.882 F18.75
G2 X4.3884 Y0.88 I-0.0052 J0.0005
G3 X4.2818 Y1.0225 I-0.5635 J-0.3105 F75
X4.1392 Y1.1289 I-0.4268 J-0.4232
G1 X3.9491 Y1.231
G3 X3.6559 Y1.3041 I-0.2908 J-0.5418
X3.4079 Y1.2521 I0.0024 J-0.6283
X3.3629 Y1.2304 I0.2504 J-0.5763 F18.75
G2 X3.3557 Y1.2374 I-0.0025 J0.0046
X3.3729 Y1.2691 I0.6456 J-0.3292 F75
G3 X3.3901 Y1.3009 I-0.6282 J0.3609
X3.4522 Y1.6687 I-0.5544 J0.2827
G1 X3.3227 Y2.5951
X3.3157 Y2.6446 F18.75
X3.3158 Y2.6462
X3.3163 Y2.6477
X3.3174 Y2.6489
X3.3187 Y2.6498
X3.3203 Y2.6501
X3.3219 Y2.6499
X3.3233 Y2.6492
X3.3244 Y2.6481
X3.6572 Y2.1883 F75
G3 X3.8314 Y2.0431 I0.3757 J0.2737
X4.0033 Y1.9971 I0.2074 J0.4313
X4.0533 Y1.996 I0.0355 J0.4773 F18.75
G2 X4.0594 Y1.9853 I0.0002 J-0.007
G3 X4.0081 Y1.4318 I0.5292 J-0.3282 F75
G1 X4.0092 Y1.4281 Z0.5206
X4.0098 Y1.4243 Z0.5212
Y1.4208 Z0.523
X4.0093 Y1.4173 Z0.5248
X4.0085 Y1.4147 Z0.5275
X4.0075 Y1.4121 Z0.5303
X4.0058 Y1.409 Z0.5373
X4.0051 Y1.408 Z0.545
G0 Z0.99
X5.1476 Y3.2004
G1 Z0.545 F15
X5.1475 Y3.2002 Z0.5411 F75
X5.1469 Y3.1995 Z0.5373
X5.1459 Y3.1983 Z0.5337
X5.1446 Y3.1967 Z0.5303
X5.143 Y3.1947 Z0.5273
X5.1411 Y3.1924 Z0.5248
X5.139 Y3.1898 Z0.5227
X5.1367 Y3.187 Z0.5212
X5.1343 Y3.1841 Z0.5203
X5.1318 Y3.181 Z0.52
X5.1155 Y3.161
X4.1679 Y1.9999
G3 X4.2452 Y1.2392 I0.419 J-0.3417
X4.3648 Y1.1428 I8.5047 J10.4268
G2 X4.4844 Y1.0464 I-8.3376 J-10.4643
X4.4955 Y1.0194 I-0.0193 J-0.0237
X4.4815 Y0.9102 I-2.8462 J0.3101
G3 X4.4711 Y0.8006 I1.041 J-0.1542
X4.4663 Y0.667 I10.1253 J-0.4294
G2 X4.4635 Y0.5833 I-10.1303 J0.2958
X4.4615 Y0.5334 I-10.1275 J0.3795 F18.75
G1 X4.4611 Y0.5319
X4.4603 Y0.5306
X4.4591 Y0.5296
X4.4576 Y0.5291
X4.4561 Y0.529
X4.4546 Y0.5295
X4.4534 Y0.5305
X4.4526 Y0.5318
G2 X4.3478 Y0.7817 I13.1318 J5.6524 F75
G3 X4.1866 Y0.9995 I-0.508 J-0.2074
X4.1006 Y1.0569 I-0.3417 J-0.419
G1 X3.9104 Y1.159
G3 X3.2012 Y0.977 I-0.2557 J-0.4764
G1 X2.934 Y0.5626
X2.9069 Y0.5206 F18.75
X2.9059 Y0.5195
X2.9047 Y0.519
X2.9033 Y0.5189
X2.9019 Y0.5194
X2.9009 Y0.5203
X2.9002 Y0.5215
X2.9001 Y0.5229
X2.9005 Y0.5243
X3.3174 Y1.338 F75
G3 X3.3713 Y1.6576 I-0.4817 J0.2456
G1 X3.1971 Y2.9065
X3.1902 Y2.956 F18.75
X3.1903 Y2.9576
X3.1908 Y2.959
X3.1918 Y2.9602
X3.1932 Y2.9611
X3.1947 Y2.9614
X3.1962 Y2.9612
X3.1976 Y2.9606
X3.1987 Y2.9595
X3.7232 Y2.2364 F75
G3 X4.3575 Y2.2398 I0.3159 J0.2301
G1 X5.0127 Y3.1608
G2 X5.0221 Y3.1659 I0.0101 J-0.0073
G1 X5.2861 Y3.1813
G2 X5.2965 Y3.1609 I0.0007 J-0.0125
G1 X4.277 Y1.911
G3 X4.3341 Y1.3483 I0.3099 J-0.2528
G1 X4.6014 Y1.1301
G2 X4.6375 Y1.0418 I-0.0632 J-0.0774
G1 X4.6136 Y0.8211
G3 X4.6116 Y0.7947 I0.3976 J-0.0435
G1 X4.5798 Y0.0464
X4.5744 Y-0.0804
X4.5736 Y-0.0812
X4.5727 Y-0.0824
X4.5715 Y-0.0833
X4.57 Y-0.0838
X4.5685 Y-0.0837
X4.5671 Y-0.0832
X4.5659 Y-0.0822
X4.5651 Y-0.081
X4.2123 Y0.7386
G3 X4.0341 Y0.9329 I-0.3674 J-0.1581
G1 X3.8439 Y1.035
G3 X3.3192 Y0.9004 I-0.1892 J-0.3524
G1 X3.0101 Y0.4243
X3.0037 Y0.4134
X2.8006 Y0.0343
X2.777 Y-0.0098 F18.75
X2.747 Y0.4989 F75
G2 X2.7577 Y0.5502 I0.0998 J0.0059
G1 X3.192 Y1.4019
G3 X3.2319 Y1.6383 I-0.3563 J0.1817
G1 X3.0356 Y3.0605
X3.0217 Y3.1605
G2 X3.0347 Y3.1747 I0.0124 J0.0017
G1 X3.2145 Y3.1659
G2 X3.224 Y3.1607 I-0.0006 J-0.0125
G1 X3.3763 Y2.9517
X3.837 Y2.3193
G3 X4.2428 Y2.3215 I0.2021 J0.1472
G1 X4.6924 Y2.953
X4.8402 Y3.1606
G2 X4.85 Y3.1659 I0.0102 J-0.0072
G1 X5.3186 Y3.1812
G2 X5.3287 Y3.1608 I0.0004 J-0.0125
G1 X4.2963 Y1.8952
G3 X4.3499 Y1.3676 I0.2906 J-0.237
G1 X4.6172 Y1.1495
G2 X4.6624 Y1.0391 I-0.079 J-0.0968
G1 X4.6384 Y0.8184
G3 X4.6365 Y0.7937 I0.3728 J-0.0408
G1 X4.6048 Y0.0453
X4.5995 Y-0.0806
G2 X4.5856 Y-0.0924 I-0.0125 J0.0006
G1 X4.5478 Y-0.0882
G2 X4.5377 Y-0.0807 I0.0014 J0.0124
G1 X4.1893 Y0.7288
G3 X4.0222 Y0.9109 I-0.3444 J-0.1483
G1 X3.8321 Y1.013
G3 X3.3402 Y0.8868 I-0.1774 J-0.3304
G1 X3.0311 Y0.4107
X3.0257 Y0.4016
X2.7674 Y-0.0807
X2.7669 Y-0.0814 Z0.5201
X2.7662 Y-0.0819 Z0.5205
X2.7656 Y-0.0821 Z0.5212
X2.7652 Y-0.0822 Z0.522
X2.7651 Z0.5229
Z0.8294
X2.7634 Y-0.0861
Z0.5225
X2.7632 Z0.5215
X2.7627 Z0.5207
X2.7619 Y-0.086 Z0.5202
X2.7609 Y-0.0859 Z0.52
X2.7595 Y-0.0855
X2.7582 Y-0.0848
X2.7572 Y-0.0837
X2.7565 Y-0.0824
X2.7562 Y-0.081
X2.7486 Y0.0474
X2.722 Y0.4974
G2 X2.7354 Y0.5616 I0.1248 J0.0074
G1 X3.1698 Y1.4132
G3 X3.2072 Y1.6349 I-0.3341 J0.1704
G1 X2.9965 Y3.1605
G2 X3.0094 Y3.1747 I0.0124 J0.0017
G1 X3.2453 Y3.1659
G2 X3.2549 Y3.1608 I-0.0005 J-0.0125
G1 X3.3965 Y2.9664
X3.8572 Y2.334
G3 X4.2224 Y2.336 I0.1819 J0.1325
G1 X4.672 Y2.9675
X4.8096 Y3.1607
X4.8112 Y3.1626
X4.8131 Y3.1641
X4.8153 Y3.1652
X4.8177 Y3.1658
X5.1359 Y3.2207
G2 X5.1477 Y3.2005 I0.0021 J-0.0123
G1 X5.1452 Y3.1975 Z0.5197
X5.1428 Y3.1945 Z0.5188
X5.1405 Y3.1917 Z0.5173
X5.1384 Y3.1891 Z0.5152
X5.1365 Y3.1868 Z0.5127
X5.1349 Y3.1848 Z0.5097
X5.1336 Y3.1832 Z0.5063
X5.1327 Y3.1821 Z0.5027
X5.1321 Y3.1814 Z0.4989
X5.1319 Y3.1811 Z0.495
Z0.275
X5.1317 Y3.1809 Z0.2711
X5.1311 Y3.1802 Z0.2673
X5.1302 Y3.179 Z0.2637
X5.1289 Y3.1774 Z0.2603
X5.1273 Y3.1754 Z0.2573
X5.1254 Y3.1731 Z0.2548
X5.1233 Y3.1705 Z0.2527
X5.121 Y3.1677 Z0.2512
X5.1186 Y3.1648 Z0.2503
X5.1161 Y3.1618 Z0.25
X4.1679 Y1.9999
G3 X4.2452 Y1.2392 I0.419 J-0.3417
X4.3648 Y1.1428 I8.5047 J10.4268
G2 X4.4844 Y1.0464 I-8.3376 J-10.4643
X4.4955 Y1.0194 I-0.0193 J-0.0237
X4.4815 Y0.9102 I-2.8462 J0.3101
G3 X4.4711 Y0.8006 I1.041 J-0.1542
X4.4663 Y0.667 I10.1253 J-0.4294
G2 X4.4615 Y0.5334 I-10.1303 J0.2958
G1 X4.4611 Y0.5319
X4.4603 Y0.5306
X4.4591 Y0.5296
X4.4576 Y0.5291
X4.4561 Y0.529
X4.4546 Y0.5295
X4.4534 Y0.5305
X4.4526 Y0.5318
G2 X4.3478 Y0.7817 I13.1318 J5.6524
G3 X4.1866 Y0.9995 I-0.508 J-0.2074
X4.1006 Y1.0569 I-0.3417 J-0.419
G1 X3.9104 Y1.159
G3 X3.2012 Y0.977 I-0.2557 J-0.4764
G1 X2.9069 Y0.5206
X2.9059 Y0.5195
X2.9047 Y0.519
X2.9033 Y0.5189
X2.9019 Y0.5194
X2.9009 Y0.5203
X2.9002 Y0.5215
X2.9001 Y0.5229
X2.9005 Y0.5243
X3.3174 Y1.338
G3 X3.3713 Y1.6576 I-0.4817 J0.2456
G1 X3.1902 Y2.956
X3.1903 Y2.9576
X3.1908 Y2.959
X3.1918 Y2.9602
X3.1932 Y2.9611
X3.1947 Y2.9614
X3.1962 Y2.9612
X3.1976 Y2.9606
X3.1987 Y2.9595
X3.7232 Y2.2364
G3 X3.8758 Y2.1114 I0.3159 J0.2301
G2 X3.8427 Y1.933 I-0.101 J-0.0735
G3 X3.7446 Y1.78 I0.1194 J-0.1845
X3.7386 Y1.5901 I0.8423 J-0.1218
X3.7441 Y1.5404 I0.8483 J0.0681 F18.75
G2 X3.734 Y1.5299 I-0.0092 J-0.0013
G3 X3.6977 Y1.5325 I-0.0793 J-0.8473 F75
G2 X3.6858 Y1.5455 I0.0006 J0.0125
G3 X3.6787 Y1.7 I-0.8501 J0.0381
G1 X3.662 Y1.8203
X3.6551 Y1.8698 F18.75
X3.6552 Y1.8715
X3.6558 Y1.8731
X3.6568 Y1.8744
X3.6582 Y1.8753
X3.6599 Y1.8757
X3.6615 Y1.8756
X3.6631 Y1.8749
G3 X3.7409 Y1.8321 I0.376 J0.5916 F75
G2 X3.7503 Y1.8138 I-0.0072 J-0.0153
G3 X3.7447 Y1.78 I0.8366 J-0.1556
X3.7797 Y1.7094 I0.0687 J-0.0099
G2 X3.8203 Y1.642 I-0.0383 J-0.069
G3 X3.8406 Y1.4821 I0.7666 J0.0162
X3.8537 Y1.4338 I0.7463 J0.1761 F18.75
G2 X3.8455 Y1.4252 I-0.0065 J-0.002
G3 X3.6518 Y1.4493 I-0.1908 J-0.7426 F75
X3.6018 Y1.4475 I0.0029 J-0.7667 F18.75
G2 X3.5922 Y1.4581 I-0.0006 J0.0091
G3 X3.6033 Y1.5732 I-0.8417 J0.1396 F75
X3.597 Y1.6887 I-0.6976 J0.0201
G1 X3.5464 Y2.0436
X3.5393 Y2.0931 F18.75
X3.5394 Y2.0946
X3.54 Y2.0958
X3.541 Y2.0968
X3.5423 Y2.0974
X3.5437
X3.545 Y2.0969
X3.5461 Y2.0959
G3 X3.7947 Y1.9002 I0.493 J0.3706 F75
X3.8413 Y1.8823 I0.2444 J0.5663 F18.75
G2 X3.8493 Y1.8672 I-0.0039 J-0.0117
G3 X3.8204 Y1.642 I0.7376 J-0.209 F75
X3.9051 Y1.5287 I0.1216 J0.0026
G2 X4.0081 Y1.4318 I-0.0499 J-0.1563
G3 X4.1935 Y1.1758 I0.5805 J0.2253
X4.2958 Y1.0935 I6.0771 J7.4505
G2 X4.398 Y1.0113 I-5.9484 J-7.4998
X4.4093 Y0.9838 I-0.0197 J-0.0242
G1 X4.4036 Y0.9317
X4.3982 Y0.882 F18.75
G2 X4.3884 Y0.88 I-0.0052 J0.0005
G3 X4.2818 Y1.0225 I-0.5635 J-0.3105 F75
X4.1392 Y1.1289 I-0.4268 J-0.4232
G1 X3.9491 Y1.231
G3 X3.6559 Y1.3041 I-0.2908 J-0.5418
X3.4079 Y1.2521 I0.0024 J-0.6283
X3.3629 Y1.2304 I0.2504 J-0.5763 F18.75
G2 X3.3557 Y1.2374 I-0.0025 J0.0046
X3.3729 Y1.2691 I0.6456 J-0.3292 F75
G3 X3.3901 Y1.3009 I-0.6282 J0.3609
X3.4522 Y1.6687 I-0.5544 J0.2827
G1 X3.3227 Y2.5951
X3.3157 Y2.6446 F18.75
X3.3158 Y2.6462
X3.3163 Y2.6477
X3.3174 Y2.6489
X3.3187 Y2.6498
X3.3203 Y2.6501
X3.3219 Y2.6499
X3.3233 Y2.6492
X3.3244 Y2.6481
X3.6572 Y2.1883 F75
G3 X3.8314 Y2.0431 I0.3757 J0.2737
X4.0033 Y1.9971 I0.2074 J0.4313
X4.0533 Y1.996 I0.0355 J0.4773 F18.75
G2 X4.0594 Y1.9853 I0.0002 J-0.007
G3 X4.0081 Y1.4318 I0.5292 J-0.3282 F75
G1 X4.0092 Y1.4281 Z0.2506
X4.0098 Y1.4243 Z0.2512
Y1.4208 Z0.253
X4.0093 Y1.4173 Z0.2548
X4.0085 Y1.4147 Z0.2575
X4.0075 Y1.4121 Z0.2603
X4.0058 Y1.409 Z0.2673
X4.0051 Y1.408 Z0.275
G0 Z0.99
X5.1476 Y3.2004
G1 Z0.275 F15
X5.1475 Y3.2002 Z0.2711 F75
X5.1469 Y3.1995 Z0.2673
X5.1459 Y3.1983 Z0.2637
X5.1446 Y3.1967 Z0.2603
X5.143 Y3.1947 Z0.2573
X5.1411 Y3.1924 Z0.2548
X5.139 Y3.1898 Z0.2527
X5.1367 Y3.187 Z0.2512
X5.1343 Y3.1841 Z0.2503
X5.1318 Y3.181 Z0.25
X5.1155 Y3.161
X4.1679 Y1.9999
G3 X4.2452 Y1.2392 I0.419 J-0.3417
X4.3648 Y1.1428 I8.5047 J10.4268
G2 X4.4844 Y1.0464 I-8.3376 J-10.4643
X4.4955 Y1.0194 I-0.0193 J-0.0237
X4.4815 Y0.9102 I-2.8462 J0.3101
G3 X4.4711 Y0.8006 I1.041 J-0.1542
X4.4663 Y0.667 I10.1253 J-0.4294
G2 X4.4635 Y0.5833 I-10.1303 J0.2958
X4.4615 Y0.5334 I-10.1275 J0.3795 F18.75
G1 X4.4611 Y0.5319
X4.4603 Y0.5306
X4.4591 Y0.5296
X4.4576 Y0.5291
X4.4561 Y0.529
X4.4546 Y0.5295
X4.4534 Y0.5305
X4.4526 Y0.5318
G2 X4.3478 Y0.7817 I13.1318 J5.6524 F75
G3 X4.1866 Y0.9995 I-0.508 J-0.2074
X4.1006 Y1.0569 I-0.3417 J-0.419
G1 X3.9104 Y1.159
G3 X3.2012 Y0.977 I-0.2557 J-0.4764
G1 X2.934 Y0.5626
X2.9069 Y0.5206 F18.75
X2.9059 Y0.5195
X2.9047 Y0.519
X2.9033 Y0.5189
X2.9019 Y0.5194
X2.9009 Y0.5203
X2.9002 Y0.5215
X2.9001 Y0.5229
X2.9005 Y0.5243
X3.3174 Y1.338 F75
G3 X3.3713 Y1.6576 I-0.4817 J0.2456
G1 X3.1971 Y2.9065
X3.1902 Y2.956 F18.75
X3.1903 Y2.9576
X3.1908 Y2.959
X3.1918 Y2.9602
X3.1932 Y2.9611
X3.1947 Y2.9614
X3.1962 Y2.9612
X3.1976 Y2.9606
X3.1987 Y2.9595
X3.7232 Y2.2364 F75
G3 X4.3575 Y2.2398 I0.3159 J0.2301
G1 X5.0127 Y3.1608
G2 X5.0221 Y3.1659 I0.0101 J-0.0073
G1 X5.2861 Y3.1813
G2 X5.2965 Y3.1609 I0.0007 J-0.0125
G1 X4.277 Y1.911
G3 X4.3341 Y1.3483 I0.3099 J-0.2528
G1 X4.6014 Y1.1301
G2 X4.6375 Y1.0418 I-0.0632 J-0.0774
G1 X4.6136 Y0.8211
G3 X4.6116 Y0.7947 I0.3976 J-0.0435
G1 X4.5798 Y0.0464
X4.5744 Y-0.0804
X4.5736 Y-0.0812
X4.5727 Y-0.0824
X4.5715 Y-0.0833
X4.57 Y-0.0838
X4.5685 Y-0.0837
X4.5671 Y-0.0832
X4.5659 Y-0.0822
X4.5651 Y-0.081
X4.2123 Y0.7386
G3 X4.0341 Y0.9329 I-0.3674 J-0.1581
G1 X3.8439 Y1.035
G3 X3.3192 Y0.9004 I-0.1892 J-0.3524
G1 X3.0101 Y0.4243
X3.0037 Y0.4134
X2.8006 Y0.0343
X2.777 Y-0.0098 F18.75
X2.747 Y0.4989 F75
G2 X2.7577 Y0.5502 I0.0998 J0.0059
G1 X3.192 Y1.4019
G3 X3.2319 Y1.6383 I-0.3563 J0.1817
G1 X3.0356 Y3.0605
X3.0217 Y3.1605
G2 X3.0347 Y3.1747 I0.0124 J0.0017
G1 X3.2145 Y3.1659
G2 X3.224 Y3.1607 I-0.0006 J-0.0125
G1 X3.3763 Y2.9517
X3.837 Y2.3193
G3 X4.2428 Y2.3215 I0.2021 J0.1472
G1 X4.6924 Y2.953
X4.8402 Y3.1606
G2 X4.85 Y3.1659 I0.0102 J-0.0072
G1 X5.3186 Y3.1812
G2 X5.3287 Y3.1608 I0.0004 J-0.0125
G1 X4.2963 Y1.8952
G3 X4.3499 Y1.3676 I0.2906 J-0.237
G1 X4.6172 Y1.1495
G2 X4.6624 Y1.0391 I-0.079 J-0.0968
G1 X4.6384 Y0.8184
G3 X4.6365 Y0.7937 I0.3728 J-0.0408
G1 X4.6048 Y0.0453
X4.5995 Y-0.0806
G2 X4.5856 Y-0.0924 I-0.0125 J0.0006
G1 X4.5478 Y-0.0882
G2 X4.5377 Y-0.0807 I0.0014 J0.0124
G1 X4.1893 Y0.7288
G3 X4.0222 Y0.9109 I-0.3444 J-0.1483
G1 X3.8321 Y1.013
G3 X3.3402 Y0.8868 I-0.1774 J-0.3304
G1 X3.0311 Y0.4107
X3.0257 Y0.4016
X2.7674 Y-0.0807
X2.7669 Y-0.0814 Z0.2501
X2.7662 Y-0.0819 Z0.2505
X2.7656 Y-0.0821 Z0.2512
X2.7652 Y-0.0822 Z0.252
X2.7651 Z0.2529
Z0.5594
X2.7634 Y-0.0861
Z0.2525
X2.7632 Z0.2515
X2.7627 Z0.2507
X2.7619 Y-0.086 Z0.2502
X2.7609 Y-0.0859 Z0.25
X2.7595 Y-0.0855
X2.7582 Y-0.0848
X2.7572 Y-0.0837
X2.7565 Y-0.0824
X2.7562 Y-0.081
X2.7486 Y0.0474
X2.722 Y0.4974
G2 X2.7354 Y0.5616 I0.1248 J0.0074
G1 X3.1698 Y1.4132
G3 X3.2072 Y1.6349 I-0.3341 J0.1704
G1 X2.9965 Y3.1605
G2 X3.0094 Y3.1747 I0.0124 J0.0017
G1 X3.2453 Y3.1659
G2 X3.2549 Y3.1608 I-0.0005 J-0.0125
G1 X3.3965 Y2.9664
X3.8572 Y2.334
G3 X4.2224 Y2.336 I0.1819 J0.1325
G1 X4.672 Y2.9675
X4.8096 Y3.1607
X4.8121 Y3.1638
X4.8197 Y3.1714
X4.8224 Y3.1742 Z0.2503
X4.8251 Y3.1769 Z0.2512
X4.8276 Y3.1795 Z0.2527
X4.8299 Y3.1819 Z0.2548
X4.832 Y3.184 Z0.2573
X4.8338 Y3.1859 Z0.2603
X4.8353 Y3.1873 Z0.2637
X4.8363 Y3.1884 Z0.2673
X4.837 Y3.189 Z0.2711
X4.8372 Y3.1893 Z0.275
G0 Z1.39
X6.2347 Y3.2005
Z0.99
G1 Z0.545 F15
G19 G2 Y3.1755 Z0.52 J-0.025 K0 F75
G1 Y3.1607
Y2.5556
Y2.5056 F18.75
X6.2345 Y2.5042
X6.2337 Y2.503
X6.2325 Y2.5022
X6.231 Y2.5019
X6.2296 Y2.5022
X6.2284 Y2.503
X6.2276 Y2.5042
X6.2273 Y2.5056
X6.226 Y3.1609 F75
G17 G2 X6.2385 Y3.1734 I0.0125 J0
G1 X6.3476 Y3.1731
G2 X6.3601 Y3.1606 I0 J-0.0125
G1 Y2.4996
G2 X6.3572 Y2.4758 I-0.1 J0
G1 X5.9258 Y0.7127
X5.9228 Y0.6992
X5.7917 Y0.0706
X5.7602 Y-0.0805
X5.7594 Y-0.083
G2 X5.7387 Y-0.0809 I-0.0101 J0.0037
G1 X5.7169 Y0.0624
X5.6599 Y0.4397
G2 X5.6623 Y0.4811 I0.0989 J0.015
G1 X6.0885 Y2.0372
G3 X6.1027 Y2.1437 I-0.3857 J0.1057
G1 X6.1009 Y3.0403
X6.1006 Y3.1609
G2 X6.1131 Y3.1734 I0.0125 J0
G1 X6.3726 Y3.1731
G2 X6.3851 Y3.1606 I0 J-0.0125
G1 Y2.4996
G2 X6.3815 Y2.4699 I-0.125 J0
G1 X5.9501 Y0.7068
X5.9473 Y0.6941
X5.8162 Y0.0655
X5.7857 Y-0.0808
G2 X5.7736 Y-0.0908 I-0.0122 J0.0025
G1 X5.7258 Y-0.0913
G2 X5.7132 Y-0.0807 I-0.0002 J0.0125
G1 X5.6922 Y0.0587
X5.6352 Y0.436
G2 X5.6382 Y0.4877 I0.1236 J0.0187
G1 X6.0644 Y2.0438
G3 X6.0777 Y2.1436 I-0.3616 J0.0991
G1 X6.0759 Y3.0403
X6.0756 Y3.1608
Y3.1609
G2 X6.0837 Y3.1726 I0.0125 J0
G1 X6.2178 Y3.2233
G2 X6.2346 Y3.2117 I0.0044 J-0.0116
G19 G3 X6.2347 Y3.1867 Z0.495 J0 K-0.025
G1 Z0.275
G2 Y3.1617 Z0.25 J-0.025 K0
G1 Y3.1607
Y2.5556
Y2.5056 F18.75
X6.2345 Y2.5042
X6.2337 Y2.503
X6.2325 Y2.5022
X6.231 Y2.5019
X6.2296 Y2.5022
X6.2284 Y2.503
X6.2276 Y2.5042
X6.2273 Y2.5056
X6.226 Y3.1609 F75
G17 G2 X6.2385 Y3.1734 I0.0125 J0
G1 X6.3476 Y3.1731
G2 X6.3601 Y3.1606 I0 J-0.0125
G1 Y2.4996
G2 X6.3572 Y2.4758 I-0.1 J0
G1 X5.9258 Y0.7127
X5.9228 Y0.6992
X5.7917 Y0.0706
X5.7602 Y-0.0805
X5.7594 Y-0.083
G2 X5.7387 Y-0.0809 I-0.0101 J0.0037
G1 X5.7169 Y0.0624
X5.6599 Y0.4397
G2 X5.6623 Y0.4811 I0.0989 J0.015
G1 X6.0885 Y2.0372
G3 X6.1027 Y2.1437 I-0.3857 J0.1057
G1 X6.1009 Y3.0403
X6.1006 Y3.1609
G2 X6.1131 Y3.1734 I0.0125 J0
G1 X6.3726 Y3.1731
G2 X6.3851 Y3.1606 I0 J-0.0125
G1 Y2.4996
G2 X6.3815 Y2.4699 I-0.125 J0
G1 X5.9501 Y0.7068
X5.9473 Y0.6941
X5.8162 Y0.0655
X5.7857 Y-0.0808
G2 X5.7736 Y-0.0908 I-0.0122 J0.0025
G1 X5.7258 Y-0.0913
G2 X5.7132 Y-0.0807 I-0.0002 J0.0125
G1 X5.6922 Y0.0587
X5.6352 Y0.436
G2 X5.6382 Y0.4877 I0.1236 J0.0187
G1 X6.0644 Y2.0438
G3 X6.0777 Y2.1436 I-0.3616 J0.0991
G1 X6.0759 Y3.0403
X6.0756 Y3.1608
X6.0759 Y3.1647
X6.0776 Y3.1754
X6.0782 Y3.1792 Z0.2503
X6.0788 Y3.183 Z0.2512
X6.0793 Y3.1866 Z0.2527
X6.0798 Y3.1899 Z0.2548
X6.0803 Y3.1928 Z0.2573
X6.0807 Y3.1953 Z0.2603
X6.081 Y3.1974 Z0.2637
X6.0812 Y3.1989 Z0.2673
X6.0814 Y3.1998 Z0.2711
Y3.2001 Z0.275
G0 Z1.39
X7.3304 Y3.2006
Z0.99
G1 Z0.545 F15
X7.3305 Y3.2003 Z0.5411 F75
X7.3307 Y3.1995 Z0.5373
X7.331 Y3.198 Z0.5337
X7.3315 Y3.196 Z0.5303
X7.3321 Y3.1935 Z0.5273
X7.3328 Y3.1906 Z0.5248
X7.3336 Y3.1874 Z0.5227
X7.3345 Y3.1839 Z0.5212
X7.3353 Y3.1801 Z0.5203
X7.3363 Y3.1763 Z0.52
X7.34 Y3.1608
X7.4558 Y2.6798
X7.4561 Y2.6779
X7.4562 Y2.6759
Y2.6218
Y2.5718 F18.75
X7.456 Y2.5703
X7.4552 Y2.569
X7.4541 Y2.5681
X7.4527 Y2.5676
X7.4512 Y2.5677
X7.4498 Y2.5682
X7.4487 Y2.5692
X7.448 Y2.5705
X7.2646 Y3.1607 F75
X7.2643 Y3.1617
X7.2631 Y3.1654 Z0.5203
X7.262 Y3.169 Z0.5212
X7.2609 Y3.1725 Z0.5227
X7.2599 Y3.1757 Z0.5248
X7.2591 Y3.1785 Z0.5273
X7.2583 Y3.181 Z0.5303
X7.2577 Y3.1829 Z0.5337
X7.2572 Y3.1844 Z0.5373
X7.257 Y3.1852 Z0.5411
X7.2569 Y3.1855 Z0.545
Z0.8294
X7.4606 Y3.1861
Z0.545
X7.4607 Y3.1858 Z0.5411
X7.4609 Y3.1849 Z0.5373
X7.4613 Y3.1834 Z0.5337
X7.4618 Y3.1814 Z0.5303
X7.4624 Y3.1789 Z0.5273
X7.4631 Y3.176 Z0.5248
X7.4638 Y3.1728 Z0.5227
X7.4647 Y3.1693 Z0.5212
X7.4656 Y3.1656 Z0.5203
X7.4665 Y3.1618 Z0.52
X7.5042 Y3.0049
X7.5794 Y2.6925
Y2.3532
G2 X7.5789 Y2.3426 I-0.1 J-0.0001
G1 X7.4739 Y1.3498
G2 X7.4092 Y1.3239 I-0.0392 J0.0042
G3 X7.3445 Y1.298 I-0.0255 J-0.0301
G1 X7.3035 Y0.9096
X7.2982 Y0.8599 F18.75
X7.2978 Y0.8585
X7.2969 Y0.8573
X7.2957 Y0.8565
X7.2942 Y0.8562
X7.2928 Y0.8565
X7.2915 Y0.8572
X7.2906 Y0.8583
X7.2901 Y0.8597
X7.2721 Y0.9804 F75
X7.272 Y0.9831
X7.2722 Y0.9859
X7.3343 Y1.3111
X7.3437 Y1.3602 F18.75
X7.3442 Y1.3615
X7.3452 Y1.3625
X7.3465 Y1.3631
X7.3479 Y1.3632
X7.3492 Y1.3627
X7.3502 Y1.3618
X7.3509 Y1.3605
X7.351 Y1.3591
X7.3445 Y1.298 F75
X7.3393 Y1.2942
X7.3385 Y1.2934
X7.3382 Y1.2924
X7.3144 Y-0.0712
X7.3114 Y-0.0813
X7.3108 Y-0.0824
X7.3097 Y-0.0831
X7.3085 Y-0.0833
X7.3073 Y-0.0829
X7.3064 Y-0.0821
X7.3059 Y-0.0809
X7.2846 Y0.0621
X7.1493 Y0.9688
G2 X7.15 Y1.0024 I0.0989 J0.0148
G1 X7.3927 Y2.274
G3 X7.3886 Y2.3466 I-0.1473 J0.0281
G1 X7.1593 Y3.0845
X7.1356 Y3.1608
G2 X7.1478 Y3.177 I0.0119 J0.0037
G1 X7.4548 Y3.1704
G2 X7.4668 Y3.1608 I-0.0002 J-0.0125
G1 X7.5042 Y3.0049
X7.5794 Y2.6925
Y2.3532
G2 X7.5789 Y2.3426 I-0.1 J-0.0001
G1 X7.3371 Y0.0558
X7.3226 Y-0.0807
G2 X7.3099 Y-0.0919 I-0.0124 J0.0013
G1 X7.2927 Y-0.0915
G2 X7.2806 Y-0.0809 I0.0003 J0.0125
G1 X7.2599 Y0.0584
X7.1246 Y0.9652
G2 X7.1255 Y1.007 I0.1236 J0.0184
G1 X7.3682 Y2.2787
G3 X7.3648 Y2.3392 I-0.1228 J0.0234
G1 X7.1354 Y3.0771
X7.1094 Y3.1609
G2 X7.1215 Y3.1771 I0.0119 J0.0037
G1 X7.4806 Y3.1701
G2 X7.4925 Y3.1605 I-0.0003 J-0.0125
G1 X7.5285 Y3.0108
X7.6044 Y2.6955
Y2.3532
G2 X7.6037 Y2.34 I-0.125 J-0.0001
G1 X7.3619 Y0.0531
X7.3477 Y-0.0809
X7.347 Y-0.0848
X7.3442 Y-0.0951
X7.3432 Y-0.0989 Z0.5203
X7.3422 Y-0.1026 Z0.5212
X7.3413 Y-0.1061 Z0.5227
X7.3404 Y-0.1093 Z0.5248
X7.3397 Y-0.1122 Z0.5273
X7.339 Y-0.1147 Z0.5303
X7.3385 Y-0.1166 Z0.5337
X7.3381 Y-0.1181 Z0.5373
X7.3378 Y-0.119 Z0.5411
Y-0.1193 Z0.545
G0 Z0.99
X7.4606 Y3.1861
G1 Z0.5594 F15
Z0.275 F75
X7.4607 Y3.1858 Z0.2711
X7.4609 Y3.1849 Z0.2673
X7.4613 Y3.1834 Z0.2637
X7.4618 Y3.1814 Z0.2603
X7.4624 Y3.1789 Z0.2573
X7.4631 Y3.176 Z0.2548
X7.4638 Y3.1728 Z0.2527
X7.4647 Y3.1693 Z0.2512
X7.4656 Y3.1656 Z0.2503
X7.4665 Y3.1618 Z0.25
X7.5042 Y3.0049
X7.5794 Y2.6925
Y2.3532
G2 X7.5789 Y2.3426 I-0.1 J-0.0001
G1 X7.4739 Y1.3498
G2 X7.4092 Y1.3239 I-0.0392 J0.0042
G3 X7.3445 Y1.298 I-0.0255 J-0.0301
G1 X7.3035 Y0.9096
X7.2982 Y0.8599 F18.75
X7.2978 Y0.8585
X7.2969 Y0.8573
X7.2957 Y0.8565
X7.2942 Y0.8562
X7.2928 Y0.8565
X7.2915 Y0.8572
X7.2906 Y0.8583
X7.2901 Y0.8597
X7.2721 Y0.9804 F75
X7.272 Y0.9831
X7.2722 Y0.9859
X7.3343 Y1.3111
X7.3437 Y1.3602 F18.75
X7.3442 Y1.3615
X7.3452 Y1.3625
X7.3465 Y1.3631
X7.3479 Y1.3632
X7.3492 Y1.3627
X7.3502 Y1.3618
X7.3509 Y1.3605
X7.351 Y1.3591
X7.3445 Y1.298 F75
X7.3441 Y1.2941 Z0.2503
X7.3437 Y1.2903 Z0.2512
X7.3433 Y1.2867 Z0.2527
X7.343 Y1.2833 Z0.2548
X7.3427 Y1.2804 Z0.2573
X7.3424 Y1.2778 Z0.2603
X7.3422 Y1.2758 Z0.2637
X7.342 Y1.2743 Z0.2673
X7.3419 Y1.2734 Z0.2711
Y1.2731 Z0.275
G0 Z0.99
X7.3304 Y3.2006
G1 Z0.275 F15
X7.3305 Y3.2003 Z0.2711 F75
X7.3307 Y3.1995 Z0.2673
X7.331 Y3.198 Z0.2637
X7.3315 Y3.196 Z0.2603
X7.3321 Y3.1935 Z0.2573
X7.3328 Y3.1906 Z0.2548
X7.3336 Y3.1874 Z0.2527
X7.3345 Y3.1839 Z0.2512
X7.3353 Y3.1801 Z0.2503
X7.3363 Y3.1763 Z0.25
X7.34 Y3.1608
X7.4558 Y2.6798
X7.4561 Y2.6779
X7.4562 Y2.6759
Y2.6218
Y2.5718 F18.75
X7.456 Y2.5703
X7.4552 Y2.569
X7.4541 Y2.5681
X7.4527 Y2.5676
X7.4512 Y2.5677
X7.4498 Y2.5682
X7.4487 Y2.5692
X7.448 Y2.5705
X7.2646 Y3.1607 F75
G2 X7.277 Y3.1769 I0.0119 J0.0037
G1 X7.455 Y3.1704
G2 X7.4668 Y3.1608 I-0.0004 J-0.0125
G1 X7.5042 Y3.0049
X7.5794 Y2.6925
Y2.3532
G2 X7.5789 Y2.3426 I-0.1 J-0.0001
G1 X7.3371 Y0.0558
X7.3226 Y-0.0807
G2 X7.3078 Y-0.0851 I-0.0083 J0.0009
G1 X7.3077 Y-0.0849
X7.3065 Y-0.083
X7.3059 Y-0.0809
X7.2846 Y0.0621
X7.1493 Y0.9688
G2 X7.15 Y1.0024 I0.0989 J0.0148
G1 X7.3927 Y2.274
G3 X7.3886 Y2.3466 I-0.1473 J0.0281
G1 X7.1593 Y3.0845
X7.1356 Y3.1608
G2 X7.1477 Y3.177 I0.0119 J0.0037
G1 X7.4806 Y3.1701
G2 X7.4925 Y3.1605 I-0.0003 J-0.0125
G1 X7.5285 Y3.0108
X7.6044 Y2.6955
Y2.3532
G2 X7.6037 Y2.34 I-0.125 J-0.0001
G1 X7.3619 Y0.0531
X7.3477 Y-0.0809
G2 X7.3351 Y-0.0921 I-0.0124 J0.0013
G1 X7.2928 Y-0.0915
G2 X7.2806 Y-0.0809 I0.0002 J0.0125
G1 X7.2599 Y0.0584
X7.1246 Y0.9652
G2 X7.1255 Y1.007 I0.1236 J0.0184
G1 X7.3682 Y2.2787
G3 X7.3648 Y2.3392 I-0.1228 J0.0234
G1 X7.1354 Y3.0771
X7.1094 Y3.1609
X7.1085 Y3.1647
X7.1069 Y3.1753
X7.1064 Y3.1792 Z0.2503
X7.1058 Y3.183 Z0.2512
X7.1053 Y3.1866 Z0.2527
X7.1048 Y3.1899 Z0.2548
X7.1044 Y3.1928 Z0.2573
X7.104 Y3.1954 Z0.2603
X7.1037 Y3.1974 Z0.2637
X7.1035 Y3.1989 Z0.2673
X7.1034 Y3.1998 Z0.2711
X7.1033 Y3.2001 Z0.275
G0 Z1.39

(2D Contour1)
X0.265 Y-0.16
Z1.39
Z0.99
G1 Z0.555 F15
G19 G3 Y-0.135 Z0.53 J0.025 K0 F75
G1 Y-0.11
G17 G2 X0.29 Y-0.085 I0.025 J0
G1 X7.79
G3 X8.165 Y0.29 I0 J0.375
G1 Y2.79
G3 X7.79 Y3.165 I-0.375 J0
G1 X0.29
G3 X-0.085 Y2.79 I0 J-0.375
G1 Y0.29
G3 X0.29 Y-0.085 I0.375 J0
G2 X0.315 Y-0.11 I0 J-0.025
G1 Y-0.135
G19 G2 Y-0.16 Z0.555 J0 K0.025
G0 Z0.99
X0.265
G1 Z0.295 F15
G3 Y-0.135 Z0.27 J0.025 K0 F75
G1 Y-0.11
G17 G2 X0.29 Y-0.085 I0.025 J0
G1 X7.79
G3 X8.165 Y0.29 I0 J0.375
G1 Y2.79
G3 X7.79 Y3.165 I-0.375 J0
G1 X0.29
G3 X-0.085 Y2.79 I0 J-0.375
G1 Y0.29
G3 X0.29 Y-0.085 I0.375 J0
G2 X0.315 Y-0.11 I0 J-0.025
G1 Y-0.135
G19 G2 Y-0.16 Z0.295 J0 K0.025
G0 Z0.99
X0.265
G1 Z0.033 F15
G3 Y-0.135 Z0.008 J0.025 K0 F75
G1 Y-0.11
G17 G2 X0.29 Y-0.085 I0.025 J0
G1 X7.79
G3 X8.165 Y0.29 I0 J0.375
G1 Y2.79
G3 X7.79 Y3.165 I-0.375 J0
G1 X0.29
G3 X-0.085 Y2.79 I0 J-0.375
G1 Y0.29
G3 X0.29 Y-0.085 I0.375 J0
G2 X0.315 Y-0.11 I0 J-0.025
G1 Y-0.135
G19 G2 Y-0.16 Z0.033 J0 K0.025
G0 Z0.99
X0.265
G1 Z0.025 F15
G3 Y-0.135 Z0 J0.025 K0 F75
G1 Y-0.11
G17 G2 X0.29 Y-0.085 I0.025 J0
G1 X7.79
G3 X8.165 Y0.29 I0 J0.375
G1 Y2.79
G3 X7.79 Y3.165 I-0.375 J0
G1 X0.29
G3 X-0.085 Y2.79 I0 J-0.375
G1 Y0.29
G3 X0.29 Y-0.085 I0.375 J0
G2 X0.315 Y-0.11 I0 J-0.025
G1 Y-0.135
G19 G2 Y-0.16 Z0.025 J0 K0.025
G0 Z1.39
G17
G28 G91 Z0
G90
G28 G91 X0 Y0
G90
M30
%
