%
(Double Climbing Keyholder V7)
(T1  D=0.25 CR=0 - ZMIN=0 - flat end mill)
G90
G17
G20
G28 G91 Z0
G90

(2D Pocket1)
T1 M6
S21000 M3
G54
G0 X1.2122 Y1.1652
Z1.35
Z0.95
G1 Z0.875 F15
X1.2125 Y1.1664 Z0.8674 F13.333
X1.2133 Y1.1697 Z0.8606
X1.2147 Y1.1748 Z0.8551
X1.2168 Y1.1812 Z0.8514
X1.2197 Y1.1881 Z0.85
G2 X1.4371 Y1.0926 Z0.837 I0.1087 J-0.0478
X1.2197 Y1.1881 Z0.8239 I-0.1087 J0.0477
X1.4371 Y1.0926 Z0.8109 I0.1087 J-0.0478
X1.2197 Y1.1881 Z0.7979 I-0.1087 J0.0477
X1.4371 Y1.0926 Z0.7849 I0.1087 J-0.0478
X1.2197 Y1.1881 Z0.7718 I-0.1087 J0.0477
X1.4371 Y1.0926 Z0.7588 I0.1087 J-0.0478
X1.2197 Y1.1881 Z0.7458 I-0.1087 J0.0477
X1.4371 Y1.0926 Z0.7328 I0.1087 J-0.0478
X1.2197 Y1.1881 Z0.7197 I-0.1087 J0.0477
X1.4371 Y1.0926 Z0.7067 I0.1087 J-0.0478
X1.2197 Y1.1881 Z0.6937 I-0.1087 J0.0477
X1.4371 Y1.0926 Z0.6806 I0.1087 J-0.0478
X1.2197 Y1.1881 Z0.6676 I-0.1087 J0.0477
X1.4371 Y1.0926 Z0.6546 I0.1087 J-0.0478
X1.2197 Y1.1881 Z0.6416 I-0.1087 J0.0477
X1.4371 Y1.0926 Z0.6285 I0.1087 J-0.0478
X1.2197 Y1.1881 Z0.6155 I-0.1087 J0.0477
X1.4371 Y1.0926 Z0.6025 I0.1087 J-0.0478
X1.2197 Y1.1881 Z0.5894 I-0.1087 J0.0477
X1.4371 Y1.0926 Z0.5764 I0.1087 J-0.0478
X1.2197 Y1.1881 Z0.5634 I-0.1087 J0.0477
X1.4371 Y1.0926 Z0.5504 I0.1087 J-0.0478
X1.2197 Y1.1881 Z0.5373 I-0.1087 J0.0477
X1.4371 Y1.0926 Z0.5243 I0.1087 J-0.0478
X1.2197 Y1.1881 Z0.5113 I-0.1087 J0.0477
X1.4471 Y1.1412 Z0.5 I0.1087 J-0.0478
G3 X1.4502 Y1.0781 I0.7571 J0.0056 F75
X1.4564 Y1.0285 I0.754 J0.0687 F18.75
G2 X1.4469 Y1.0176 I-0.0093 J-0.0015
G3 X1.3958 Y1.0169 I-0.015 J-0.7569 F75
G2 X1.3826 Y1.0284 I-0.0006 J0.0126
G3 X1.3697 Y1.1174 I-0.7544 J-0.0637
X1.358 Y1.166 I-0.7415 J-0.1527 F18.75
G2 X1.3664 Y1.178 I0.0091 J0.0026
G3 X1.3872 Y1.1798 I-0.0565 J0.7549 F75
X1.4367 Y1.1865 I-0.0773 J0.7531 F18.75
G2 X1.4477 Y1.1769 I0.0016 J-0.0093
G3 X1.4471 Y1.1412 I0.7565 J-0.0301 F75
X1.4919 Y1.0774 I0.0685 J0.0005
G2 X1.5424 Y1.0181 I-0.0273 J-0.0744
G3 X1.551 Y0.9798 I0.6618 J0.1287
X1.5652 Y0.9318 I0.6532 J0.167 F18.75
G2 X1.5575 Y0.9231 I-0.0064 J-0.0021
G3 X1.3619 Y0.9313 I-0.1256 J-0.6624 F75
X1.3124 Y0.9243 I0.07 J-0.6706 F18.75
G2 X1.3018 Y0.9336 I-0.0016 J0.0089
G3 X1.2577 Y1.2063 I-0.6736 J0.0311 F75
X1.2381 Y1.2523 I-0.6295 J-0.2416 F18.75
G2 X1.2448 Y1.2618 I0.006 J0.0029
G3 X1.4889 Y1.2828 I0.0651 J0.6711 F75
X1.5366 Y1.2979 I-0.179 J0.6501 F18.75
G2 X1.5453 Y1.2902 I0.0022 J-0.0063
G3 X1.5423 Y1.0181 I0.6589 J-0.1434 F75
X1.6464 Y0.924 I0.1146 J0.0222
G2 X1.7611 Y0.8443 I-0.0126 J-0.1405
G1 X1.9241 Y0.5034
X1.9457 Y0.4583 F18.75
X1.9464 Y0.4563
X1.9466 Y0.4542
Y0.4332
X1.9463 Y0.4316
X1.9456 Y0.4302
X1.9444 Y0.4292
X1.9429 Y0.4286
X1.9414 Y0.4284
X1.9398 Y0.4289
X1.9385 Y0.4298
X1.9376 Y0.431
G2 X1.9209 Y0.4658 I0.7362 J0.3739 F75
G3 X1.9043 Y0.5005 I-0.7528 J-0.3391
X1.1032 Y0.6741 I-0.4712 J-0.2392
X1.0657 Y0.6411 I0.3299 J-0.4128 F18.75
G1 X1.0644 Y0.6403
X1.0629 Y0.64
X1.0614 Y0.6404
X1.0602 Y0.6413
X1.0594 Y0.6426
X1.0592 Y0.6441
X1.0595 Y0.6456
G2 X1.0814 Y0.6879 I1.1294 J-0.5576 F75
G3 X1.1033 Y0.7302 I-1.1075 J0.5999
X1.0334 Y1.306 I-0.4751 J0.2345
G1 X0.5821 Y1.8393
X0.5498 Y1.8775 F18.75
X0.5491 Y1.8788
X0.5489 Y1.8802
X0.5492 Y1.8816
X0.55 Y1.8828
X0.5512 Y1.8836
X0.5527 Y1.884
X0.5541 Y1.8837
X0.5554 Y1.883
X0.9658 Y1.5301 F75
G3 X1.8136 Y1.7688 I0.3441 J0.4028
X1.8657 Y1.9315 I-15.4168 J5.0235
G2 X1.9023 Y2.0465 I15.4596 J-4.858
X1.9177 Y2.0941 I15.423 J-4.973 F18.75
G1 X1.9185 Y2.0954
X1.9196 Y2.0964
X1.921 Y2.0969
X1.9225
X1.9239 Y2.0963
X1.925 Y2.0953
X1.9257 Y2.094
X1.9259 Y2.0925
X1.9134 Y1.9084 F75
X1.913 Y1.9054
X1.9122 Y1.9024
X1.7049 Y1.3241
G3 X1.7252 Y0.9203 I0.4993 J-0.1773
G1 X1.7614 Y0.8444
X1.7628 Y0.8408 Z0.5006
X1.7636 Y0.837 Z0.5012
X1.7638 Y0.8335 Z0.503
X1.7635 Y0.8301 Z0.5048
X1.763 Y0.8274 Z0.5075
X1.7621 Y0.8247 Z0.5103
X1.7606 Y0.8215 Z0.5173
X1.76 Y0.8205 Z0.525
G0 Z0.95
X2.1264 Y3.1606
G1 Z0.525 F15
Y3.1603 Z0.5211 F75
X2.1263 Y3.1594 Z0.5173
X2.1262 Y3.1579 Z0.5137
X2.126 Y3.1558 Z0.5103
X2.1259 Y3.1533 Z0.5073
X2.1257 Y3.1503 Z0.5048
X2.1255 Y3.147 Z0.5027
X2.1252 Y3.1433 Z0.5012
X2.1249 Y3.1395 Z0.5003
X2.1247 Y3.1356 Z0.5
X2.1237 Y3.1206
X2.0407 Y1.8929
G2 X2.0352 Y1.8661 I-0.0998 J0.0067
G1 X1.8272 Y1.2806
G3 X1.8426 Y0.9758 I0.377 J-0.1338
G1 X2.0533 Y0.5303
X2.0746 Y0.4851 F18.75
Y-0.0716 F75
Y-0.1216 F18.75
X1.9784 Y0.0679 F75
X1.7885 Y0.4418
G3 X1.1343 Y0.5279 I-0.3566 J-0.1811
G1 X0.7151 Y0.0613
X0.6817 Y0.0241 F18.75
Y0.1196 F75
Y0.1696 F18.75
X0.9869 Y0.7876 F75
G3 X0.9342 Y1.2224 I-0.3587 J0.1771
G1 X-0.1208 Y2.4749
X-0.1222 Y2.4769
X-0.1231 Y2.479
X-0.1237 Y2.4814
X-0.1413 Y2.6179
G2 X-0.1208 Y2.629 I0.0124 J0.0016
G1 X1.0501 Y1.6288
G3 X1.6902 Y1.809 I0.2598 J0.3041
G1 X2.1177 Y3.1208
X2.1188 Y3.1233
X2.1204 Y3.1254
X2.1224 Y3.1272
X2.1291 Y3.1319
G2 X2.1488 Y3.1208 I0.0072 J-0.0102
G1 X2.0656 Y1.8912
G2 X2.0587 Y1.8578 I-0.1247 J0.0084
G1 X1.8508 Y1.2723
G3 X1.8652 Y0.9865 I0.3534 J-0.1255
G1 X2.0783 Y0.5359
X2.0996 Y0.4907 F18.75
Y-0.1206 F75
G2 X2.0849 Y-0.1329 I-0.0125 J0
G1 X2.055 Y-0.1274
G2 X2.0461 Y-0.1208 I0.0023 J0.0123
G1 X1.9561 Y0.0566
X1.7662 Y0.4305
G3 X1.1529 Y0.5112 I-0.3343 J-0.1698
G1 X0.7687 Y0.0835
X0.6901 Y-0.004
X0.6567 Y-0.0412 F18.75
Y0.1254 F75
Y0.1754 F18.75
X0.9645 Y0.7987 F75
G3 X0.915 Y1.2063 I-0.3363 J0.166
G1 X-0.1207 Y2.4359
X-0.1221 Y2.4381
X-0.1231 Y2.4404
X-0.1236 Y2.4429
X-0.1412 Y2.6513
G2 X-0.1207 Y2.6618 I0.0124 J0.001
G1 X1.0663 Y1.6478
G3 X1.6665 Y1.8167 I0.2436 J0.2851
G1 X2.0394 Y2.9613
X2.0913 Y3.1207
X2.0928 Y3.1242 Z0.5006
X2.0948 Y3.1275 Z0.5012
X2.097 Y3.1302 Z0.503
X2.0996 Y3.1325 Z0.5048
X2.1019 Y3.1341 Z0.5075
X2.1043 Y3.1355 Z0.5103
X2.1076 Y3.1368 Z0.5173
X2.1088 Y3.1371 Z0.525
G0 Z0.95
X1.2122 Y1.1652
G1 Z0.625 F15
X1.2125 Y1.1664 Z0.6174 F13.333
X1.2133 Y1.1697 Z0.6106
X1.2147 Y1.1748 Z0.6051
X1.2168 Y1.1812 Z0.6014
X1.2197 Y1.1881 Z0.6
G2 X1.4371 Y1.0926 Z0.587 I0.1087 J-0.0478
X1.2197 Y1.1881 Z0.5739 I-0.1087 J0.0477
X1.4371 Y1.0926 Z0.5609 I0.1087 J-0.0478
X1.2197 Y1.1881 Z0.5479 I-0.1087 J0.0477
X1.4371 Y1.0926 Z0.5349 I0.1087 J-0.0478
X1.2197 Y1.1881 Z0.5218 I-0.1087 J0.0477
X1.4371 Y1.0926 Z0.5088 I0.1087 J-0.0478
X1.2197 Y1.1881 Z0.4958 I-0.1087 J0.0477
X1.4371 Y1.0926 Z0.4828 I0.1087 J-0.0478
X1.2197 Y1.1881 Z0.4697 I-0.1087 J0.0477
X1.4371 Y1.0926 Z0.4567 I0.1087 J-0.0478
X1.2197 Y1.1881 Z0.4437 I-0.1087 J0.0477
X1.4371 Y1.0926 Z0.4306 I0.1087 J-0.0478
X1.2197 Y1.1881 Z0.4176 I-0.1087 J0.0477
X1.4371 Y1.0926 Z0.4046 I0.1087 J-0.0478
X1.2197 Y1.1881 Z0.3916 I-0.1087 J0.0477
X1.4371 Y1.0926 Z0.3785 I0.1087 J-0.0478
X1.2197 Y1.1881 Z0.3655 I-0.1087 J0.0477
X1.4371 Y1.0926 Z0.3525 I0.1087 J-0.0478
X1.2197 Y1.1881 Z0.3394 I-0.1087 J0.0477
X1.4371 Y1.0926 Z0.3264 I0.1087 J-0.0478
X1.2197 Y1.1881 Z0.3134 I-0.1087 J0.0477
X1.4371 Y1.0926 Z0.3004 I0.1087 J-0.0478
X1.2197 Y1.1881 Z0.2873 I-0.1087 J0.0477
X1.4371 Y1.0926 Z0.2743 I0.1087 J-0.0478
X1.2197 Y1.1881 Z0.2613 I-0.1087 J0.0477
X1.4471 Y1.1412 Z0.25 I0.1087 J-0.0478
G3 X1.4502 Y1.0781 I0.7571 J0.0056 F75
X1.4564 Y1.0285 I0.754 J0.0687 F18.75
G2 X1.4469 Y1.0176 I-0.0093 J-0.0015
G3 X1.3958 Y1.0169 I-0.015 J-0.7569 F75
G2 X1.3826 Y1.0284 I-0.0006 J0.0126
G3 X1.3697 Y1.1174 I-0.7544 J-0.0637
X1.358 Y1.166 I-0.7415 J-0.1527 F18.75
G2 X1.3664 Y1.178 I0.0091 J0.0026
G3 X1.3872 Y1.1798 I-0.0565 J0.7549 F75
X1.4367 Y1.1865 I-0.0773 J0.7531 F18.75
G2 X1.4477 Y1.1769 I0.0016 J-0.0093
G3 X1.4471 Y1.1412 I0.7565 J-0.0301 F75
X1.4919 Y1.0774 I0.0685 J0.0005
G2 X1.5424 Y1.0181 I-0.0273 J-0.0744
G3 X1.551 Y0.9798 I0.6618 J0.1287
X1.5652 Y0.9318 I0.6532 J0.167 F18.75
G2 X1.5575 Y0.9231 I-0.0064 J-0.0021
G3 X1.3619 Y0.9313 I-0.1256 J-0.6624 F75
X1.3124 Y0.9243 I0.07 J-0.6706 F18.75
G2 X1.3018 Y0.9336 I-0.0016 J0.0089
G3 X1.2577 Y1.2063 I-0.6736 J0.0311 F75
X1.2381 Y1.2523 I-0.6295 J-0.2416 F18.75
G2 X1.2448 Y1.2618 I0.006 J0.0029
G3 X1.4889 Y1.2828 I0.0651 J0.6711 F75
X1.5366 Y1.2979 I-0.179 J0.6501 F18.75
G2 X1.5453 Y1.2902 I0.0022 J-0.0063
G3 X1.5423 Y1.0181 I0.6589 J-0.1434 F75
X1.6464 Y0.924 I0.1146 J0.0222
G2 X1.7611 Y0.8443 I-0.0126 J-0.1405
G1 X1.9241 Y0.5034
X1.9457 Y0.4583 F18.75
X1.9464 Y0.4563
X1.9466 Y0.4542
Y0.4332
X1.9463 Y0.4316
X1.9456 Y0.4302
X1.9444 Y0.4292
X1.9429 Y0.4286
X1.9414 Y0.4284
X1.9398 Y0.4289
X1.9385 Y0.4298
X1.9376 Y0.431
G2 X1.9209 Y0.4658 I0.7362 J0.3739 F75
G3 X1.9043 Y0.5005 I-0.7528 J-0.3391
X1.1032 Y0.6741 I-0.4712 J-0.2392
X1.0657 Y0.6411 I0.3299 J-0.4128 F18.75
G1 X1.0644 Y0.6403
X1.0629 Y0.64
X1.0614 Y0.6404
X1.0602 Y0.6413
X1.0594 Y0.6426
X1.0592 Y0.6441
X1.0595 Y0.6456
G2 X1.0814 Y0.6879 I1.1294 J-0.5576 F75
G3 X1.1033 Y0.7302 I-1.1075 J0.5999
X1.0334 Y1.306 I-0.4751 J0.2345
G1 X0.5821 Y1.8393
X0.5498 Y1.8775 F18.75
X0.5491 Y1.8788
X0.5489 Y1.8802
X0.5492 Y1.8816
X0.55 Y1.8828
X0.5512 Y1.8836
X0.5527 Y1.884
X0.5541 Y1.8837
X0.5554 Y1.883
X0.9658 Y1.5301 F75
G3 X1.8136 Y1.7688 I0.3441 J0.4028
X1.8657 Y1.9315 I-15.4168 J5.0235
G2 X1.9023 Y2.0465 I15.4596 J-4.858
X1.9177 Y2.0941 I15.423 J-4.973 F18.75
G1 X1.9185 Y2.0954
X1.9196 Y2.0964
X1.921 Y2.0969
X1.9225
X1.9239 Y2.0963
X1.925 Y2.0953
X1.9257 Y2.094
X1.9259 Y2.0925
X1.9134 Y1.9084 F75
X1.913 Y1.9054
X1.9122 Y1.9024
X1.7049 Y1.3241
G3 X1.7252 Y0.9203 I0.4993 J-0.1773
G1 X1.7614 Y0.8444
X1.7628 Y0.8408 Z0.2506
X1.7636 Y0.837 Z0.2512
X1.7638 Y0.8335 Z0.253
X1.7635 Y0.8301 Z0.2548
X1.763 Y0.8274 Z0.2575
X1.7621 Y0.8247 Z0.2603
X1.7606 Y0.8215 Z0.2673
X1.76 Y0.8205 Z0.275
G0 Z0.95
X2.1264 Y3.1606
G1 Z0.275 F15
Y3.1603 Z0.2711 F75
X2.1263 Y3.1594 Z0.2673
X2.1262 Y3.1579 Z0.2637
X2.126 Y3.1558 Z0.2603
X2.1259 Y3.1533 Z0.2573
X2.1257 Y3.1503 Z0.2548
X2.1255 Y3.147 Z0.2527
X2.1252 Y3.1433 Z0.2512
X2.1249 Y3.1395 Z0.2503
X2.1247 Y3.1356 Z0.25
X2.1237 Y3.1206
X2.0407 Y1.8929
G2 X2.0352 Y1.8661 I-0.0998 J0.0067
G1 X1.8272 Y1.2806
G3 X1.8426 Y0.9758 I0.377 J-0.1338
G1 X2.0533 Y0.5303
X2.0746 Y0.4851 F18.75
Y-0.0716 F75
Y-0.1216 F18.75
X1.9784 Y0.0679 F75
X1.7885 Y0.4418
G3 X1.1343 Y0.5279 I-0.3566 J-0.1811
G1 X0.7151 Y0.0613
X0.6817 Y0.0241 F18.75
Y0.1196 F75
Y0.1696 F18.75
X0.9869 Y0.7876 F75
G3 X0.9342 Y1.2224 I-0.3587 J0.1771
G1 X-0.1208 Y2.4749
X-0.1222 Y2.4769
X-0.1231 Y2.479
X-0.1237 Y2.4814
X-0.1413 Y2.6179
G2 X-0.1208 Y2.629 I0.0124 J0.0016
G1 X1.0501 Y1.6288
G3 X1.6902 Y1.809 I0.2598 J0.3041
G1 X2.1177 Y3.1208
X2.1188 Y3.1233
X2.1204 Y3.1254
X2.1224 Y3.1272
X2.1291 Y3.1319
G2 X2.1488 Y3.1208 I0.0072 J-0.0102
G1 X2.0656 Y1.8912
G2 X2.0587 Y1.8578 I-0.1247 J0.0084
G1 X1.8508 Y1.2723
G3 X1.8652 Y0.9865 I0.3534 J-0.1255
G1 X2.0783 Y0.5359
X2.0996 Y0.4907 F18.75
Y-0.1206 F75
G2 X2.0849 Y-0.1329 I-0.0125 J0
G1 X2.055 Y-0.1274
G2 X2.0461 Y-0.1208 I0.0023 J0.0123
G1 X1.9561 Y0.0566
X1.7662 Y0.4305
G3 X1.1529 Y0.5112 I-0.3343 J-0.1698
G1 X0.7687 Y0.0835
X0.6901 Y-0.004
X0.6567 Y-0.0412 F18.75
Y0.1254 F75
Y0.1754 F18.75
X0.9645 Y0.7987 F75
G3 X0.915 Y1.2063 I-0.3363 J0.166
G1 X-0.1207 Y2.4359
X-0.1221 Y2.4381
X-0.1231 Y2.4404
X-0.1236 Y2.4429
X-0.1412 Y2.6513
G2 X-0.1207 Y2.6618 I0.0124 J0.001
G1 X1.0663 Y1.6478
G3 X1.6665 Y1.8167 I0.2436 J0.2851
G1 X2.0394 Y2.9613
X2.0913 Y3.1207
X2.0928 Y3.1242 Z0.2506
X2.0948 Y3.1275 Z0.2512
X2.097 Y3.1302 Z0.253
X2.0996 Y3.1325 Z0.2548
X2.1019 Y3.1341 Z0.2575
X2.1043 Y3.1355 Z0.2603
X2.1076 Y3.1368 Z0.2673
X2.1088 Y3.1371 Z0.275
G0 Z1.35
X5.1179 Y3.1605
Z0.95
G1 Z0.525 F15
X5.1177 Y3.1603 Z0.5211 F75
X5.1171 Y3.1596 Z0.5173
X5.116 Y3.1586 Z0.5137
X5.1146 Y3.1571 Z0.5103
X5.1128 Y3.1553 Z0.5073
X5.1107 Y3.1532 Z0.5048
X5.1084 Y3.1508 Z0.5027
X5.1058 Y3.1482 Z0.5012
X5.1031 Y3.1455 Z0.5003
X5.1004 Y3.1427 Z0.5
X5.079 Y3.1209
X5.078 Y3.1199
X4.6919 Y2.7223
X4.657 Y2.6865 F18.75
X4.6559 Y2.6856
X4.6545 Y2.6853
X4.6531 Y2.6855
X4.6518 Y2.6862
X4.6509 Y2.6873
X4.6505 Y2.6887
X4.6506 Y2.6901
X4.6512 Y2.6914
X4.9571 Y3.121 F75
X4.9576 Y3.1218
X4.9599 Y3.125 Z0.5003
X4.9621 Y3.1281 Z0.5012
X4.9642 Y3.131 Z0.5027
X4.9661 Y3.1338 Z0.5048
X4.9679 Y3.1362 Z0.5073
X4.9693 Y3.1383 Z0.5103
X4.9705 Y3.1399 Z0.5137
X4.9714 Y3.1411 Z0.5173
X4.9719 Y3.1419 Z0.5211
X4.9721 Y3.1421 Z0.525
Z0.7894
X5.3311 Y3.1307
Z0.525
X5.3308 Y3.1305 Z0.5211
X5.3299 Y3.1302 Z0.5173
X5.3285 Y3.1296 Z0.5137
X5.3266 Y3.1289 Z0.5103
X5.3243 Y3.1279 Z0.5073
X5.3215 Y3.1268 Z0.5048
X5.3184 Y3.1256 Z0.5027
X5.315 Y3.1242 Z0.5012
X5.3115 Y3.1228 Z0.5003
X5.3079 Y3.1213 Z0.5
X5.307 Y3.1209
G3 X5.1706 Y3.0295 I0.1497 J-0.3709
G1 X4.2819 Y2.12
G3 X4.1684 Y1.823 I0.2861 J-0.2795
X3.9644 Y1.5336 I0.7964 J-0.7781
G2 X3.6159 Y1.592 I-0.1656 J0.0808
G3 X3.5962 Y1.7449 I-3.4471 J-0.3661
G2 X3.5811 Y1.8478 I11.6549 J1.7648
X3.5741 Y1.8974 I11.67 J1.6619 F18.75
G1 X3.5743 Y1.8991
X3.5749 Y1.9008
X3.5761 Y1.9021
X3.5776 Y1.903
X3.5793 Y1.9033
X3.5811 Y1.903
X3.5826 Y1.9022
G3 X3.7363 Y1.8106 I0.4165 J0.5243 F75
G2 X3.75 Y1.7912 I-0.0089 J-0.0208
G3 X3.7687 Y1.6599 I0.818 J0.0493
G2 X3.7601 Y1.645 I-0.0124 J-0.0028
G3 X3.6707 Y1.6099 I0.1995 J-0.6392
X3.6264 Y1.5867 I0.2889 J-0.6041 F18.75
G2 X3.6159 Y1.592 I-0.0035 J0.0061
G3 X3.5302 Y1.6922 I-0.1158 J-0.0123 F75
G2 X3.4428 Y1.7911 I0.031 J0.1155
G1 X3.3639 Y2.3541
X3.3569 Y2.4037 F18.75
X3.357 Y2.4052
X3.3575 Y2.4067
X3.3585 Y2.4079
X3.3598 Y2.4087
X3.3613 Y2.409
X3.3629 Y2.4088
X3.3643 Y2.4082
X3.3654 Y2.4071
X3.5744 Y2.1172 F75
G3 X3.7124 Y1.9873 I0.414 J0.3015
X3.8393 Y1.9278 I0.2896 J0.4527
X3.8876 Y1.9149 I0.1627 J0.5122 F18.75
G2 X3.8972 Y1.9017 I-0.0027 J-0.0121
G3 X3.9448 Y1.5849 I0.6708 J-0.0612 F75
X3.9655 Y1.5394 I0.6232 J0.2556 F18.75
G2 X3.9593 Y1.5294 I-0.0062 J-0.0031
G3 X3.7879 Y1.5014 I0.0003 J-0.5401 F75
X3.635 Y1.4189 I0.162 J-0.4833
X3.5397 Y1.3436 I14.5338 J-18.5001
X3.4858 Y1.2966 I0.4906 J-0.6179
X3.4507 Y1.261 I0.5445 J-0.5709 F18.75
G1 X3.4494 Y1.2601
X3.4478 Y1.2595
X3.4462
X3.4446 Y1.26
X3.4433 Y1.2609
X3.4423 Y1.2622
X3.4419 Y1.2638
Y1.2654
G2 X3.4536 Y1.3249 I2.0483 J-0.3733 F75
G3 X3.4653 Y1.3844 I-2.0378 J0.433
X3.4699 Y1.5978 I-0.6644 J0.1211
G1 X3.4428 Y1.7911
G3 X3.3555 Y1.8892 I-0.1173 J-0.0165
G2 X3.2683 Y1.9874 I0.03 J0.1145
G1 X3.1397 Y2.9099
X3.1327 Y2.9594 F18.75
X3.1328 Y2.961
X3.1333 Y2.9624
X3.1343 Y2.9636
X3.1357 Y2.9644
X3.1372 Y2.9648
X3.1387 Y2.9646
X3.1401 Y2.9639
X3.1413 Y2.9628
X3.6925 Y2.2031 F75
G3 X3.8622 Y2.0736 I0.3022 J0.2202
X4.0255 Y2.0497 I0.1358 J0.3584
X4.075 Y2.0565 I-0.0275 J0.3823 F18.75
G2 X4.0826 Y2.0472 I0.0014 J-0.0066
G3 X4.1981 Y1.4618 I0.488 J-0.2078 F75
G1 X4.5696 Y1.1014
G2 X4.5936 Y1.0622 I-0.0656 J-0.0671
G1 X4.7099 Y0.689
G2 X4.7109 Y0.6507 I-0.0671 J-0.0209
G1 X4.6574 Y0.4408
X4.645 Y0.3923 F18.75
G2 X4.6351 Y0.3915 I-0.0051 J0.0013
G1 X4.308 Y1.1558 F75
G3 X3.7253 Y1.3041 I-0.3484 J-0.15
G1 X3.6185 Y1.2203
G3 X3.4897 Y1.0731 I0.327 J-0.4162
G1 X3.1917 Y0.5651
X3.1664 Y0.522 F18.75
X3.1655 Y0.5208
X3.1642 Y0.5201
X3.1627 Y0.5198
X3.1612 Y0.5201
X3.1599 Y0.5209
X3.159 Y0.522
X3.1585 Y0.5234
Y0.5249
X3.3217 Y1.4105 F75
G3 X3.3276 Y1.5392 I-0.4711 J0.0859
X3.313 Y1.6672 I-2.6902 J-0.2415
G1 X3.2683 Y1.9874
X3.1615 Y3.1122
G2 X3.184 Y3.1207 I0.0124 J0.0012
G1 X3.797 Y2.2793
G3 X4.2028 Y2.2815 I0.2021 J0.1472
G1 X4.6524 Y2.913
X4.8002 Y3.1206
G2 X4.8099 Y3.1259 I0.0102 J-0.0072
G1 X5.3018 Y3.145
G2 X5.307 Y3.1209 I0.0005 J-0.0125
G3 X5.1706 Y3.0295 I0.1497 J-0.3709
G1 X4.2819 Y2.12
G3 X4.2885 Y1.5544 I0.2861 J-0.2795
G1 X4.6807 Y1.1712
G2 X4.7063 Y1.1295 I-0.0699 J-0.0715
G1 X4.8399 Y0.7005
G2 X4.8414 Y0.646 I-0.0954 J-0.0298
G1 X4.686 Y0.0371
X4.6845 Y0.0311
X4.6721 Y-0.0173 F18.75
X4.6392 Y0.0593 F75
X4.1892 Y1.1047
G3 X3.8052 Y1.2024 I-0.2296 J-0.0989
G1 X3.6984 Y1.1186
G3 X3.601 Y1.0074 I0.2471 J-0.3145
G1 X2.9352 Y-0.1209
X2.9346 Y-0.1254
G2 X2.9113 Y-0.1205 I-0.0116 J0.0027
G1 X3.1945 Y1.4337
G3 X3.1972 Y1.5602 I-0.3936 J0.0718
G1 X2.9817 Y3.1205
G2 X2.9946 Y3.1347 I0.0124 J0.0017
G1 X3.2053 Y3.1259
G2 X3.2149 Y3.1208 I-0.0005 J-0.0125
G1 X3.8172 Y2.294
G3 X4.1824 Y2.296 I0.1819 J0.1325
G1 X4.632 Y2.9275
X4.7696 Y3.1207
G2 X4.7794 Y3.126 I0.0102 J-0.0072
G1 X5.3997 Y3.1458
G2 X5.4019 Y3.1211 I0.0004 J-0.0124
G3 X5.1884 Y3.0121 I0.0548 J-0.3711
G1 X4.2998 Y2.1025
G3 X4.306 Y1.5723 I0.2682 J-0.262
G1 X4.6981 Y1.1891
G2 X4.7301 Y1.1369 I-0.0873 J-0.0894
G1 X4.8638 Y0.7079
G2 X4.8656 Y0.6398 I-0.1193 J-0.0372
G1 X4.7103 Y0.0309
X4.6906 Y-0.0462
X4.6782 Y-0.0947 F18.75
X4.6162 Y0.0494 F75
X4.1662 Y1.0948
G3 X3.8206 Y1.1827 I-0.2066 J-0.089
G1 X3.7138 Y1.099
G3 X3.6225 Y0.9947 I0.2317 J-0.2949
G1 X2.9642 Y-0.1209
G2 X2.9553 Y-0.127 I-0.0108 J0.0063
G1 X2.8999 Y-0.1355
G2 X2.8857 Y-0.1209 I-0.0019 J0.0124
G1 X3.1699 Y1.4382
G3 X3.1725 Y1.5567 I-0.369 J0.0673
G1 X2.9708 Y3.0171
X2.9565 Y3.1205
X2.9563 Y3.1244
X2.9565 Y3.1352
X2.9566 Y3.1391 Z0.5003
Y3.1429 Z0.5012
X2.9567 Y3.1465 Z0.5027
X2.9568 Y3.1499 Z0.5048
Y3.1528 Z0.5073
X2.9569 Y3.1554 Z0.5103
Y3.1574 Z0.5137
X2.957 Y3.1589 Z0.5173
Y3.1599 Z0.5211
Y3.1602 Z0.525
G0 Z0.95
X5.3311 Y3.1307
G1 Z0.5394 F15
Z0.275 F75
X5.3308 Y3.1305 Z0.2711
X5.3299 Y3.1302 Z0.2673
X5.3285 Y3.1296 Z0.2637
X5.3266 Y3.1289 Z0.2603
X5.3243 Y3.1279 Z0.2573
X5.3215 Y3.1268 Z0.2548
X5.3184 Y3.1256 Z0.2527
X5.315 Y3.1242 Z0.2512
X5.3115 Y3.1228 Z0.2503
X5.3079 Y3.1213 Z0.25
X5.307 Y3.1209
G3 X5.1706 Y3.0295 I0.1497 J-0.3709
G1 X4.2819 Y2.12
G3 X4.1684 Y1.823 I0.2861 J-0.2795
X3.9644 Y1.5336 I0.7964 J-0.7781
G2 X3.6159 Y1.592 I-0.1656 J0.0808
G3 X3.5962 Y1.7449 I-3.4471 J-0.3661
G2 X3.5811 Y1.8478 I11.6549 J1.7648
X3.5741 Y1.8974 I11.67 J1.6619 F18.75
G1 X3.5743 Y1.8991
X3.5749 Y1.9008
X3.5761 Y1.9021
X3.5776 Y1.903
X3.5793 Y1.9033
X3.5811 Y1.903
X3.5826 Y1.9022
G3 X3.7363 Y1.8106 I0.4165 J0.5243 F75
G2 X3.75 Y1.7912 I-0.0089 J-0.0208
G3 X3.7687 Y1.6599 I0.818 J0.0493
G2 X3.7601 Y1.645 I-0.0124 J-0.0028
G3 X3.6707 Y1.6099 I0.1995 J-0.6392
X3.6264 Y1.5867 I0.2889 J-0.6041 F18.75
G2 X3.6159 Y1.592 I-0.0035 J0.0061
G3 X3.5302 Y1.6922 I-0.1158 J-0.0123 F75
G2 X3.4428 Y1.7911 I0.031 J0.1155
G1 X3.3639 Y2.3541
X3.3569 Y2.4037 F18.75
X3.357 Y2.4052
X3.3575 Y2.4067
X3.3585 Y2.4079
X3.3598 Y2.4087
X3.3613 Y2.409
X3.3629 Y2.4088
X3.3643 Y2.4082
X3.3654 Y2.4071
X3.5744 Y2.1172 F75
G3 X3.7124 Y1.9873 I0.414 J0.3015
X3.8393 Y1.9278 I0.2896 J0.4527
X3.8876 Y1.9149 I0.1627 J0.5122 F18.75
G2 X3.8972 Y1.9017 I-0.0027 J-0.0121
G3 X3.9448 Y1.5849 I0.6708 J-0.0612 F75
X3.9655 Y1.5394 I0.6232 J0.2556 F18.75
G2 X3.9593 Y1.5294 I-0.0062 J-0.0031
G3 X3.7879 Y1.5014 I0.0003 J-0.5401 F75
X3.635 Y1.4189 I0.162 J-0.4833
X3.5397 Y1.3436 I14.5338 J-18.5001
X3.4858 Y1.2966 I0.4906 J-0.6179
X3.4507 Y1.261 I0.5445 J-0.5709 F18.75
G1 X3.4494 Y1.2601
X3.4478 Y1.2595
X3.4462
X3.4446 Y1.26
X3.4433 Y1.2609
X3.4423 Y1.2622
X3.4419 Y1.2638
Y1.2654
G2 X3.4536 Y1.3249 I2.0483 J-0.3733 F75
G3 X3.4653 Y1.3844 I-2.0378 J0.433
X3.4699 Y1.5978 I-0.6644 J0.1211
G1 X3.4428 Y1.7911
G3 X3.3555 Y1.8892 I-0.1173 J-0.0165
G2 X3.2683 Y1.9874 I0.03 J0.1145
G1 X3.1397 Y2.9099
X3.1327 Y2.9594 F18.75
X3.1328 Y2.961
X3.1333 Y2.9624
X3.1343 Y2.9636
X3.1357 Y2.9644
X3.1372 Y2.9648
X3.1387 Y2.9646
X3.1401 Y2.9639
X3.1413 Y2.9628
X3.6925 Y2.2031 F75
G3 X3.8622 Y2.0736 I0.3022 J0.2202
X4.0255 Y2.0497 I0.1358 J0.3584
X4.075 Y2.0565 I-0.0275 J0.3823 F18.75
G2 X4.0826 Y2.0472 I0.0014 J-0.0066
G3 X4.1981 Y1.4618 I0.488 J-0.2078 F75
G1 X4.5696 Y1.1014
G2 X4.5936 Y1.0622 I-0.0656 J-0.0671
G1 X4.7099 Y0.689
G2 X4.7109 Y0.6507 I-0.0671 J-0.0209
G1 X4.6574 Y0.4408
X4.645 Y0.3923 F18.75
G2 X4.6351 Y0.3915 I-0.0051 J0.0013
G1 X4.308 Y1.1558 F75
G3 X3.7253 Y1.3041 I-0.3484 J-0.15
G1 X3.6185 Y1.2203
G3 X3.4897 Y1.0731 I0.327 J-0.4162
G1 X3.1917 Y0.5651
X3.1664 Y0.522 F18.75
X3.1655 Y0.5208
X3.1642 Y0.5201
X3.1627 Y0.5198
X3.1612 Y0.5201
X3.1599 Y0.5209
X3.159 Y0.522
X3.1585 Y0.5234
Y0.5249
X3.3217 Y1.4105 F75
G3 X3.3276 Y1.5392 I-0.4711 J0.0859
X3.313 Y1.6672 I-2.6902 J-0.2415
G1 X3.2683 Y1.9874
X3.2681 Y1.9913 Z0.2506
X3.2684 Y1.9951 Z0.2512
X3.2693 Y1.9985 Z0.253
X3.2706 Y2.0017 Z0.2548
X3.2719 Y2.0041 Z0.2575
X3.2735 Y2.0064 Z0.2603
X3.2759 Y2.009 Z0.2673
X3.2768 Y2.0098 Z0.275
G0 Z0.95
X5.1179 Y3.1605
G1 Z0.275 F15
X5.1177 Y3.1603 Z0.2711 F75
X5.1171 Y3.1596 Z0.2673
X5.116 Y3.1586 Z0.2637
X5.1146 Y3.1571 Z0.2603
X5.1128 Y3.1553 Z0.2573
X5.1107 Y3.1532 Z0.2548
X5.1084 Y3.1508 Z0.2527
X5.1058 Y3.1482 Z0.2512
X5.1031 Y3.1455 Z0.2503
X5.1004 Y3.1427 Z0.25
X5.079 Y3.1209
X5.078 Y3.1199
X4.6919 Y2.7223
X4.657 Y2.6865 F18.75
X4.6559 Y2.6856
X4.6545 Y2.6853
X4.6531 Y2.6855
X4.6518 Y2.6862
X4.6509 Y2.6873
X4.6505 Y2.6887
X4.6506 Y2.6901
X4.6512 Y2.6914
X4.9571 Y3.121 F75
G2 X4.9665 Y3.1261 I0.0101 J-0.0073
G1 X5.3016 Y3.145
G2 X5.307 Y3.1209 I0.0007 J-0.0125
G3 X5.1706 Y3.0295 I0.1497 J-0.3709
G1 X4.2819 Y2.12
G3 X4.2885 Y1.5544 I0.2861 J-0.2795
G1 X4.6807 Y1.1712
G2 X4.7063 Y1.1295 I-0.0699 J-0.0715
G1 X4.8399 Y0.7005
G2 X4.8414 Y0.646 I-0.0954 J-0.0298
G1 X4.686 Y0.0371
X4.6845 Y0.0311
X4.6721 Y-0.0173 F18.75
X4.6392 Y0.0593 F75
X4.1892 Y1.1047
G3 X3.8052 Y1.2024 I-0.2296 J-0.0989
G1 X3.6984 Y1.1186
G3 X3.601 Y1.0074 I0.2471 J-0.3145
G1 X2.9352 Y-0.1209
X2.9346 Y-0.1254
G2 X2.9113 Y-0.1205 I-0.0116 J0.0027
G1 X3.1945 Y1.4337
G3 X3.1972 Y1.5602 I-0.3936 J0.0718
G1 X2.9817 Y3.1205
G2 X2.9947 Y3.1347 I0.0124 J0.0017
G1 X3.1745 Y3.1259
G2 X3.184 Y3.1207 I-0.0006 J-0.0125
G1 X3.797 Y2.2793
G3 X4.2028 Y2.2815 I0.2021 J0.1472
G1 X4.6524 Y2.913
X4.8002 Y3.1206
G2 X4.81 Y3.1259 I0.0102 J-0.0072
G1 X5.3997 Y3.1458
G2 X5.4019 Y3.1211 I0.0004 J-0.0124
G3 X5.1884 Y3.0121 I0.0548 J-0.3711
G1 X4.2998 Y2.1025
G3 X4.306 Y1.5723 I0.2682 J-0.262
G1 X4.6981 Y1.1891
G2 X4.7301 Y1.1369 I-0.0873 J-0.0894
G1 X4.8638 Y0.7079
G2 X4.8656 Y0.6398 I-0.1193 J-0.0372
G1 X4.7103 Y0.0309
X4.6906 Y-0.0462
X4.6782 Y-0.0947 F18.75
X4.6162 Y0.0494 F75
X4.1662 Y1.0948
G3 X3.8206 Y1.1827 I-0.2066 J-0.089
G1 X3.7138 Y1.099
G3 X3.6225 Y0.9947 I0.2317 J-0.2949
G1 X2.9642 Y-0.1209
G2 X2.9553 Y-0.127 I-0.0108 J0.0063
G1 X2.8999 Y-0.1355
G2 X2.8857 Y-0.1209 I-0.0019 J0.0124
G1 X3.1699 Y1.4382
G3 X3.1725 Y1.5567 I-0.369 J0.0673
G1 X2.9708 Y3.0171
X2.9565 Y3.1205
G2 X2.9694 Y3.1347 I0.0124 J0.0017
G1 X3.2053 Y3.1259
G2 X3.2149 Y3.1208 I-0.0005 J-0.0125
G1 X3.8172 Y2.294
G3 X4.1824 Y2.296 I0.1819 J0.1325
G1 X4.632 Y2.9275
X4.7696 Y3.1207
X4.7721 Y3.1238
X4.7797 Y3.1314
X4.7824 Y3.1342 Z0.2503
X4.7851 Y3.1369 Z0.2512
X4.7876 Y3.1395 Z0.2527
X4.7899 Y3.1419 Z0.2548
X4.792 Y3.144 Z0.2573
X4.7938 Y3.1459 Z0.2603
X4.7953 Y3.1473 Z0.2637
X4.7963 Y3.1484 Z0.2673
X4.797 Y3.149 Z0.2711
X4.7972 Y3.1493 Z0.275
G0 Z1.35
X6.2684 Y3.1461
Z0.95
G1 Z0.7894 F15
Z0.525 F75
Y3.1458 Z0.5211
X6.2682 Y3.1449 Z0.5173
X6.2679 Y3.1434 Z0.5137
X6.2674 Y3.1414 Z0.5103
X6.2669 Y3.1389 Z0.5073
X6.2663 Y3.136 Z0.5048
X6.2656 Y3.1327 Z0.5027
X6.2649 Y3.1292 Z0.5012
X6.2641 Y3.1254 Z0.5003
X6.2633 Y3.1216 Z0.5
X6.2296 Y2.9587
G2 X6.1745 Y2.8975 I-0.0798 J0.0165
G3 X6.1194 Y2.8364 I0.0249 J-0.0778
G1 X5.9061 Y1.8119
G3 X5.8934 Y1.6874 I0.6031 J-0.1244
G1 X5.895 Y1.2812
X5.8952 Y1.2312 F18.75
X5.8949 Y1.2297
X5.8942 Y1.2285
X5.893 Y1.2277
X5.8916 Y1.2273
X5.8901 Y1.2275
X5.8889 Y1.2281
X5.8879 Y1.2292
X5.8875 Y1.2306
X5.815 Y1.7329 F75
G2 X5.8159 Y1.7489 I0.0399 J0.0057
G1 X6.1277 Y2.9256
X6.1405 Y2.9739 F18.75
X6.1412 Y2.9752
X6.1422 Y2.9762
X6.1435 Y2.9767
X6.145 Y2.9766
X6.1463 Y2.976
X6.1472 Y2.975
X6.1478 Y2.9737
X6.1477 Y2.9722
X6.1195 Y2.8364 F75
G3 X6.1436 Y2.83 I0.0122 J-0.0026
G1 X6.239 Y3.127
G2 X6.2631 Y3.1206 I0.0119 J-0.0038
G1 X5.9886 Y1.7949
G3 X5.9776 Y1.6874 I0.5206 J-0.1074
G1 X5.9794 Y0.6302
G2 X5.9741 Y0.6102 I-0.0403 J0
G1 X5.9322 Y0.5367
X5.9075 Y0.4932 F18.75
X5.9064 Y0.492
X5.9051 Y0.4911
X5.9035 Y0.4908
X5.9019 Y0.4909
X5.9005 Y0.4916
X5.8993 Y0.4927
X5.8985 Y0.4941
X5.8983 Y0.4957
Y0.5525 F75
G3 X5.8947 Y0.6033 I-0.3558 J0
G1 X5.7309 Y1.7266
G2 X5.7331 Y1.7648 I0.0948 J0.0137
G1 X6.0923 Y3.1208
G2 X6.1042 Y3.1301 I0.0121 J-0.0032
G1 X6.3845 Y3.136
G2 X6.397 Y3.121 I0.0003 J-0.0125
G1 X6.1175 Y1.7684
G3 X6.1092 Y1.6874 I0.3917 J-0.0809
G1 Y0.6116
G2 X6.0961 Y0.5621 I-0.1 J0
G1 X5.8181 Y0.0743
X5.7932 Y0.0305
X5.7685 Y-0.0129 F18.75
Y0.5274 F75
G3 X5.7644 Y0.5845 I-0.4 J0
G1 X5.5987 Y1.7334
G2 X5.601 Y1.7733 I0.099 J0.0143
G1 X5.9159 Y2.9616
X5.958 Y3.1208
G2 X5.97 Y3.1301 I0.0121 J-0.0032
G1 X6.4101 Y3.1356
G2 X6.4224 Y3.1205 I0.0001 J-0.0125
G1 X6.142 Y1.7633
G3 X6.1343 Y1.6874 I0.3672 J-0.0758
G1 X6.1342 Y0.6116
G2 X6.1178 Y0.5497 I-0.125 J0
G1 X5.8399 Y0.0619
X5.7682 Y-0.0638
X5.7435 Y-0.1073 F18.75
Y0.5274 F75
G3 X5.7397 Y0.5809 I-0.375 J0
G1 X5.574 Y1.7298
G2 X5.5769 Y1.7797 I0.1237 J0.0179
G1 X5.8917 Y2.968
X5.9321 Y3.1205
G2 X5.942 Y3.1296 I0.0121 J-0.0032
G1 X6.2591 Y3.1854
G2 X6.2734 Y3.1706 I0.0021 J-0.0123
G1 X6.2727 Y3.1667 Z0.4997
X6.2719 Y3.163 Z0.4988
X6.2712 Y3.1594 Z0.4973
X6.2705 Y3.1562 Z0.4952
X6.2699 Y3.1532 Z0.4927
X6.2694 Y3.1507 Z0.4897
X6.269 Y3.1487 Z0.4863
X6.2687 Y3.1473 Z0.4827
X6.2685 Y3.1464 Z0.4789
X6.2684 Y3.1461 Z0.475
Z0.275
Y3.1458 Z0.2711
X6.2682 Y3.1449 Z0.2673
X6.2679 Y3.1434 Z0.2637
X6.2674 Y3.1414 Z0.2603
X6.2669 Y3.1389 Z0.2573
X6.2663 Y3.136 Z0.2548
X6.2656 Y3.1327 Z0.2527
X6.2649 Y3.1292 Z0.2512
X6.2641 Y3.1254 Z0.2503
X6.2633 Y3.1216 Z0.25
X6.2296 Y2.9587
G2 X6.1745 Y2.8975 I-0.0798 J0.0165
G3 X6.1194 Y2.8364 I0.0249 J-0.0778
G1 X5.9061 Y1.8119
G3 X5.8934 Y1.6874 I0.6031 J-0.1244
G1 X5.895 Y1.2812
X5.8952 Y1.2312 F18.75
X5.8949 Y1.2297
X5.8942 Y1.2285
X5.893 Y1.2277
X5.8916 Y1.2273
X5.8901 Y1.2275
X5.8889 Y1.2281
X5.8879 Y1.2292
X5.8875 Y1.2306
X5.815 Y1.7329 F75
G2 X5.8159 Y1.7489 I0.0399 J0.0057
G1 X6.1277 Y2.9256
X6.1405 Y2.9739 F18.75
X6.1412 Y2.9752
X6.1422 Y2.9762
X6.1435 Y2.9767
X6.145 Y2.9766
X6.1463 Y2.976
X6.1472 Y2.975
X6.1478 Y2.9737
X6.1477 Y2.9722
X6.1195 Y2.8364 F75
G3 X6.1436 Y2.83 I0.0122 J-0.0026
G1 X6.239 Y3.127
G2 X6.2631 Y3.1206 I0.0119 J-0.0038
G1 X5.9886 Y1.7949
G3 X5.9776 Y1.6874 I0.5206 J-0.1074
G1 X5.9794 Y0.6302
G2 X5.9741 Y0.6102 I-0.0403 J0
G1 X5.9322 Y0.5367
X5.9075 Y0.4932 F18.75
X5.9064 Y0.492
X5.9051 Y0.4911
X5.9035 Y0.4908
X5.9019 Y0.4909
X5.9005 Y0.4916
X5.8993 Y0.4927
X5.8985 Y0.4941
X5.8983 Y0.4957
Y0.5525 F75
G3 X5.8947 Y0.6033 I-0.3558 J0
G1 X5.7309 Y1.7266
G2 X5.7331 Y1.7648 I0.0948 J0.0137
G1 X6.0923 Y3.1208
G2 X6.1042 Y3.1301 I0.0121 J-0.0032
G1 X6.3845 Y3.136
G2 X6.397 Y3.121 I0.0003 J-0.0125
G1 X6.1175 Y1.7684
G3 X6.1092 Y1.6874 I0.3917 J-0.0809
G1 Y0.6116
G2 X6.0961 Y0.5621 I-0.1 J0
G1 X5.8181 Y0.0743
X5.7932 Y0.0305
X5.7685 Y-0.0129 F18.75
Y0.5274 F75
G3 X5.7644 Y0.5845 I-0.4 J0
G1 X5.5987 Y1.7334
G2 X5.601 Y1.7733 I0.099 J0.0143
G1 X5.9159 Y2.9616
X5.958 Y3.1208
G2 X5.97 Y3.1301 I0.0121 J-0.0032
G1 X6.4101 Y3.1356
G2 X6.4224 Y3.1205 I0.0001 J-0.0125
G1 X6.142 Y1.7633
G3 X6.1343 Y1.6874 I0.3672 J-0.0758
G1 X6.1342 Y0.6116
G2 X6.1178 Y0.5497 I-0.125 J0
G1 X5.8399 Y0.0619
X5.7682 Y-0.0638
X5.7435 Y-0.1073 F18.75
Y0.5274 F75
G3 X5.7397 Y0.5809 I-0.375 J0
G1 X5.574 Y1.7298
G2 X5.5769 Y1.7797 I0.1237 J0.0179
G1 X5.8917 Y2.968
X5.9321 Y3.1205
X5.9334 Y3.1242
X5.9378 Y3.1341
X5.9393 Y3.1377 Z0.2503
X5.9409 Y3.1411 Z0.2512
X5.9423 Y3.1445 Z0.2527
X5.9437 Y3.1475 Z0.2548
X5.9449 Y3.1502 Z0.2573
X5.9459 Y3.1526 Z0.2603
X5.9468 Y3.1544 Z0.2637
X5.9474 Y3.1558 Z0.2673
X5.9477 Y3.1567 Z0.2711
X5.9479 Y3.1569 Z0.275
G0 Z1.35
X7.3739 Y3.1604
Z0.95
G1 Z0.525 F15
Y3.1601 Z0.5211 F75
X7.3738 Y3.1592 Z0.5173
X7.3737 Y3.1577 Z0.5137
X7.3736 Y3.1556 Z0.5103
X7.3734 Y3.1531 Z0.5073
X7.3733 Y3.1501 Z0.5048
X7.373 Y3.1468 Z0.5027
X7.3728 Y3.1431 Z0.5012
X7.3726 Y3.1393 Z0.5003
X7.3723 Y3.1354 Z0.5
X7.3714 Y3.1207
X7.2239 Y0.8093
X7.2234 Y0.8065
X7.2103 Y0.7513
X7.1988 Y0.7027 F18.75
X7.1982 Y0.7013
X7.1971 Y0.7002
X7.1958 Y0.6996
X7.1943 Y0.6995
X7.1929 Y0.6999
X7.1917 Y0.7008
X7.1909 Y0.7021
X7.1906 Y0.7035
X7.1336 Y3.1207 F75
G2 X7.1461 Y3.1335 I0.0125 J0.0003
G1 X7.4928 Y3.134
G2 X7.5053 Y3.1207 I0 J-0.0125
G1 X7.4982 Y3.0096
X7.357 Y0.7964
G2 X7.3545 Y0.7797 I-0.0998 J0.0065
G1 X7.1775 Y0.0347
X7.1405 Y-0.1208
G2 X7.1291 Y-0.1304 I-0.0122 J0.0029
G1 X7.0895 Y-0.1328
G2 X7.0764 Y-0.1207 I-0.0007 J0.0124
G1 X7.0733 Y0.0035
X7.0026 Y3.0035
X6.9999 Y3.1206
G2 X7.0124 Y3.1334 I0.0125 J0.0003
G1 X7.5179 Y3.134
G2 X7.5304 Y3.1207 I0 J-0.0125
G1 X7.5232 Y3.008
X7.3819 Y0.7948
G2 X7.3788 Y0.7739 I-0.1247 J0.0081
G1 X7.2018 Y0.0289
X7.1662 Y-0.1208
G2 X7.1544 Y-0.1304 I-0.0122 J0.0029
G1 X7.0641 Y-0.1329
G2 X7.0513 Y-0.1207 I-0.0003 J0.0125
G1 X7.0484 Y0.0029
X6.9749 Y3.1205
G2 X6.9857 Y3.1332 I0.0125 J0.0003
G1 X7.3604 Y3.1847
G2 X7.3746 Y3.1715 I0.0017 J-0.0124
G1 X7.3744 Y3.1676 Z0.4997
X7.3741 Y3.1638 Z0.4988
X7.3739 Y3.1602 Z0.4973
X7.3737 Y3.1569 Z0.4952
X7.3735 Y3.1539 Z0.4927
X7.3733 Y3.1513 Z0.4897
X7.3732 Y3.1493 Z0.4863
X7.3731 Y3.1478 Z0.4827
Y3.1469 Z0.4789
X7.373 Y3.1466 Z0.475
Z0.275
Y3.1463 Z0.2711
Y3.1454 Z0.2673
X7.3729 Y3.1439 Z0.2637
X7.3727 Y3.1418 Z0.2603
X7.3726 Y3.1393 Z0.2573
X7.3724 Y3.1363 Z0.2548
X7.3722 Y3.133 Z0.2527
X7.3719 Y3.1293 Z0.2512
X7.3717 Y3.1255 Z0.2503
X7.3714 Y3.1216 Z0.25
Y3.1207
X7.2239 Y0.8093
X7.2234 Y0.8065
X7.2103 Y0.7513
X7.1988 Y0.7027 F18.75
X7.1982 Y0.7013
X7.1971 Y0.7002
X7.1958 Y0.6996
X7.1943 Y0.6995
X7.1929 Y0.6999
X7.1917 Y0.7008
X7.1909 Y0.7021
X7.1906 Y0.7035
X7.1336 Y3.1207 F75
G2 X7.1461 Y3.1335 I0.0125 J0.0003
G1 X7.4928 Y3.134
G2 X7.5053 Y3.1207 I0 J-0.0125
G1 X7.4982 Y3.0096
X7.357 Y0.7964
G2 X7.3545 Y0.7797 I-0.0998 J0.0065
G1 X7.1775 Y0.0347
X7.1405 Y-0.1208
G2 X7.1291 Y-0.1304 I-0.0122 J0.0029
G1 X7.0895 Y-0.1328
G2 X7.0764 Y-0.1207 I-0.0007 J0.0124
G1 X7.0733 Y0.0035
X7.0026 Y3.0035
X6.9999 Y3.1206
G2 X7.0124 Y3.1334 I0.0125 J0.0003
G1 X7.5179 Y3.134
G2 X7.5304 Y3.1207 I0 J-0.0125
G1 X7.5232 Y3.008
X7.3819 Y0.7948
G2 X7.3788 Y0.7739 I-0.1247 J0.0081
G1 X7.2018 Y0.0289
X7.1662 Y-0.1208
G2 X7.1544 Y-0.1304 I-0.0122 J0.0029
G1 X7.0641 Y-0.1329
G2 X7.0513 Y-0.1207 I-0.0003 J0.0125
G1 X7.0484 Y0.0029
X6.9749 Y3.1205
X6.9751 Y3.1245
X6.9765 Y3.1351
X6.977 Y3.139 Z0.2503
X6.9775 Y3.1428 Z0.2512
X6.978 Y3.1464 Z0.2527
X6.9785 Y3.1497 Z0.2548
X6.9789 Y3.1526 Z0.2573
X6.9792 Y3.1552 Z0.2603
X6.9795 Y3.1572 Z0.2637
X6.9797 Y3.1587 Z0.2673
X6.9798 Y3.1596 Z0.2711
Y3.1599 Z0.275
G0 Z1.35
X9.7122 Y1.1652
Z0.95
G1 Z0.875 F15
X9.7125 Y1.1663 Z0.8674 F13.333
X9.7133 Y1.1697 Z0.8606
X9.7147 Y1.1748 Z0.8551
X9.7168 Y1.1812 Z0.8514
X9.7196 Y1.1881 Z0.85
G2 X9.9372 Y1.0925 Z0.837 I0.1088 J-0.0478
X9.7196 Y1.1881 Z0.8239 I-0.1088 J0.0478
X9.9372 Y1.0925 Z0.8109 I0.1088 J-0.0478
X9.7196 Y1.1881 Z0.7979 I-0.1088 J0.0478
X9.9372 Y1.0925 Z0.7849 I0.1088 J-0.0478
X9.7196 Y1.1881 Z0.7718 I-0.1088 J0.0478
X9.9372 Y1.0925 Z0.7588 I0.1088 J-0.0478
X9.7196 Y1.1881 Z0.7458 I-0.1088 J0.0478
X9.9372 Y1.0925 Z0.7328 I0.1088 J-0.0478
X9.7196 Y1.1881 Z0.7197 I-0.1088 J0.0478
X9.9372 Y1.0925 Z0.7067 I0.1088 J-0.0478
X9.7196 Y1.1881 Z0.6937 I-0.1088 J0.0478
X9.9372 Y1.0925 Z0.6806 I0.1088 J-0.0478
X9.7196 Y1.1881 Z0.6676 I-0.1088 J0.0478
X9.9372 Y1.0925 Z0.6546 I0.1088 J-0.0478
X9.7196 Y1.1881 Z0.6416 I-0.1088 J0.0478
X9.9372 Y1.0925 Z0.6285 I0.1088 J-0.0478
X9.7196 Y1.1881 Z0.6155 I-0.1088 J0.0478
X9.9372 Y1.0925 Z0.6025 I0.1088 J-0.0478
X9.7196 Y1.1881 Z0.5894 I-0.1088 J0.0478
X9.9372 Y1.0925 Z0.5764 I0.1088 J-0.0478
X9.7196 Y1.1881 Z0.5634 I-0.1088 J0.0478
X9.9372 Y1.0925 Z0.5504 I0.1088 J-0.0478
X9.7196 Y1.1881 Z0.5373 I-0.1088 J0.0478
X9.9372 Y1.0925 Z0.5243 I0.1088 J-0.0478
X9.7196 Y1.1881 Z0.5113 I-0.1088 J0.0478
X9.9472 Y1.1412 Z0.5 I0.1088 J-0.0478
G3 X9.9503 Y1.0781 I0.757 J0.0056 F75
X9.9565 Y1.0285 I0.7539 J0.0687 F18.75
G2 X9.9469 Y1.0175 I-0.0094 J-0.0015
G3 X9.8958 Y1.0168 I-0.015 J-0.7568 F75
G2 X9.8825 Y1.0284 I-0.0006 J0.0127
G3 X9.8696 Y1.1174 I-0.7543 J-0.0637
X9.8579 Y1.166 I-0.7414 J-0.1527 F18.75
G2 X9.8664 Y1.1781 I0.0092 J0.0026
G3 X9.8872 Y1.1799 I-0.0565 J0.7548 F75
X9.9367 Y1.1866 I-0.0773 J0.753 F18.75
G2 X9.9478 Y1.1769 I0.0016 J-0.0094
G3 X9.9472 Y1.1412 I0.7564 J-0.0301 F75
X9.992 Y1.0775 I0.0684 J0.0005
G2 X10.0425 Y1.0181 I-0.0274 J-0.0745
G3 X10.0511 Y0.9798 I0.6617 J0.1287
X10.0653 Y0.9319 I0.6531 J0.167 F18.75
G2 X10.0575 Y0.923 I-0.0065 J-0.0022
G3 X9.8619 Y0.9312 I-0.1256 J-0.6623 F75
X9.8124 Y0.9242 I0.07 J-0.6705 F18.75
G2 X9.8017 Y0.9336 I-0.0016 J0.009
G3 X9.7576 Y1.2063 I-0.6735 J0.0311 F75
X9.738 Y1.2523 I-0.6294 J-0.2416 F18.75
G2 X9.7448 Y1.2619 I0.0061 J0.0029
G3 X9.9888 Y1.2829 I0.0651 J0.671 F75
X10.0365 Y1.298 I-0.1789 J0.65 F18.75
G2 X10.0454 Y1.2901 I0.0023 J-0.0064
G3 X10.0424 Y1.0181 I0.6588 J-0.1433 F75
X10.1464 Y0.9242 I0.1144 J0.0222
G2 X10.2613 Y0.8443 I-0.0126 J-0.1407
G1 X10.4242 Y0.5034
X10.4457 Y0.4582 F18.75
X10.4464 Y0.4563
X10.4466 Y0.4542
Y0.4331
X10.4463 Y0.4316
X10.4456 Y0.4302
X10.4444 Y0.4291
X10.443 Y0.4285
X10.4414 Y0.4284
X10.4399 Y0.4288
X10.4385 Y0.4297
X10.4376 Y0.431
G2 X10.4209 Y0.4658 I0.7375 J0.3745 F75
G3 X10.4043 Y0.5006 I-0.755 J-0.3402
X9.6032 Y0.6741 I-0.4712 J-0.2393
X9.5657 Y0.6411 I0.3299 J-0.4128 F18.75
G1 X9.5644 Y0.6403
X9.5629 Y0.64
X9.5614 Y0.6404
X9.5601 Y0.6413
X9.5593 Y0.6426
X9.5591 Y0.6441
X9.5595 Y0.6456
G2 X9.5814 Y0.6879 I1.1293 J-0.5576 F75
G3 X9.6033 Y0.7302 I-1.1091 J0.6007
X9.5334 Y1.306 I-0.4751 J0.2345
G1 X9.0821 Y1.8393
X9.0498 Y1.8775 F18.75
X9.0491 Y1.8788
X9.0489 Y1.8802
X9.0492 Y1.8816
X9.05 Y1.8828
X9.0512 Y1.8836
X9.0527 Y1.884
X9.0541 Y1.8837
X9.0554 Y1.883
X9.4657 Y1.5301 F75
G3 X10.3137 Y1.7688 I0.3442 J0.4028
X10.3657 Y1.9314 I-15.4361 J5.0297
G2 X10.4024 Y2.0465 I15.4611 J-4.8584
X10.4178 Y2.0941 I15.4244 J-4.9735 F18.75
G1 X10.4185 Y2.0954
X10.4196 Y2.0964
X10.421 Y2.0969
X10.4225
X10.4239 Y2.0963
X10.425 Y2.0953
X10.4257 Y2.094
X10.4259 Y2.0925
X10.4134 Y1.9084 F75
X10.413 Y1.9053
X10.4122 Y1.9023
X10.2049 Y1.3241
G3 X10.2252 Y0.9202 I0.4993 J-0.1773
G1 X10.2614 Y0.8444
X10.2628 Y0.8408 Z0.5006
X10.2636 Y0.837 Z0.5012
X10.2638 Y0.8335 Z0.503
X10.2635 Y0.8301 Z0.5048
X10.263 Y0.8274 Z0.5075
X10.2621 Y0.8247 Z0.5103
X10.2606 Y0.8215 Z0.5173
X10.26 Y0.8205 Z0.525
G0 Z0.95
X10.6264 Y3.1606
G1 Z0.525 F15
Y3.1603 Z0.5211 F75
X10.6263 Y3.1594 Z0.5173
X10.6262 Y3.1579 Z0.5137
X10.6261 Y3.1558 Z0.5103
X10.6259 Y3.1533 Z0.5073
X10.6257 Y3.1503 Z0.5048
X10.6255 Y3.147 Z0.5027
X10.6252 Y3.1434 Z0.5012
X10.625 Y3.1396 Z0.5003
X10.6247 Y3.1357 Z0.5
X10.6237 Y3.1206
X10.6162 Y3.0101
X10.5407 Y1.8929
G2 X10.5352 Y1.8661 I-0.0998 J0.0066
G1 X10.3272 Y1.2806
G3 X10.3426 Y0.9757 I0.377 J-0.1338
G1 X10.5533 Y0.5303
X10.5746 Y0.4851 F18.75
Y-0.0716 F75
Y-0.1216 F18.75
X10.4784 Y0.0679 F75
X10.2885 Y0.4418
G3 X9.6343 Y0.5279 I-0.3566 J-0.1811
G1 X9.2501 Y0.1002
X9.2151 Y0.0613
X9.1817 Y0.0241 F18.75
Y0.1196 F75
Y0.1696 F18.75
X9.4869 Y0.7876 F75
G3 X9.4341 Y1.2224 I-0.3587 J0.1771
G1 X8.6147 Y2.1953
X8.3792 Y2.4749
X8.3778 Y2.4769
X8.3769 Y2.479
X8.3763 Y2.4814
X8.3587 Y2.6179
G2 X8.3792 Y2.629 I0.0124 J0.0016
G1 X9.5501 Y1.6288
G3 X10.1902 Y1.809 I0.2598 J0.3041
G1 X10.5632 Y2.9535
X10.6177 Y3.1208
X10.6188 Y3.1233
X10.6203 Y3.1254
X10.6223 Y3.1271
X10.629 Y3.1319
G2 X10.6488 Y3.1209 I0.0073 J-0.0102
G1 X10.5656 Y1.8912
G2 X10.5587 Y1.8578 I-0.1247 J0.0083
G1 X10.3508 Y1.2723
G3 X10.3652 Y0.9864 I0.3534 J-0.1255
G1 X10.5783 Y0.5359
X10.5996 Y0.4907 F18.75
Y-0.1206 F75
G2 X10.5849 Y-0.1329 I-0.0125 J0
G1 X10.5551 Y-0.1274
G2 X10.5462 Y-0.1208 I0.0022 J0.0123
G1 X10.4561 Y0.0566
X10.2662 Y0.4305
G3 X9.6529 Y0.5112 I-0.3343 J-0.1698
G1 X9.2687 Y0.0835
X9.1901 Y-0.004
X9.1567 Y-0.0412 F18.75
Y0.1255 F75
Y0.1755 F18.75
X9.4644 Y0.7987 F75
G3 X9.415 Y1.2063 I-0.3362 J0.166
G1 X8.5956 Y2.1791
X8.3793 Y2.4359
X8.3779 Y2.4381
X8.3769 Y2.4404
X8.3764 Y2.4429
X8.3588 Y2.6513
G2 X8.3793 Y2.6618 I0.0124 J0.001
G1 X9.5663 Y1.6478
G3 X10.1665 Y1.8167 I0.2436 J0.2851
G1 X10.5394 Y2.9613
X10.5913 Y3.1207
X10.5928 Y3.1242 Z0.5006
X10.5948 Y3.1275 Z0.5012
X10.597 Y3.1302 Z0.503
X10.5996 Y3.1325 Z0.5048
X10.6019 Y3.1341 Z0.5075
X10.6043 Y3.1355 Z0.5103
X10.6076 Y3.1368 Z0.5173
X10.6088 Y3.1371 Z0.525
G0 Z0.95
X9.7122 Y1.1652
G1 Z0.625 F15
X9.7125 Y1.1663 Z0.6174 F13.333
X9.7133 Y1.1697 Z0.6106
X9.7147 Y1.1748 Z0.6051
X9.7168 Y1.1812 Z0.6014
X9.7196 Y1.1881 Z0.6
G2 X9.9372 Y1.0925 Z0.587 I0.1088 J-0.0478
X9.7196 Y1.1881 Z0.5739 I-0.1088 J0.0478
X9.9372 Y1.0925 Z0.5609 I0.1088 J-0.0478
X9.7196 Y1.1881 Z0.5479 I-0.1088 J0.0478
X9.9372 Y1.0925 Z0.5349 I0.1088 J-0.0478
X9.7196 Y1.1881 Z0.5218 I-0.1088 J0.0478
X9.9372 Y1.0925 Z0.5088 I0.1088 J-0.0478
X9.7196 Y1.1881 Z0.4958 I-0.1088 J0.0478
X9.9372 Y1.0925 Z0.4828 I0.1088 J-0.0478
X9.7196 Y1.1881 Z0.4697 I-0.1088 J0.0478
X9.9372 Y1.0925 Z0.4567 I0.1088 J-0.0478
X9.7196 Y1.1881 Z0.4437 I-0.1088 J0.0478
X9.9372 Y1.0925 Z0.4306 I0.1088 J-0.0478
X9.7196 Y1.1881 Z0.4176 I-0.1088 J0.0478
X9.9372 Y1.0925 Z0.4046 I0.1088 J-0.0478
X9.7196 Y1.1881 Z0.3916 I-0.1088 J0.0478
X9.9372 Y1.0925 Z0.3785 I0.1088 J-0.0478
X9.7196 Y1.1881 Z0.3655 I-0.1088 J0.0478
X9.9372 Y1.0925 Z0.3525 I0.1088 J-0.0478
X9.7196 Y1.1881 Z0.3394 I-0.1088 J0.0478
X9.9372 Y1.0925 Z0.3264 I0.1088 J-0.0478
X9.7196 Y1.1881 Z0.3134 I-0.1088 J0.0478
X9.9372 Y1.0925 Z0.3004 I0.1088 J-0.0478
X9.7196 Y1.1881 Z0.2873 I-0.1088 J0.0478
X9.9372 Y1.0925 Z0.2743 I0.1088 J-0.0478
X9.7196 Y1.1881 Z0.2613 I-0.1088 J0.0478
X9.9472 Y1.1412 Z0.25 I0.1088 J-0.0478
G3 X9.9503 Y1.0781 I0.757 J0.0056 F75
X9.9565 Y1.0285 I0.7539 J0.0687 F18.75
G2 X9.9469 Y1.0175 I-0.0094 J-0.0015
G3 X9.8958 Y1.0168 I-0.015 J-0.7568 F75
G2 X9.8825 Y1.0284 I-0.0006 J0.0127
G3 X9.8696 Y1.1174 I-0.7543 J-0.0637
X9.8579 Y1.166 I-0.7414 J-0.1527 F18.75
G2 X9.8664 Y1.1781 I0.0092 J0.0026
G3 X9.8872 Y1.1799 I-0.0565 J0.7548 F75
X9.9367 Y1.1866 I-0.0773 J0.753 F18.75
G2 X9.9478 Y1.1769 I0.0016 J-0.0094
G3 X9.9472 Y1.1412 I0.7564 J-0.0301 F75
X9.992 Y1.0775 I0.0684 J0.0005
G2 X10.0425 Y1.0181 I-0.0274 J-0.0745
G3 X10.0511 Y0.9798 I0.6617 J0.1287
X10.0653 Y0.9319 I0.6531 J0.167 F18.75
G2 X10.0575 Y0.923 I-0.0065 J-0.0022
G3 X9.8619 Y0.9312 I-0.1256 J-0.6623 F75
X9.8124 Y0.9242 I0.07 J-0.6705 F18.75
G2 X9.8017 Y0.9336 I-0.0016 J0.009
G3 X9.7576 Y1.2063 I-0.6735 J0.0311 F75
X9.738 Y1.2523 I-0.6294 J-0.2416 F18.75
G2 X9.7448 Y1.2619 I0.0061 J0.0029
G3 X9.9888 Y1.2829 I0.0651 J0.671 F75
X10.0365 Y1.298 I-0.1789 J0.65 F18.75
G2 X10.0454 Y1.2901 I0.0023 J-0.0064
G3 X10.0424 Y1.0181 I0.6588 J-0.1433 F75
X10.1464 Y0.9242 I0.1144 J0.0222
G2 X10.2613 Y0.8443 I-0.0126 J-0.1407
G1 X10.4242 Y0.5034
X10.4457 Y0.4582 F18.75
X10.4464 Y0.4563
X10.4466 Y0.4542
Y0.4331
X10.4463 Y0.4316
X10.4456 Y0.4302
X10.4444 Y0.4291
X10.443 Y0.4285
X10.4414 Y0.4284
X10.4399 Y0.4288
X10.4385 Y0.4297
X10.4376 Y0.431
G2 X10.4209 Y0.4658 I0.7375 J0.3745 F75
G3 X10.4043 Y0.5006 I-0.755 J-0.3402
X9.6032 Y0.6741 I-0.4712 J-0.2393
X9.5657 Y0.6411 I0.3299 J-0.4128 F18.75
G1 X9.5644 Y0.6403
X9.5629 Y0.64
X9.5614 Y0.6404
X9.5601 Y0.6413
X9.5593 Y0.6426
X9.5591 Y0.6441
X9.5595 Y0.6456
G2 X9.5814 Y0.6879 I1.1293 J-0.5576 F75
G3 X9.6033 Y0.7302 I-1.1091 J0.6007
X9.5334 Y1.306 I-0.4751 J0.2345
G1 X9.0821 Y1.8393
X9.0498 Y1.8775 F18.75
X9.0491 Y1.8788
X9.0489 Y1.8802
X9.0492 Y1.8816
X9.05 Y1.8828
X9.0512 Y1.8836
X9.0527 Y1.884
X9.0541 Y1.8837
X9.0554 Y1.883
X9.4657 Y1.5301 F75
G3 X10.3137 Y1.7688 I0.3442 J0.4028
X10.3657 Y1.9314 I-15.4361 J5.0297
G2 X10.4024 Y2.0465 I15.4611 J-4.8584
X10.4178 Y2.0941 I15.4244 J-4.9735 F18.75
G1 X10.4185 Y2.0954
X10.4196 Y2.0964
X10.421 Y2.0969
X10.4225
X10.4239 Y2.0963
X10.425 Y2.0953
X10.4257 Y2.094
X10.4259 Y2.0925
X10.4134 Y1.9084 F75
X10.413 Y1.9053
X10.4122 Y1.9023
X10.2049 Y1.3241
G3 X10.2252 Y0.9202 I0.4993 J-0.1773
G1 X10.2614 Y0.8444
X10.2628 Y0.8408 Z0.2506
X10.2636 Y0.837 Z0.2512
X10.2638 Y0.8335 Z0.253
X10.2635 Y0.8301 Z0.2548
X10.263 Y0.8274 Z0.2575
X10.2621 Y0.8247 Z0.2603
X10.2606 Y0.8215 Z0.2673
X10.26 Y0.8205 Z0.275
G0 Z0.95
X10.6264 Y3.1606
G1 Z0.275 F15
Y3.1603 Z0.2711 F75
X10.6263 Y3.1594 Z0.2673
X10.6262 Y3.1579 Z0.2637
X10.6261 Y3.1558 Z0.2603
X10.6259 Y3.1533 Z0.2573
X10.6257 Y3.1503 Z0.2548
X10.6255 Y3.147 Z0.2527
X10.6252 Y3.1434 Z0.2512
X10.625 Y3.1396 Z0.2503
X10.6247 Y3.1357 Z0.25
X10.6237 Y3.1206
X10.6162 Y3.0101
X10.5407 Y1.8929
G2 X10.5352 Y1.8661 I-0.0998 J0.0066
G1 X10.3272 Y1.2806
G3 X10.3426 Y0.9757 I0.377 J-0.1338
G1 X10.5533 Y0.5303
X10.5746 Y0.4851 F18.75
Y-0.0716 F75
Y-0.1216 F18.75
X10.4784 Y0.0679 F75
X10.2885 Y0.4418
G3 X9.6343 Y0.5279 I-0.3566 J-0.1811
G1 X9.2501 Y0.1002
X9.2151 Y0.0613
X9.1817 Y0.0241 F18.75
Y0.1196 F75
Y0.1696 F18.75
X9.4869 Y0.7876 F75
G3 X9.4341 Y1.2224 I-0.3587 J0.1771
G1 X8.6147 Y2.1953
X8.3792 Y2.4749
X8.3778 Y2.4769
X8.3769 Y2.479
X8.3763 Y2.4814
X8.3587 Y2.6179
G2 X8.3792 Y2.629 I0.0124 J0.0016
G1 X9.5501 Y1.6288
G3 X10.1902 Y1.809 I0.2598 J0.3041
G1 X10.5632 Y2.9535
X10.6177 Y3.1208
X10.6188 Y3.1233
X10.6203 Y3.1254
X10.6223 Y3.1271
X10.629 Y3.1319
G2 X10.6488 Y3.1209 I0.0073 J-0.0102
G1 X10.5656 Y1.8912
G2 X10.5587 Y1.8578 I-0.1247 J0.0083
G1 X10.3508 Y1.2723
G3 X10.3652 Y0.9864 I0.3534 J-0.1255
G1 X10.5783 Y0.5359
X10.5996 Y0.4907 F18.75
Y-0.1206 F75
G2 X10.5849 Y-0.1329 I-0.0125 J0
G1 X10.5551 Y-0.1274
G2 X10.5462 Y-0.1208 I0.0022 J0.0123
G1 X10.4561 Y0.0566
X10.2662 Y0.4305
G3 X9.6529 Y0.5112 I-0.3343 J-0.1698
G1 X9.2687 Y0.0835
X9.1901 Y-0.004
X9.1567 Y-0.0412 F18.75
Y0.1255 F75
Y0.1755 F18.75
X9.4644 Y0.7987 F75
G3 X9.415 Y1.2063 I-0.3362 J0.166
G1 X8.5956 Y2.1791
X8.3793 Y2.4359
X8.3779 Y2.4381
X8.3769 Y2.4404
X8.3764 Y2.4429
X8.3588 Y2.6513
G2 X8.3793 Y2.6618 I0.0124 J0.001
G1 X9.5663 Y1.6478
G3 X10.1665 Y1.8167 I0.2436 J0.2851
G1 X10.5394 Y2.9613
X10.5913 Y3.1207
X10.5928 Y3.1242 Z0.2506
X10.5948 Y3.1275 Z0.2512
X10.597 Y3.1302 Z0.253
X10.5996 Y3.1325 Z0.2548
X10.6019 Y3.1341 Z0.2575
X10.6043 Y3.1355 Z0.2603
X10.6076 Y3.1368 Z0.2673
X10.6088 Y3.1371 Z0.275
G0 Z1.35
X13.6179 Y3.1605
Z0.95
G1 Z0.525 F15
X13.6177 Y3.1603 Z0.5211 F75
X13.6171 Y3.1596 Z0.5173
X13.616 Y3.1586 Z0.5137
X13.6146 Y3.1571 Z0.5103
X13.6128 Y3.1553 Z0.5073
X13.6107 Y3.1532 Z0.5048
X13.6084 Y3.1508 Z0.5027
X13.6058 Y3.1482 Z0.5012
X13.6031 Y3.1455 Z0.5003
X13.6004 Y3.1427 Z0.5
X13.579 Y3.1209
X13.578 Y3.1199
X13.1919 Y2.7223
X13.157 Y2.6865 F18.75
X13.1559 Y2.6856
X13.1545 Y2.6853
X13.1531 Y2.6855
X13.1518 Y2.6862
X13.1509 Y2.6873
X13.1505 Y2.6887
X13.1506 Y2.6901
X13.1512 Y2.6914
X13.4571 Y3.121 F75
X13.4576 Y3.1218
X13.4599 Y3.125 Z0.5003
X13.4621 Y3.1281 Z0.5012
X13.4642 Y3.131 Z0.5027
X13.4661 Y3.1338 Z0.5048
X13.4679 Y3.1362 Z0.5073
X13.4693 Y3.1383 Z0.5103
X13.4705 Y3.1399 Z0.5137
X13.4714 Y3.1411 Z0.5173
X13.4719 Y3.1419 Z0.5211
X13.4721 Y3.1421 Z0.525
Z0.7894
X13.8311 Y3.1307
Z0.525
X13.8308 Y3.1305 Z0.5211
X13.8299 Y3.1302 Z0.5173
X13.8285 Y3.1296 Z0.5137
X13.8266 Y3.1289 Z0.5103
X13.8243 Y3.1279 Z0.5073
X13.8215 Y3.1268 Z0.5048
X13.8184 Y3.1256 Z0.5027
X13.815 Y3.1242 Z0.5012
X13.8115 Y3.1228 Z0.5003
X13.8079 Y3.1213 Z0.5
X13.807 Y3.1209
G3 X13.6706 Y3.0295 I0.1497 J-0.3709
G1 X12.7819 Y2.12
G3 X12.6684 Y1.823 I0.2861 J-0.2795
X12.4643 Y1.5336 I0.7966 J-0.7783
G2 X12.116 Y1.592 I-0.1655 J0.0808
G3 X12.0963 Y1.7449 I-3.4537 J-0.367
G2 X12.0812 Y1.8479 I11.6737 J1.7672
X12.0743 Y1.8974 I11.6888 J1.6642 F18.75
G1 X12.0742 Y1.8991
X12.0749 Y1.9008
X12.076 Y1.9021
X12.0776 Y1.903
X12.0793 Y1.9033
X12.081 Y1.903
X12.0826 Y1.9022
G3 X12.2363 Y1.8106 I0.4165 J0.5243 F75
G2 X12.25 Y1.7912 I-0.0089 J-0.0208
G3 X12.2687 Y1.6599 I0.818 J0.0493
G2 X12.2601 Y1.645 I-0.0124 J-0.0028
G3 X12.1707 Y1.6099 I0.1994 J-0.6392
X12.1264 Y1.5867 I0.2888 J-0.6041 F18.75
G2 X12.1159 Y1.592 I-0.0035 J0.0061
G3 X12.0302 Y1.6923 I-0.1159 J-0.0123 F75
G2 X11.9428 Y1.7911 I0.0309 J0.1154
G1 X11.8639 Y2.3541
X11.8569 Y2.4036 F18.75
X11.857 Y2.4052
X11.8575 Y2.4067
X11.8585 Y2.4079
X11.8598 Y2.4087
X11.8613 Y2.409
X11.8629 Y2.4088
X11.8643 Y2.4082
X11.8654 Y2.4071
X12.0744 Y2.1172 F75
G3 X12.2124 Y1.9873 I0.414 J0.3015
X12.3393 Y1.9278 I0.2896 J0.4527
X12.3876 Y1.9149 I0.1627 J0.5122 F18.75
G2 X12.3972 Y1.9017 I-0.0027 J-0.0121
G3 X12.4448 Y1.5849 I0.6708 J-0.0612 F75
X12.4655 Y1.5394 I0.6232 J0.2556 F18.75
G2 X12.4593 Y1.5294 I-0.0062 J-0.0031
G3 X12.2879 Y1.5014 I0.0003 J-0.5401 F75
X12.135 Y1.4189 I0.162 J-0.4833
X12.0397 Y1.3436 I14.6072 J-18.5908
X11.9858 Y1.2966 I0.4908 J-0.618
X11.9507 Y1.261 I0.5447 J-0.571 F18.75
G1 X11.9494 Y1.2601
X11.9478 Y1.2595
X11.9462
X11.9446 Y1.26
X11.9433 Y1.2609
X11.9423 Y1.2622
X11.9418 Y1.2638
X11.9419 Y1.2654
G2 X11.9536 Y1.3249 I2.0502 J-0.3736 F75
G3 X11.9653 Y1.3844 I-2.022 J0.4299
X11.9699 Y1.5978 I-0.6644 J0.121
G1 X11.9428 Y1.7911
G3 X11.8555 Y1.8892 I-0.1173 J-0.0165
G2 X11.7683 Y1.9874 I0.03 J0.1145
G1 X11.6397 Y2.9099
X11.6328 Y2.9594 F18.75
Y2.961
X11.6333 Y2.9624
X11.6343 Y2.9636
X11.6357 Y2.9644
X11.6372 Y2.9648
X11.6387 Y2.9646
X11.6401 Y2.9639
X11.6413 Y2.9628
X12.1925 Y2.2031 F75
G3 X12.3622 Y2.0737 I0.3022 J0.2202
X12.5255 Y2.0499 I0.1357 J0.3583
X12.575 Y2.0567 I-0.0276 J0.3821 F18.75
G2 X12.5828 Y2.0472 I0.0014 J-0.0068
G3 X12.6983 Y1.4619 I0.4878 J-0.2078 F75
G1 X13.0696 Y1.1014
G2 X13.0936 Y1.0622 I-0.0656 J-0.0671
G1 X13.2099 Y0.689
G2 X13.2109 Y0.6507 I-0.0671 J-0.0209
G1 X13.1574 Y0.4408
X13.145 Y0.3923 F18.75
G2 X13.1351 Y0.3915 I-0.0051 J0.0013
G1 X12.808 Y1.1558 F75
G3 X12.2251 Y1.3042 I-0.3485 J-0.15
G1 X12.1185 Y1.2203
G3 X11.9897 Y1.0731 I0.3271 J-0.4163
G1 X11.6917 Y0.5651
X11.6664 Y0.522 F18.75
X11.6655 Y0.5208
X11.6642 Y0.5201
X11.6627 Y0.5198
X11.6612 Y0.5201
X11.6599 Y0.5209
X11.659 Y0.522
X11.6585 Y0.5234
Y0.5249
X11.8217 Y1.4106 F75
G3 X11.8275 Y1.5392 I-0.4711 J0.0858
X11.8129 Y1.6672 I-2.6965 J-0.2423
G1 X11.7683 Y1.9874
X11.6615 Y3.1122
G2 X11.684 Y3.1207 I0.0124 J0.0012
G1 X11.8363 Y2.9117
X12.297 Y2.2793
G3 X12.7028 Y2.2815 I0.2021 J0.1472
G1 X13.1524 Y2.913
X13.3002 Y3.1206
G2 X13.3099 Y3.1259 I0.0102 J-0.0072
G1 X13.8018 Y3.145
G2 X13.807 Y3.1209 I0.0005 J-0.0125
G3 X13.6706 Y3.0295 I0.1497 J-0.3709
G1 X12.7819 Y2.12
G3 X12.7885 Y1.5544 I0.2861 J-0.2795
G1 X13.1807 Y1.1712
G2 X13.2063 Y1.1295 I-0.0699 J-0.0715
G1 X13.3399 Y0.7005
G2 X13.3414 Y0.646 I-0.0954 J-0.0298
G1 X13.1845 Y0.0311
X13.1721 Y-0.0173 F18.75
X13.1392 Y0.0593 F75
X12.6892 Y1.1047
G3 X12.305 Y1.2025 I-0.2297 J-0.0989
G1 X12.1984 Y1.1186
G3 X12.101 Y1.0074 I0.2471 J-0.3146
G1 X11.5515 Y0.0762
X11.4352 Y-0.1209
X11.4346 Y-0.1254
G2 X11.4113 Y-0.1205 I-0.0116 J0.0027
G1 X11.4282 Y-0.0269
X11.6945 Y1.4337
G3 X11.6972 Y1.5602 I-0.3936 J0.0717
G1 X11.4956 Y3.0205
X11.4817 Y3.1205
G2 X11.4947 Y3.1347 I0.0124 J0.0017
G1 X11.7053 Y3.1259
G2 X11.7149 Y3.1208 I-0.0005 J-0.0125
G1 X11.8565 Y2.9264
X12.3172 Y2.294
G3 X12.6824 Y2.296 I0.1819 J0.1325
G1 X13.2696 Y3.1207
G2 X13.2794 Y3.126 I0.0102 J-0.0072
G1 X13.8997 Y3.1458
G2 X13.9019 Y3.1211 I0.0004 J-0.0124
G3 X13.6884 Y3.0121 I0.0548 J-0.3711
G1 X12.7998 Y2.1025
G3 X12.806 Y1.5723 I0.2682 J-0.262
G1 X13.1981 Y1.1891
G2 X13.2301 Y1.1369 I-0.0873 J-0.0894
G1 X13.3638 Y0.7079
G2 X13.3656 Y0.6398 I-0.1193 J-0.0372
G1 X13.2103 Y0.0309
X13.1906 Y-0.0462
X13.1782 Y-0.0947 F18.75
X13.1162 Y0.0494 F75
X12.6662 Y1.0948
G3 X12.3205 Y1.1828 I-0.2067 J-0.089
G1 X12.2138 Y1.099
G3 X12.1225 Y0.9947 I0.2317 J-0.295
G1 X11.573 Y0.0635
X11.4642 Y-0.1209
G2 X11.4553 Y-0.127 I-0.0108 J0.0063
G1 X11.3999 Y-0.1355
G2 X11.3857 Y-0.1209 I-0.0019 J0.0124
G1 X11.6699 Y1.4382
G3 X11.6724 Y1.5568 I-0.369 J0.0672
G1 X11.4564 Y3.121
X11.4562 Y3.1249
X11.4564 Y3.1357
X11.4565 Y3.1396 Z0.5003
X11.4566 Y3.1434 Z0.5012
X11.4567 Y3.147 Z0.5027
Y3.1503 Z0.5048
X11.4568 Y3.1533 Z0.5073
Y3.1559 Z0.5103
X11.4569 Y3.1579 Z0.5137
Y3.1594 Z0.5173
Y3.1603 Z0.5211
Y3.1607 Z0.525
G0 Z0.95
X13.8311 Y3.1307
G1 Z0.5394 F15
Z0.275 F75
X13.8308 Y3.1305 Z0.2711
X13.8299 Y3.1302 Z0.2673
X13.8285 Y3.1296 Z0.2637
X13.8266 Y3.1289 Z0.2603
X13.8243 Y3.1279 Z0.2573
X13.8215 Y3.1268 Z0.2548
X13.8184 Y3.1256 Z0.2527
X13.815 Y3.1242 Z0.2512
X13.8115 Y3.1228 Z0.2503
X13.8079 Y3.1213 Z0.25
X13.807 Y3.1209
G3 X13.6706 Y3.0295 I0.1497 J-0.3709
G1 X12.7819 Y2.12
G3 X12.6684 Y1.823 I0.2861 J-0.2795
X12.4643 Y1.5336 I0.7966 J-0.7783
G2 X12.116 Y1.592 I-0.1655 J0.0808
G3 X12.0963 Y1.7449 I-3.4537 J-0.367
G2 X12.0812 Y1.8479 I11.6737 J1.7672
X12.0743 Y1.8974 I11.6888 J1.6642 F18.75
G1 X12.0742 Y1.8991
X12.0749 Y1.9008
X12.076 Y1.9021
X12.0776 Y1.903
X12.0793 Y1.9033
X12.081 Y1.903
X12.0826 Y1.9022
G3 X12.2363 Y1.8106 I0.4165 J0.5243 F75
G2 X12.25 Y1.7912 I-0.0089 J-0.0208
G3 X12.2687 Y1.6599 I0.818 J0.0493
G2 X12.2601 Y1.645 I-0.0124 J-0.0028
G3 X12.1707 Y1.6099 I0.1994 J-0.6392
X12.1264 Y1.5867 I0.2888 J-0.6041 F18.75
G2 X12.1159 Y1.592 I-0.0035 J0.0061
G3 X12.0302 Y1.6923 I-0.1159 J-0.0123 F75
G2 X11.9428 Y1.7911 I0.0309 J0.1154
G1 X11.8639 Y2.3541
X11.8569 Y2.4036 F18.75
X11.857 Y2.4052
X11.8575 Y2.4067
X11.8585 Y2.4079
X11.8598 Y2.4087
X11.8613 Y2.409
X11.8629 Y2.4088
X11.8643 Y2.4082
X11.8654 Y2.4071
X12.0744 Y2.1172 F75
G3 X12.2124 Y1.9873 I0.414 J0.3015
X12.3393 Y1.9278 I0.2896 J0.4527
X12.3876 Y1.9149 I0.1627 J0.5122 F18.75
G2 X12.3972 Y1.9017 I-0.0027 J-0.0121
G3 X12.4448 Y1.5849 I0.6708 J-0.0612 F75
X12.4655 Y1.5394 I0.6232 J0.2556 F18.75
G2 X12.4593 Y1.5294 I-0.0062 J-0.0031
G3 X12.2879 Y1.5014 I0.0003 J-0.5401 F75
X12.135 Y1.4189 I0.162 J-0.4833
X12.0397 Y1.3436 I14.6072 J-18.5908
X11.9858 Y1.2966 I0.4908 J-0.618
X11.9507 Y1.261 I0.5447 J-0.571 F18.75
G1 X11.9494 Y1.2601
X11.9478 Y1.2595
X11.9462
X11.9446 Y1.26
X11.9433 Y1.2609
X11.9423 Y1.2622
X11.9418 Y1.2638
X11.9419 Y1.2654
G2 X11.9536 Y1.3249 I2.0502 J-0.3736 F75
G3 X11.9653 Y1.3844 I-2.022 J0.4299
X11.9699 Y1.5978 I-0.6644 J0.121
G1 X11.9428 Y1.7911
G3 X11.8555 Y1.8892 I-0.1173 J-0.0165
G2 X11.7683 Y1.9874 I0.03 J0.1145
G1 X11.6397 Y2.9099
X11.6328 Y2.9594 F18.75
Y2.961
X11.6333 Y2.9624
X11.6343 Y2.9636
X11.6357 Y2.9644
X11.6372 Y2.9648
X11.6387 Y2.9646
X11.6401 Y2.9639
X11.6413 Y2.9628
X12.1925 Y2.2031 F75
G3 X12.3622 Y2.0737 I0.3022 J0.2202
X12.5255 Y2.0499 I0.1357 J0.3583
X12.575 Y2.0567 I-0.0276 J0.3821 F18.75
G2 X12.5828 Y2.0472 I0.0014 J-0.0068
G3 X12.6983 Y1.4619 I0.4878 J-0.2078 F75
G1 X13.0696 Y1.1014
G2 X13.0936 Y1.0622 I-0.0656 J-0.0671
G1 X13.2099 Y0.689
G2 X13.2109 Y0.6507 I-0.0671 J-0.0209
G1 X13.1574 Y0.4408
X13.145 Y0.3923 F18.75
G2 X13.1351 Y0.3915 I-0.0051 J0.0013
G1 X12.808 Y1.1558 F75
G3 X12.2251 Y1.3042 I-0.3485 J-0.15
G1 X12.1185 Y1.2203
G3 X11.9897 Y1.0731 I0.3271 J-0.4163
G1 X11.6917 Y0.5651
X11.6664 Y0.522 F18.75
X11.6655 Y0.5208
X11.6642 Y0.5201
X11.6627 Y0.5198
X11.6612 Y0.5201
X11.6599 Y0.5209
X11.659 Y0.522
X11.6585 Y0.5234
Y0.5249
X11.8217 Y1.4106 F75
G3 X11.8275 Y1.5392 I-0.4711 J0.0858
X11.8129 Y1.6672 I-2.6965 J-0.2423
G1 X11.7683 Y1.9874
X11.7681 Y1.9912 Z0.2506
X11.7684 Y1.9951 Z0.2512
X11.7693 Y1.9985 Z0.253
X11.7705 Y2.0017 Z0.2548
X11.7719 Y2.0041 Z0.2575
X11.7735 Y2.0064 Z0.2603
X11.7759 Y2.009 Z0.2673
X11.7768 Y2.0098 Z0.275
G0 Z0.95
X13.6179 Y3.1605
G1 Z0.275 F15
X13.6177 Y3.1603 Z0.2711 F75
X13.6171 Y3.1596 Z0.2673
X13.616 Y3.1586 Z0.2637
X13.6146 Y3.1571 Z0.2603
X13.6128 Y3.1553 Z0.2573
X13.6107 Y3.1532 Z0.2548
X13.6084 Y3.1508 Z0.2527
X13.6058 Y3.1482 Z0.2512
X13.6031 Y3.1455 Z0.2503
X13.6004 Y3.1427 Z0.25
X13.579 Y3.1209
X13.578 Y3.1199
X13.1919 Y2.7223
X13.157 Y2.6865 F18.75
X13.1559 Y2.6856
X13.1545 Y2.6853
X13.1531 Y2.6855
X13.1518 Y2.6862
X13.1509 Y2.6873
X13.1505 Y2.6887
X13.1506 Y2.6901
X13.1512 Y2.6914
X13.4571 Y3.121 F75
G2 X13.4665 Y3.1261 I0.0101 J-0.0073
G1 X13.8016 Y3.145
G2 X13.807 Y3.1209 I0.0007 J-0.0125
G3 X13.6706 Y3.0295 I0.1497 J-0.3709
G1 X12.7819 Y2.12
G3 X12.7885 Y1.5544 I0.2861 J-0.2795
G1 X13.1807 Y1.1712
G2 X13.2063 Y1.1295 I-0.0699 J-0.0715
G1 X13.3399 Y0.7005
G2 X13.3414 Y0.646 I-0.0954 J-0.0298
G1 X13.1845 Y0.0311
X13.1721 Y-0.0173 F18.75
X13.1392 Y0.0593 F75
X12.6892 Y1.1047
G3 X12.305 Y1.2025 I-0.2297 J-0.0989
G1 X12.1984 Y1.1186
G3 X12.101 Y1.0074 I0.2471 J-0.3146
G1 X11.5515 Y0.0762
X11.4352 Y-0.1209
X11.4346 Y-0.1254
G2 X11.4113 Y-0.1205 I-0.0116 J0.0027
G1 X11.4282 Y-0.0269
X11.6945 Y1.4337
G3 X11.6972 Y1.5602 I-0.3936 J0.0717
G1 X11.4956 Y3.0205
X11.4817 Y3.1205
G2 X11.4947 Y3.1347 I0.0124 J0.0017
G1 X11.6745 Y3.1259
G2 X11.684 Y3.1207 I-0.0006 J-0.0125
G1 X11.8363 Y2.9117
X12.297 Y2.2793
G3 X12.7028 Y2.2815 I0.2021 J0.1472
G1 X13.1524 Y2.913
X13.3002 Y3.1206
G2 X13.31 Y3.1259 I0.0102 J-0.0072
G1 X13.8997 Y3.1458
G2 X13.9019 Y3.1211 I0.0004 J-0.0124
G3 X13.6884 Y3.0121 I0.0548 J-0.3711
G1 X12.7998 Y2.1025
G3 X12.806 Y1.5723 I0.2682 J-0.262
G1 X13.1981 Y1.1891
G2 X13.2301 Y1.1369 I-0.0873 J-0.0894
G1 X13.3638 Y0.7079
G2 X13.3656 Y0.6398 I-0.1193 J-0.0372
G1 X13.2103 Y0.0309
X13.1906 Y-0.0462
X13.1782 Y-0.0947 F18.75
X13.1162 Y0.0494 F75
X12.6662 Y1.0948
G3 X12.3205 Y1.1828 I-0.2067 J-0.089
G1 X12.2138 Y1.099
G3 X12.1225 Y0.9947 I0.2317 J-0.295
G1 X11.573 Y0.0635
X11.4642 Y-0.1209
G2 X11.4553 Y-0.127 I-0.0108 J0.0063
G1 X11.3999 Y-0.1355
G2 X11.3857 Y-0.1209 I-0.0019 J0.0124
G1 X11.6699 Y1.4382
G3 X11.6724 Y1.5568 I-0.369 J0.0672
G1 X11.4564 Y3.121
G2 X11.4693 Y3.1352 I0.0124 J0.0017
G1 X11.7053 Y3.1259
G2 X11.7149 Y3.1208 I-0.0005 J-0.0125
G1 X11.8565 Y2.9264
X12.3172 Y2.294
G3 X12.6824 Y2.296 I0.1819 J0.1325
G1 X13.2696 Y3.1207
X13.2721 Y3.1238
X13.2797 Y3.1314
X13.2824 Y3.1342 Z0.2503
X13.2851 Y3.1369 Z0.2512
X13.2876 Y3.1395 Z0.2527
X13.2899 Y3.1419 Z0.2548
X13.292 Y3.144 Z0.2573
X13.2938 Y3.1459 Z0.2603
X13.2953 Y3.1473 Z0.2637
X13.2963 Y3.1484 Z0.2673
X13.297 Y3.149 Z0.2711
X13.2972 Y3.1493 Z0.275
G0 Z1.35
X14.7684 Y3.1461
Z0.95
G1 Z0.7894 F15
Z0.525 F75
Y3.1458 Z0.5211
X14.7682 Y3.1449 Z0.5173
X14.7679 Y3.1434 Z0.5137
X14.7674 Y3.1414 Z0.5103
X14.7669 Y3.1389 Z0.5073
X14.7663 Y3.136 Z0.5048
X14.7656 Y3.1327 Z0.5027
X14.7649 Y3.1292 Z0.5012
X14.7641 Y3.1254 Z0.5003
X14.7633 Y3.1216 Z0.5
X14.7296 Y2.9587
G2 X14.6745 Y2.8975 I-0.0798 J0.0165
G3 X14.6194 Y2.8364 I0.0249 J-0.0778
G1 X14.4061 Y1.8119
G3 X14.3934 Y1.6874 I0.6031 J-0.1244
G1 X14.395 Y1.2812
X14.3952 Y1.2312 F18.75
X14.3949 Y1.2297
X14.3942 Y1.2285
X14.393 Y1.2277
X14.3916 Y1.2273
X14.3901 Y1.2275
X14.3889 Y1.2281
X14.3879 Y1.2292
X14.3875 Y1.2306
X14.315 Y1.7329 F75
G2 X14.3159 Y1.7489 I0.0399 J0.0057
G1 X14.6277 Y2.9256
X14.6405 Y2.9739 F18.75
X14.6412 Y2.9752
X14.6422 Y2.9762
X14.6435 Y2.9767
X14.645 Y2.9766
X14.6463 Y2.976
X14.6472 Y2.975
X14.6478 Y2.9737
Y2.9722
X14.6195 Y2.8364 F75
G3 X14.6436 Y2.83 I0.0122 J-0.0026
G1 X14.739 Y3.127
G2 X14.7631 Y3.1206 I0.0119 J-0.0038
G1 X14.4886 Y1.7949
G3 X14.4776 Y1.6874 I0.5206 J-0.1074
G1 X14.4794 Y0.6302
G2 X14.4741 Y0.6102 I-0.0403 J0
G1 X14.4322 Y0.5367
X14.4075 Y0.4932 F18.75
X14.4064 Y0.492
X14.4051 Y0.4911
X14.4035 Y0.4908
X14.4019 Y0.4909
X14.4005 Y0.4916
X14.3993 Y0.4927
X14.3985 Y0.4941
X14.3983 Y0.4957
Y0.5525 F75
G3 X14.3947 Y0.6033 I-0.3558 J0
G1 X14.2309 Y1.7266
G2 X14.2331 Y1.7648 I0.0948 J0.0137
G1 X14.5923 Y3.1208
G2 X14.6042 Y3.1301 I0.0121 J-0.0032
G1 X14.8845 Y3.136
G2 X14.897 Y3.121 I0.0003 J-0.0125
G1 X14.6175 Y1.7684
G3 X14.6092 Y1.6874 I0.3917 J-0.0809
G1 Y0.6116
G2 X14.5961 Y0.5621 I-0.1 J0
G1 X14.3181 Y0.0743
X14.2932 Y0.0305
X14.2685 Y-0.0129 F18.75
Y0.5274 F75
G3 X14.2644 Y0.5845 I-0.4 J0
G1 X14.0987 Y1.7334
G2 X14.101 Y1.7733 I0.099 J0.0143
G1 X14.4159 Y2.9616
X14.458 Y3.1208
G2 X14.47 Y3.1301 I0.0121 J-0.0032
G1 X14.9101 Y3.1356
G2 X14.9224 Y3.1205 I0.0001 J-0.0125
G1 X14.9028 Y3.0253
X14.642 Y1.7633
G3 X14.6343 Y1.6874 I0.3672 J-0.0758
G1 X14.6342 Y0.6116
G2 X14.6178 Y0.5497 I-0.125 J0
G1 X14.3399 Y0.0619
X14.2682 Y-0.0638
X14.2435 Y-0.1073 F18.75
Y0.5274 F75
G3 X14.2397 Y0.5809 I-0.375 J0
G1 X14.074 Y1.7298
G2 X14.0769 Y1.7797 I0.1237 J0.0179
G1 X14.3917 Y2.968
X14.4321 Y3.1205
G2 X14.442 Y3.1296 I0.0121 J-0.0032
G1 X14.7591 Y3.1854
G2 X14.7734 Y3.1706 I0.0021 J-0.0123
G1 X14.7727 Y3.1667 Z0.4997
X14.7719 Y3.163 Z0.4988
X14.7712 Y3.1594 Z0.4973
X14.7705 Y3.1562 Z0.4952
X14.7699 Y3.1532 Z0.4927
X14.7694 Y3.1507 Z0.4897
X14.769 Y3.1487 Z0.4863
X14.7687 Y3.1473 Z0.4827
X14.7685 Y3.1464 Z0.4789
X14.7684 Y3.1461 Z0.475
Z0.275
Y3.1458 Z0.2711
X14.7682 Y3.1449 Z0.2673
X14.7679 Y3.1434 Z0.2637
X14.7674 Y3.1414 Z0.2603
X14.7669 Y3.1389 Z0.2573
X14.7663 Y3.136 Z0.2548
X14.7656 Y3.1327 Z0.2527
X14.7649 Y3.1292 Z0.2512
X14.7641 Y3.1254 Z0.2503
X14.7633 Y3.1216 Z0.25
X14.7296 Y2.9587
G2 X14.6745 Y2.8975 I-0.0798 J0.0165
G3 X14.6194 Y2.8364 I0.0249 J-0.0778
G1 X14.4061 Y1.8119
G3 X14.3934 Y1.6874 I0.6031 J-0.1244
G1 X14.395 Y1.2812
X14.3952 Y1.2312 F18.75
X14.3949 Y1.2297
X14.3942 Y1.2285
X14.393 Y1.2277
X14.3916 Y1.2273
X14.3901 Y1.2275
X14.3889 Y1.2281
X14.3879 Y1.2292
X14.3875 Y1.2306
X14.315 Y1.7329 F75
G2 X14.3159 Y1.7489 I0.0399 J0.0057
G1 X14.6277 Y2.9256
X14.6405 Y2.9739 F18.75
X14.6412 Y2.9752
X14.6422 Y2.9762
X14.6435 Y2.9767
X14.645 Y2.9766
X14.6463 Y2.976
X14.6472 Y2.975
X14.6478 Y2.9737
Y2.9722
X14.6195 Y2.8364 F75
G3 X14.6436 Y2.83 I0.0122 J-0.0026
G1 X14.739 Y3.127
G2 X14.7631 Y3.1206 I0.0119 J-0.0038
G1 X14.4886 Y1.7949
G3 X14.4776 Y1.6874 I0.5206 J-0.1074
G1 X14.4794 Y0.6302
G2 X14.4741 Y0.6102 I-0.0403 J0
G1 X14.4322 Y0.5367
X14.4075 Y0.4932 F18.75
X14.4064 Y0.492
X14.4051 Y0.4911
X14.4035 Y0.4908
X14.4019 Y0.4909
X14.4005 Y0.4916
X14.3993 Y0.4927
X14.3985 Y0.4941
X14.3983 Y0.4957
Y0.5525 F75
G3 X14.3947 Y0.6033 I-0.3558 J0
G1 X14.2309 Y1.7266
G2 X14.2331 Y1.7648 I0.0948 J0.0137
G1 X14.5923 Y3.1208
G2 X14.6042 Y3.1301 I0.0121 J-0.0032
G1 X14.8845 Y3.136
G2 X14.897 Y3.121 I0.0003 J-0.0125
G1 X14.6175 Y1.7684
G3 X14.6092 Y1.6874 I0.3917 J-0.0809
G1 Y0.6116
G2 X14.5961 Y0.5621 I-0.1 J0
G1 X14.3181 Y0.0743
X14.2932 Y0.0305
X14.2685 Y-0.0129 F18.75
Y0.5274 F75
G3 X14.2644 Y0.5845 I-0.4 J0
G1 X14.0987 Y1.7334
G2 X14.101 Y1.7733 I0.099 J0.0143
G1 X14.4159 Y2.9616
X14.458 Y3.1208
G2 X14.47 Y3.1301 I0.0121 J-0.0032
G1 X14.9101 Y3.1356
G2 X14.9224 Y3.1205 I0.0001 J-0.0125
G1 X14.9028 Y3.0253
X14.642 Y1.7633
G3 X14.6343 Y1.6874 I0.3672 J-0.0758
G1 X14.6342 Y0.6116
G2 X14.6178 Y0.5497 I-0.125 J0
G1 X14.3399 Y0.0619
X14.2682 Y-0.0638
X14.2435 Y-0.1073 F18.75
Y0.5274 F75
G3 X14.2397 Y0.5809 I-0.375 J0
G1 X14.074 Y1.7298
G2 X14.0769 Y1.7797 I0.1237 J0.0179
G1 X14.3917 Y2.968
X14.4321 Y3.1205
X14.4334 Y3.1242
X14.4378 Y3.1341
X14.4393 Y3.1377 Z0.2503
X14.4409 Y3.1411 Z0.2512
X14.4423 Y3.1445 Z0.2527
X14.4437 Y3.1475 Z0.2548
X14.4449 Y3.1502 Z0.2573
X14.4459 Y3.1526 Z0.2603
X14.4468 Y3.1544 Z0.2637
X14.4474 Y3.1558 Z0.2673
X14.4477 Y3.1567 Z0.2711
X14.4479 Y3.1569 Z0.275
G0 Z1.35
X15.8739 Y3.1604
Z0.95
G1 Z0.525 F15
Y3.1601 Z0.5211 F75
X15.8738 Y3.1592 Z0.5173
X15.8737 Y3.1577 Z0.5137
X15.8736 Y3.1556 Z0.5103
X15.8734 Y3.1531 Z0.5073
X15.8733 Y3.1501 Z0.5048
X15.873 Y3.1468 Z0.5027
X15.8728 Y3.1431 Z0.5012
X15.8726 Y3.1393 Z0.5003
X15.8723 Y3.1354 Z0.5
X15.8714 Y3.1207
X15.7239 Y0.8093
X15.7234 Y0.8065
X15.7103 Y0.7513
X15.6988 Y0.7027 F18.75
X15.6982 Y0.7013
X15.6971 Y0.7002
X15.6958 Y0.6996
X15.6943 Y0.6995
X15.6929 Y0.6999
X15.6917 Y0.7008
X15.6909 Y0.7021
X15.6906 Y0.7035
X15.6336 Y3.1207 F75
G2 X15.6461 Y3.1335 I0.0125 J0.0003
G1 X15.9928 Y3.134
G2 X16.0053 Y3.1207 I0 J-0.0125
G1 X15.9982 Y3.0096
X15.857 Y0.7964
G2 X15.8545 Y0.7797 I-0.0998 J0.0065
G1 X15.6775 Y0.0347
X15.6405 Y-0.1208
G2 X15.6291 Y-0.1304 I-0.0122 J0.0029
G1 X15.5896 Y-0.1328
G2 X15.5764 Y-0.1207 I-0.0008 J0.0124
G1 X15.5733 Y0.0035
X15.5026 Y3.0035
X15.4999 Y3.1206
G2 X15.5124 Y3.1334 I0.0125 J0.0003
G1 X16.0179 Y3.134
G2 X16.0304 Y3.1207 I0 J-0.0125
G1 X16.0232 Y3.008
X15.8819 Y0.7948
G2 X15.8788 Y0.7739 I-0.1247 J0.0081
G1 X15.7018 Y0.0289
X15.6662 Y-0.1208
G2 X15.6544 Y-0.1304 I-0.0122 J0.0029
G1 X15.5641 Y-0.1329
G2 X15.5513 Y-0.1207 I-0.0003 J0.0125
G1 X15.5484 Y0.0029
X15.4749 Y3.1205
G2 X15.4857 Y3.1332 I0.0125 J0.0003
G1 X15.8604 Y3.1847
G2 X15.8746 Y3.1715 I0.0017 J-0.0124
G1 X15.8744 Y3.1676 Z0.4997
X15.8741 Y3.1638 Z0.4988
X15.8739 Y3.1602 Z0.4973
X15.8737 Y3.1569 Z0.4952
X15.8735 Y3.1539 Z0.4927
X15.8733 Y3.1513 Z0.4897
X15.8732 Y3.1493 Z0.4863
X15.8731 Y3.1478 Z0.4827
Y3.1469 Z0.4789
X15.873 Y3.1466 Z0.475
Z0.275
Y3.1463 Z0.2711
Y3.1454 Z0.2673
X15.8729 Y3.1439 Z0.2637
X15.8727 Y3.1418 Z0.2603
X15.8726 Y3.1393 Z0.2573
X15.8724 Y3.1363 Z0.2548
X15.8722 Y3.133 Z0.2527
X15.8719 Y3.1293 Z0.2512
X15.8717 Y3.1255 Z0.2503
X15.8714 Y3.1216 Z0.25
Y3.1207
X15.7239 Y0.8093
X15.7234 Y0.8065
X15.7103 Y0.7513
X15.6988 Y0.7027 F18.75
X15.6982 Y0.7013
X15.6971 Y0.7002
X15.6958 Y0.6996
X15.6943 Y0.6995
X15.6929 Y0.6999
X15.6917 Y0.7008
X15.6909 Y0.7021
X15.6906 Y0.7035
X15.6336 Y3.1207 F75
G2 X15.6461 Y3.1335 I0.0125 J0.0003
G1 X15.9928 Y3.134
G2 X16.0053 Y3.1207 I0 J-0.0125
G1 X15.9982 Y3.0096
X15.857 Y0.7964
G2 X15.8545 Y0.7797 I-0.0998 J0.0065
G1 X15.6775 Y0.0347
X15.6405 Y-0.1208
G2 X15.6291 Y-0.1304 I-0.0122 J0.0029
G1 X15.5896 Y-0.1328
G2 X15.5764 Y-0.1207 I-0.0008 J0.0124
G1 X15.5733 Y0.0035
X15.5026 Y3.0035
X15.4999 Y3.1206
G2 X15.5124 Y3.1334 I0.0125 J0.0003
G1 X16.0179 Y3.134
G2 X16.0304 Y3.1207 I0 J-0.0125
G1 X16.0232 Y3.008
X15.8819 Y0.7948
G2 X15.8788 Y0.7739 I-0.1247 J0.0081
G1 X15.7018 Y0.0289
X15.6662 Y-0.1208
G2 X15.6544 Y-0.1304 I-0.0122 J0.0029
G1 X15.5641 Y-0.1329
G2 X15.5513 Y-0.1207 I-0.0003 J0.0125
G1 X15.5484 Y0.0029
X15.4749 Y3.1205
X15.4751 Y3.1245
X15.4765 Y3.1351
X15.477 Y3.139 Z0.2503
X15.4775 Y3.1428 Z0.2512
X15.478 Y3.1464 Z0.2527
X15.4785 Y3.1497 Z0.2548
X15.4789 Y3.1526 Z0.2573
X15.4792 Y3.1552 Z0.2603
X15.4795 Y3.1572 Z0.2637
X15.4797 Y3.1587 Z0.2673
X15.4798 Y3.1596 Z0.2711
Y3.1599 Z0.275
G0 Z1.35

(2D Contour1)
X16.275 Y3.2
Z1.35
Z0.95
G1 Z0.515 F15
G19 G2 Y3.175 Z0.49 J-0.025 K0 F75
G1 Y3.15
G17 G2 X16.25 Y3.125 I-0.025 J0
G1 X8.75
G3 X8.375 Y2.75 I0 J-0.375
G1 Y0.25
G3 X8.75 Y-0.125 I0.375 J0
G1 X16.25
G3 X16.625 Y0.25 I0 J0.375
G1 Y2.75
G3 X16.25 Y3.125 I-0.375 J0
G2 X16.225 Y3.15 I0 J0.025
G1 Y3.175
G19 G3 Y3.2 Z0.515 J0 K0.025
G0 Z0.95
X0.225 Y-0.2
G1 Z0.515 F15
G3 Y-0.175 Z0.49 J0.025 K0 F75
G1 Y-0.15
G17 G2 X0.25 Y-0.125 I0.025 J0
G1 X7.75
G3 X8.125 Y0.25 I0 J0.375
G1 Y2.75
G3 X7.75 Y3.125 I-0.375 J0
G1 X0.25
G3 X-0.125 Y2.75 I0 J-0.375
G1 Y0.25
G3 X0.25 Y-0.125 I0.375 J0
G2 X0.275 Y-0.15 I0 J-0.025
G1 Y-0.175
G19 G2 Y-0.2 Z0.515 J0 K0.025
G0 Z0.95
X0.225
G1 Z0.255 F15
G3 Y-0.175 Z0.23 J0.025 K0 F75
G1 Y-0.15
G17 G2 X0.25 Y-0.125 I0.025 J0
G1 X7.75
G3 X8.125 Y0.25 I0 J0.375
G1 Y2.75
G3 X7.75 Y3.125 I-0.375 J0
G1 X0.25
G3 X-0.125 Y2.75 I0 J-0.375
G1 Y0.25
G3 X0.25 Y-0.125 I0.375 J0
G2 X0.275 Y-0.15 I0 J-0.025
G1 Y-0.175
G19 G2 Y-0.2 Z0.255 J0 K0.025
G0 Z0.95
X16.275 Y3.2
G1 Z0.255 F15
G2 Y3.175 Z0.23 J-0.025 K0 F75
G1 Y3.15
G17 G2 X16.25 Y3.125 I-0.025 J0
G1 X8.75
G3 X8.375 Y2.75 I0 J-0.375
G1 Y0.25
G3 X8.75 Y-0.125 I0.375 J0
G1 X16.25
G3 X16.625 Y0.25 I0 J0.375
G1 Y2.75
G3 X16.25 Y3.125 I-0.375 J0
G2 X16.225 Y3.15 I0 J0.025
G1 Y3.175
G19 G3 Y3.2 Z0.255 J0 K0.025
G0 Z0.95
X16.275
G1 Z0.08 F15
Y3.15 F75
G17 G2 X16.25 Y3.125 I-0.025 J0
G1 X15.5653
Z0.008 F15
X9.175 F75
X9.125 F18.75
Z0.08 F75
X8.75
G3 X8.3964 Y2.875 I0 J-0.375
G1 Z0.008 F15
G3 X8.375 Y2.75 I0.3536 J-0.125 F75
G1 Y0.25
G3 X8.75 Y-0.125 I0.375 J0
G1 X12.2299
X12.2799 F18.75
Z0.08 F75
X13.0299
Z0.008 F15
X16.25 F75
G3 X16.625 Y0.25 I0 J0.375
G1 Y2.75
G3 X16.3638 Y3.1073 I-0.375 J0
X16.3153 Y3.1193 I-0.1138 J-0.3573 F18.75
G1 Z0.08 F75
G3 X16.25 Y3.125 I-0.0653 J-0.3693
G2 X16.225 Y3.15 I0 J0.025
G1 Y3.2
G0 Z0.95
X0.225 Y-0.2
G1 Z0.033 F15
G19 G3 Y-0.175 Z0.008 J0.025 K0 F75
G1 Y-0.15
G17 G2 X0.25 Y-0.125 I0.025 J0
G1 X3.7299
X3.7799 F18.75
Z0.08 F75
X4.5299
Z0.008 F15
X7.75 F75
G3 X8.125 Y0.25 I0 J0.375
G1 Y2.75
G3 X7.8638 Y3.1073 I-0.375 J0
X7.8153 Y3.1193 I-0.1138 J-0.3573 F18.75
G1 Z0.08 F75
G3 X7.75 Y3.125 I-0.0653 J-0.3693
G1 X7.0653
Z0.008 F15
X0.675 F75
X0.625 F18.75
Z0.08 F75
X0.25
G3 X-0.1036 Y2.875 I0 J-0.375
G1 Z0.008 F15
G3 X-0.125 Y2.75 I0.3536 J-0.125 F75
G1 Y0.25
G3 X0.25 Y-0.125 I0.375 J0
G2 X0.275 Y-0.15 I0 J-0.025
G1 Y-0.175
G19 G2 Y-0.2 Z0.033 J0 K0.025
G0 Z0.95
X0.225
G1 Z0.025 F15
G3 Y-0.175 Z0 J0.025 K0 F75
G1 Y-0.15
G17 G2 X0.25 Y-0.125 I0.025 J0
G1 X3.7299
X3.7799 F18.75
Z0.08 F75
X4.5299
Z0 F15
X7.75 F75
G3 X8.125 Y0.25 I0 J0.375
G1 Y2.75
G3 X7.8638 Y3.1073 I-0.375 J0
X7.8153 Y3.1193 I-0.1138 J-0.3573 F18.75
G1 Z0.08 F75
G3 X7.75 Y3.125 I-0.0653 J-0.3693
G1 X7.0653
Z0 F15
X0.675 F75
X0.625 F18.75
Z0.08 F75
X0.25
G3 X-0.1036 Y2.875 I0 J-0.375
G1 Z0 F15
G3 X-0.125 Y2.75 I0.3536 J-0.125 F75
G1 Y0.25
G3 X0.25 Y-0.125 I0.375 J0
G2 X0.275 Y-0.15 I0 J-0.025
G1 Y-0.175
G19 G2 Y-0.2 Z0.025 J0 K0.025
G0 Z0.95
X16.275 Y3.2
G1 Z0.08 F15
Y3.15 F75
G17 G2 X16.25 Y3.125 I-0.025 J0
G1 X15.5653
Z0 F15
X9.175 F75
X9.125 F18.75
Z0.08 F75
X8.75
G3 X8.3964 Y2.875 I0 J-0.375
G1 Z0 F15
G3 X8.375 Y2.75 I0.3536 J-0.125 F75
G1 Y0.25
G3 X8.75 Y-0.125 I0.375 J0
G1 X12.2299
X12.2799 F18.75
Z0.08 F75
X13.0299
Z0 F15
X16.25 F75
G3 X16.625 Y0.25 I0 J0.375
G1 Y2.75
G3 X16.3638 Y3.1073 I-0.375 J0
X16.3153 Y3.1193 I-0.1138 J-0.3573 F18.75
G1 Z0.08 F75
G3 X16.25 Y3.125 I-0.0653 J-0.3693
G2 X16.225 Y3.15 I0 J0.025
G1 Y3.2
G0 Z1.35
G28 G91 Z0
G90
G28 G91 X0 Y0
G90
M30
%
